;TIME:7158.26
;Filament used:12.48454m
;Layer height:0.200
; HEADER_BLOCK_START
; generated by Creality_Print V5.1.6.10470 on 2025-02-20 at 14:40:22
; total layer number: 250
; filament_density: 1.24
; filament_diameter: 1.75
; max_z_height: 50.00
; HEADER_BLOCK_END

; MINX = 60.00
; MINY = 60.00
; MINZ = -0.00
; MAXX = 160.00
; MAXY = 160.00
; MAXZ = 50.00

; external perimeters extrusion width = 0.42mm
; perimeters extrusion width = 0.45mm
; infill extrusion width = 0.45mm
; solid infill extrusion width = 0.42mm
; top infill extrusion width = 0.42mm
; first layer extrusion width = 0.50mm

; EXECUTABLE_BLOCK_START
M73 P0 R119
M201 X5000 Y5000 Z500 E5000
M203 X500 Y500 Z30 E100
M204 P5000 R2500 T5000 ; sets acceleration (P, T) and retract acceleration (R), mm/sec^2
M205 X10.00 Y10.00 Z0.40 E5.00 ; sets the jerk limits, mm/sec
;TYPE:Custom
M220 S100 ;Reset Feedrate 
M221 S100 ;Reset Flowrate 
 
M140 S50 ;Set final bed temp 
G28 ;Home 
 
G92 E0 ;Reset Extruder 
G1 Z2.0 F3000 ;Move Z Axis up 
M104 S190 ;Set final nozzle temp 
G1 X-2.1 Y20 Z0.28 F5000.0 ;Move to start position 
M190 S50 ;Wait for bed temp to stabilize 
M109 S190 ;Wait for nozzle temp to stabilize 
G1 X-2.1 Y145.0 Z0.28 F1500.0 E15 ;Draw the first line 
G1 X-2.4 Y145.0 Z0.28 F5000.0 ;Move to side a little 
G1 X-2.4 Y20 Z0.28 F1500.0 E30 ;Draw the second line 
G92 E0  ;Reset Extruder 
G1 E-1.0000 F1800 ;Retract a bit 
G1 Z2.0 F3000 ;Move Z Axis up 
G1 E0.0000 F1800
G90
G21
M83 ; use relative distances for extrusion
M106 S0
;LAYER_CHANGE
;Z:0.2
;HEIGHT:0.2
;BEFORE_LAYER_CHANGE
;0.2
G92 E0

G1 E-1.2 F2400
;_SET_FAN_SPEED_CHANGING_LAYER
M204 P500
M205 X10 Y10
; printing object Body1 id:0 copy 0
M204 T500
G1 X156.912 Y62.296 F9000
G1 Z.2
G1 E1.2 F1800
;TYPE:Inner wall
;WIDTH:0.493027
G1 X156.86 Y62.257 E.00231
G1 X157.741 Y62.259 E.03132
G1 X157.743 Y63.139 E.03131
G1 X157.288 Y62.582 E.02559
G1 X156.944 Y62.32 E.01535
G1 E-1.2 F2400
;WIPE_START
G1 F9000
G1 X156.86 Y62.257
G1 X157.741 Y62.259
G1 X157.743 Y63.139
G1 X157.659 Y63.036
;WIPE_END
G1 X154.955 Y65.73 Z.4
G1 X153.019 Y67.659 Z.4
G1 Z.2
G1 E1.2 F1800
;WIDTH:0.499999
G1 X153.256 Y67.841 E.0108
G2 X154.224 Y68.242 I2.459 J-4.569 E.03788
G1 X155.089 Y68.332 E.03142
G1 X155.949 Y68.195 E.03142
G1 X156.744 Y67.841 E.03142
G1 X157.421 Y67.29 E.03154
G1 X157.739 Y66.871 E.01899
G1 X157.741 Y153.131 E3.1145
G1 X157.293 Y152.581 E.02562
G1 X156.589 Y152.07 E.03142
G1 X155.776 Y151.758 E.03142
G1 X155.089 Y151.668 E.025
G2 X154.051 Y151.805 I.176 J5.349 E.03787
G1 X153.411 Y152.07 E.025
G2 X152.581 Y152.707 I3.117 J4.922 E.03786
G1 X152.159 Y153.256 E.025
G2 X151.758 Y154.224 I4.569 J2.459 E.03788
G1 X151.668 Y155.089 E.03142
G1 X151.805 Y155.949 E.03142
G1 X152.159 Y156.744 E.03142
G1 X152.71 Y157.421 E.03154
G1 X153.131 Y157.741 E.01908
G1 X66.871 Y157.739 E3.1145
G2 X67.419 Y157.293 I-5.28 J-7.04 E.02553
M73 P0 R118
G1 X67.93 Y156.589 E.03142
G1 X68.242 Y155.776 E.03142
G1 X68.332 Y155.089 E.025
G2 X68.195 Y154.051 I-5.349 J.176 E.03787
G1 X67.93 Y153.411 E.025
G2 X67.293 Y152.581 I-4.922 J3.117 E.03786
G1 X66.744 Y152.159 E.025
G2 X65.776 Y151.758 I-2.459 J4.569 E.03788
G1 X64.911 Y151.668 E.03142
G1 X64.051 Y151.805 E.03142
G1 X63.256 Y152.159 E.03142
G1 X62.579 Y152.71 E.03154
G1 X62.259 Y153.131 E.01908
G1 X62.261 Y66.871 E3.1145
G2 X62.707 Y67.419 I7.04 J-5.28 E.02553
G1 X63.411 Y67.93 E.03142
G1 X64.224 Y68.242 E.03142
G1 X64.911 Y68.332 E.025
G2 X65.949 Y68.195 I-.176 J-5.349 E.03787
G1 X66.589 Y67.93 E.025
G2 X67.419 Y67.293 I-3.117 J-4.922 E.03786
G1 X67.841 Y66.744 E.025
G2 X68.242 Y65.776 I-4.569 J-2.459 E.03788
G1 X68.332 Y64.911 E.03142
G1 X68.195 Y64.051 E.03142
G1 X67.841 Y63.256 E.03142
G1 X67.29 Y62.579 E.03154
G1 X66.87 Y62.26 E.01904
G1 X153.13 Y62.26 E3.11451
G1 X152.581 Y62.707 E.02558
G1 X152.07 Y63.411 E.03142
G1 X151.758 Y64.224 E.03142
G1 X151.668 Y64.911 E.025
G2 X151.805 Y65.949 I5.349 J-.176 E.03787
G1 X152.07 Y66.589 E.025
G2 X152.707 Y67.419 I4.922 J-3.117 E.03786
G1 X152.987 Y67.634 E.01275
G1 X153.009 Y67.075 F9000
;TYPE:Outer wall
G1 F1800
G1 X152.985 Y67.057 E.00105
G1 X152.522 Y66.465 E.02714
G1 X152.227 Y65.774 E.02714
G3 X152.121 Y64.97 I8.824 J-1.571 E.02928
G1 X152.211 Y64.284 E.025
G1 X152.492 Y63.586 E.02714
G1 X152.943 Y62.985 E.02714
G1 X153.538 Y62.524 E.02717
;WIDTH:0.503419
G1 X154.105 Y62.302 E.02215
;WIDTH:0.503651
G1 X154.306 Y62.237 E.00772
G3 X155.694 Y62.237 I.694 J5.319 E.05062
G1 X156.364 Y62.477 E.02594
;WIDTH:0.499999
G1 X157.013 Y62.943 E.02884
G1 X157.476 Y63.538 E.02721
;WIDTH:0.518794
G1 X157.757 Y64.24 E.02842
G1 X157.808 Y64.984 E.02805
;WIDTH:0.50368
G1 X157.763 Y65.694 E.02587
G1 X157.508 Y66.403 E.02745
;WIDTH:0.499999
G1 X157.057 Y67.014 E.02739
G1 X156.465 Y67.478 E.02718
G1 X155.774 Y67.773 E.02714
G1 X155.03 Y67.879 E.02714
G1 X154.284 Y67.789 E.02714
G1 X153.74 Y67.572 E.02114
G1 X153.535 Y67.478 E.00814
G1 X153.04 Y67.099 E.0225
G1 E-1.2 F2400
;WIPE_START
G1 F9000
G1 X152.985 Y67.057
G1 X152.522 Y66.465
G1 X152.227 Y65.774
G1 X152.171 Y65.35
;WIPE_END
G1 X152.403 Y69.159 Z.4
G1 X157.743 Y156.966 Z.4
G1 Z.2
G1 E1.2 F1800
;TYPE:Inner wall
;WIDTH:0.49349
G1 X157.743 Y157.741 E.02757
G1 X156.861 Y157.743 E.03138
G1 X157.419 Y157.288 E.0256
G1 X157.743 Y156.861 E.0191
G1 X157.743 Y156.926 E.00234
G1 E-1.2 F2400
;WIPE_START
G1 F9000
G1 X157.743 Y157.741
G1 X156.861 Y157.743
G1 X157.097 Y157.551
;WIPE_END
G1 X156.599 Y153.767 Z.4
G1 X156.432 Y152.506 Z.4
G1 Z.2
G1 E1.2 F1800
;TYPE:Outer wall
;WIDTH:0.499999
G1 X157.015 Y152.943 E.02629
G1 X157.476 Y153.538 E.02717
;WIDTH:0.5184
G1 X157.756 Y154.24 E.0284
G1 X157.808 Y154.984 E.02802
;WIDTH:0.50366
G1 X157.763 Y155.694 E.02587
G1 X157.52 Y156.372 E.02624
;WIDTH:0.499999
G1 X157.057 Y157.013 E.02855
G1 X156.462 Y157.476 E.02721
;WIDTH:0.509269
G1 X155.759 Y157.752 E.02785
G1 X155.016 Y157.808 E.02744
;WIDTH:0.503681
G1 X154.306 Y157.763 E.02587
G1 X153.658 Y157.531 E.02505
;WIDTH:0.499999
G1 X153.538 Y157.476 E.00479
G1 X152.986 Y157.057 E.02499
G1 X152.522 Y156.465 E.02718
G1 X152.227 Y155.774 E.02714
G1 X152.121 Y155.03 E.02714
G1 X152.211 Y154.284 E.02714
G3 X152.522 Y153.535 I7.972 J2.863 E.02928
G1 X152.943 Y152.985 E.025
G1 X153.535 Y152.522 E.02714
G1 X154.226 Y152.227 E.02714
G3 X155.03 Y152.121 I1.571 J8.824 E.02928
G1 X155.716 Y152.211 E.025
G1 X156.398 Y152.486 E.02654
G1 E-1.2 F2400
;WIPE_START
G1 F9000
G1 X157.015 Y152.943
G1 X157.476 Y153.538
G1 X157.654 Y153.984
;WIPE_END
G1 X153.839 Y153.872 Z.4
G1 X69.447 Y151.398 Z.4
G1 Z.2
G1 E1.2 F1800
;TYPE:Inner wall
G1 X69.307 Y151.302 E.00613
G1 X68.775 Y150.784 E.02682
G1 X68.34 Y150.182 E.02682
G1 X68.058 Y149.602 E.02331
G1 X67.815 Y148.799 E.03029
G1 X67.737 Y148.042 E.02748
G1 X67.737 Y71.993 E2.74583
G1 X67.791 Y71.349 E.02331
G1 X67.945 Y70.715 E.02356
G1 X68.28 Y69.921 E.0311
G1 X68.698 Y69.307 E.02682
G1 X69.166 Y68.824 E.02428
G1 X69.818 Y68.34 E.02933
G1 X70.398 Y68.058 E.02331
G1 X71.201 Y67.815 E.03029
G1 X71.958 Y67.737 E.02748
G1 X148.007 Y67.737 E2.74583
G1 X148.65 Y67.791 E.02327
G1 X149.285 Y67.945 E.02361
G1 X150.079 Y68.28 E.0311
G1 X150.693 Y68.698 E.02682
G1 X151.176 Y69.166 E.02428
G1 X151.66 Y69.818 E.02933
G1 X151.942 Y70.398 E.02331
G1 X152.185 Y71.201 E.03029
G1 X152.263 Y71.958 E.02748
G1 X152.263 Y148.007 E2.74583
G1 X152.209 Y148.649 E.02326
G1 X152.055 Y149.285 E.02362
G1 X151.72 Y150.079 E.0311
G1 X151.302 Y150.693 E.02682
G1 X150.834 Y151.176 E.02427
G1 X150.182 Y151.66 E.02933
G1 X149.602 Y151.942 E.02331
G1 X148.799 Y152.185 E.03029
G1 X148.042 Y152.263 E.02748
G1 X71.993 Y152.263 E2.74583
G1 X71.349 Y152.209 E.02331
G1 X70.715 Y152.055 E.02356
G1 X69.921 Y151.72 E.0311
G1 X69.481 Y151.42 E.01925
G1 X70.115 Y151.305 F9000
;TYPE:Outer wall
G1 F1800
G1 X69.569 Y150.928 E.02395
G1 X69.098 Y150.461 E.02395
G1 X68.715 Y149.92 E.02395
G1 X68.472 Y149.408 E.02044
G1 X68.256 Y148.68 E.02742
G1 X68.195 Y148.018 E.02402
G1 X68.195 Y71.993 E2.74497
G1 X68.246 Y71.389 E.02188
G1 X68.386 Y70.833 E.02069
G1 X68.695 Y70.115 E.02823
G1 X69.072 Y69.569 E.02395
G1 X69.489 Y69.148 E.02141
G1 X70.08 Y68.715 E.02646
G1 X70.592 Y68.472 E.02044
G1 X71.32 Y68.256 E.02742
G1 X71.982 Y68.195 E.02402
G1 X148.007 Y68.195 E2.74497
G1 X148.61 Y68.246 E.02183
G1 X149.167 Y68.386 E.02074
G1 X149.885 Y68.695 E.02823
G1 X150.431 Y69.072 E.02395
G1 X150.852 Y69.489 E.02141
G1 X151.285 Y70.08 E.02646
G1 X151.528 Y70.592 E.02044
G1 X151.744 Y71.32 E.02742
G1 X151.805 Y71.982 E.02402
G1 X151.805 Y148.007 E2.74497
G1 X151.754 Y148.61 E.02182
G1 X151.614 Y149.167 E.02075
G1 X151.305 Y149.885 E.02823
G1 X150.928 Y150.431 E.02395
G1 X150.511 Y150.852 E.02141
G1 X149.92 Y151.285 E.02646
G1 X149.408 Y151.528 E.02044
G1 X148.68 Y151.744 E.02742
G1 X148.018 Y151.805 E.02402
G1 X71.993 Y151.805 E2.74497
G1 X71.389 Y151.754 E.02188
G1 X70.833 Y151.614 E.02069
G1 X70.151 Y151.321 E.02679
G1 E-1.2 F2400
;WIPE_START
G1 F9000
G1 X69.569 Y150.928
G1 X69.098 Y150.461
G1 X68.731 Y149.944
;WIPE_END
G1 X66.405 Y152.969 Z.4
G1 X62.884 Y157.549 Z.4
G1 Z.2
G1 E1.2 F1800
;TYPE:Inner wall
;WIDTH:0.493487
G1 X63.139 Y157.743 E.01139
G1 X62.257 Y157.741 E.03138
G1 X62.257 Y156.861 E.03134
G1 X62.712 Y157.419 E.02563
G1 X62.852 Y157.525 E.00625
G1 E-1.2 F2400
;WIPE_START
G1 F9000
G1 X63.139 Y157.743
G1 X62.257 Y157.741
G1 X62.257 Y156.983
;WIPE_END
G1 X64.485 Y153.885 Z.4
G1 X65.69 Y152.208 Z.4
G1 Z.2
G1 E1.2 F1800
;TYPE:Outer wall
;WIDTH:0.499999
G1 X65.716 Y152.211 E.00094
G3 X66.465 Y152.522 I-2.863 J7.971 E.02928
G1 X67.015 Y152.943 E.025
G1 X67.478 Y153.535 E.02714
G1 X67.773 Y154.226 E.02714
G3 X67.879 Y155.03 I-8.825 J1.571 E.02928
G1 X67.789 Y155.716 E.025
G1 X67.508 Y156.414 E.02714
G1 X67.057 Y157.015 E.02714
G1 X66.462 Y157.476 E.02717
;WIDTH:0.503724
G3 X65.694 Y157.763 I-2.541 J-5.626 E.02989
G3 X64.306 Y157.763 I-.694 J-5.343 E.05063
G1 X63.628 Y157.52 E.02625
;WIDTH:0.499999
G1 X62.986 Y157.057 E.02855
G1 X62.524 Y156.462 E.02721
;WIDTH:0.509268
G1 X62.248 Y155.759 E.02785
G1 X62.192 Y155.016 E.02744
;WIDTH:0.503679
G1 X62.237 Y154.306 E.02587
G1 X62.469 Y153.658 E.02505
;WIDTH:0.499999
G1 X62.524 Y153.538 E.00479
G1 X62.943 Y152.986 E.02499
G1 X63.535 Y152.522 E.02718
G1 X64.226 Y152.227 E.02714
G1 X64.97 Y152.121 E.02714
G1 X65.651 Y152.204 E.02475
G1 E-1.2 F2400
;WIPE_START
G1 F9000
G1 X65.716 Y152.211
G1 X66.465 Y152.522
G1 X67.015 Y152.943
G1 X67.28 Y153.282
;WIPE_END
G1 X67.07 Y149.472 Z.4
G1 X62.29 Y63.095 Z.4
G1 Z.2
G1 E1.2 F1800
;TYPE:Inner wall
;WIDTH:0.49352
G1 X62.257 Y63.139 E.00196
G1 X62.257 Y62.259 E.03134
G1 X63.139 Y62.257 E.0314
G1 X62.581 Y62.712 E.02561
G1 X62.314 Y63.064 E.01571
G1 E-1.2 F2400
;WIPE_START
G1 F9000
G1 X62.257 Y63.139
G1 X62.257 Y62.259
G1 X63.139 Y62.257
G1 X63.029 Y62.347
;WIPE_END
G1 X65.504 Y65.252 Z.4
G1 X67.026 Y67.039 Z.4
G1 Z.2
G1 E1.2 F1800
;TYPE:Outer wall
;WIDTH:0.499999
G1 X66.465 Y67.478 E.02574
G1 X65.774 Y67.773 E.02714
G3 X64.97 Y67.879 I-1.571 J-8.825 E.02928
G1 X64.284 Y67.789 E.025
G1 X63.586 Y67.508 E.02714
G1 X62.985 Y67.057 E.02714
G1 X62.524 Y66.462 E.02717
;WIDTH:0.503724
G3 X62.237 Y65.694 I5.626 J-2.541 E.02989
G3 X62.237 Y64.306 I5.344 J-.694 E.05063
;WIDTH:0.50366
G1 X62.48 Y63.628 E.02624
;WIDTH:0.499999
G1 X62.943 Y62.986 E.02855
G1 X63.538 Y62.524 E.02721
;WIDTH:0.503419
G1 X64.105 Y62.302 E.02215
;WIDTH:0.503651
G1 X64.306 Y62.237 E.00772
G3 X65.694 Y62.237 I.694 J5.319 E.05062
G1 X66.364 Y62.477 E.02594
;WIDTH:0.499999
G1 X67.014 Y62.943 E.02884
G1 X67.478 Y63.535 E.02718
G1 X67.773 Y64.226 E.02714
G1 X67.879 Y64.97 E.02714
G1 X67.789 Y65.716 E.02714
G3 X67.478 Y66.465 I-7.971 J-2.863 E.02928
G1 X67.058 Y67.014 E.02495
G1 E-1.2 F2400
;WIPE_START
G1 F9000
G1 X66.465 Y67.478
G1 X65.774 Y67.773
G1 X65.283 Y67.838
;WIPE_END
G1 X65.14 Y71.651 Z.4
G1 X61.915 Y158.147 Z.4
G1 Z.2
G1 E1.2 F1800
G1 X61.803 Y157.965 E.00775
G1 X61.803 Y156.497 E.05299
;WIDTH:0.507588
G2 X61.737 Y154.956 I-266.294 J10.508 E.05662
;WIDTH:0.509706
G2 X61.802 Y153.524 I-16.415 J-1.456 E.05288
;WIDTH:0.499999
G1 X61.798 Y66.534 E3.14085
;WIDTH:0.503678
G2 X61.736 Y64.955 I-29.133 J.346 E.0575
;WIDTH:0.508424
G2 X61.803 Y63.493 I-15.898 J-1.458 E.05387
;WIDTH:0.499999
G1 X61.803 Y62.035 E.05261
G1 X61.915 Y61.853 E.00775
G1 X62.055 Y61.805 E.00531
G1 X63.506 Y61.802 E.05241
;WIDTH:0.503651
G2 X65.044 Y61.737 I-.941 J-40.092 E.05603
;WIDTH:0.508853
G2 X66.5 Y61.803 I1.461 J-16.197 E.05365
;WIDTH:0.499999
G1 X153.506 Y61.802 E3.14145
;WIDTH:0.503651
G2 X155.044 Y61.737 I-.941 J-40.093 E.05603
;WIDTH:0.508853
G2 X156.499 Y61.803 I1.461 J-16.197 E.05363
;WIDTH:0.499999
G3 X157.985 Y61.81 I.241 J106.819 E.05366
G1 X158.124 Y61.888 E.00573
G1 X158.195 Y62.036 E.00595
G1 X158.197 Y63.503 E.05295
;WIDTH:0.507589
G2 X158.263 Y65.044 I266.095 J-10.5 E.05662
;WIDTH:0.503723
G2 X158.195 Y66.97 I22.713 J1.761 E.07018
;WIDTH:0.499999
G1 X158.198 Y153.534 E3.12547
;WIDTH:0.507155
G2 X158.264 Y155.045 I128.664 J-4.808 E.05545
;WIDTH:0.503237
G2 X158.197 Y156.507 I19.186 J1.607 E.05326
;WIDTH:0.499999
G1 X158.197 Y157.965 E.05261
G1 X158.085 Y158.147 E.00775
G1 X157.945 Y158.195 E.00531
G1 X156.497 Y158.197 E.0523
;WIDTH:0.50759
G2 X154.956 Y158.263 I10.504 J266.211 E.05662
;WIDTH:0.509707
G2 X153.524 Y158.198 I-1.456 J16.415 E.05288
;WIDTH:0.499999
G1 X66.534 Y158.202 E3.14085
;WIDTH:0.50368
G2 X64.955 Y158.264 I.346 J29.129 E.0575
;WIDTH:0.508424
G2 X63.493 Y158.197 I-1.457 J15.896 E.05385
;WIDTH:0.499999
G1 X62.123 Y158.195 E.04945
G1 X61.954 Y158.156 E.00626
G1 E-1.2 F2400
;WIPE_START
G1 F9000
G1 X61.803 Y157.965
G1 X61.803 Y156.497
G1 X61.791 Y156.209
;WIPE_END
G1 Z.4
G1 X157.624 Y68.208
G1 Z.4
M73 P1 R118
G1 Z.2
G1 E1.2 F1800
;TYPE:Bottom surface
;WIDTH:0.501086
G1 F4800
G1 X157.262 Y67.846 E.01851
G1 X156.891 Y68.123 E.01676
G1 X157.418 Y68.65 E.02698
G1 X157.418 Y69.298 E.02345
G1 X156.453 Y68.333 E.0494
G3 X155.987 Y68.514 I-.923 J-1.68 E.01816
G1 X157.418 Y69.946 E.07327
G1 X157.418 Y70.594 E.02345
G1 X155.43 Y68.606 E.10177
G1 X154.991 Y68.659 E.01599
G1 X154.811 Y68.635 E.00658
G1 X157.418 Y71.242 E.13345
G1 X157.418 Y71.89 E.02345
G1 X153.697 Y68.168 E.19048
G1 E-1.2 F2400
;WIPE_START
G1 F9000
G1 X155.111 Y69.583
;WIPE_END
G1 X153.634 Y66.064 Z.4
G1 X152.3 Y62.885 Z.4
G1 Z.2
G1 E1.2 F1800
G1 F4800
G1 X151.995 Y62.58 E.01561
G1 X151.348 Y62.58 E.02345
G1 X151.877 Y63.109 E.0271
G2 X151.667 Y63.547 I1.557 J1.016 E.01763
G1 X150.7 Y62.58 E.04952
G1 X150.052 Y62.58 E.02345
G1 X151.486 Y64.013 E.07339
G2 X151.394 Y64.57 I1.905 J.598 E.02049
G1 X149.404 Y62.58 E.10189
G1 X148.756 Y62.58 E.02345
G1 X151.365 Y65.189 E.13357
G1 X151.464 Y65.936 E.02727
G1 X148.108 Y62.58 E.1718
G1 X147.46 Y62.58 E.02345
G1 X157.418 Y72.538 E.50969
G1 X157.418 Y73.186 E.02345
G1 X146.812 Y62.58 E.54286
G1 X146.164 Y62.58 E.02345
G1 X157.418 Y73.834 E.57602
G1 X157.418 Y74.482 E.02345
G1 X145.516 Y62.58 E.60919
G1 X144.868 Y62.58 E.02345
G1 X157.418 Y75.13 E.64235
G1 X157.418 Y75.778 E.02345
G1 X152.394 Y70.754 E.25715
G3 X152.543 Y71.55 I-2.199 J.823 E.02948
G1 X157.418 Y76.426 E.24954
G1 X157.418 Y77.074 E.02345
G1 X152.582 Y72.238 E.24751
G1 X152.582 Y72.886 E.02345
G1 X157.418 Y77.722 E.24751
G1 X157.418 Y78.37 E.02345
G1 X152.582 Y73.534 E.24751
G1 X152.582 Y74.182 E.02345
G1 X157.418 Y79.018 E.24751
G1 X157.418 Y79.666 E.02345
G1 X152.582 Y74.83 E.24751
G1 X152.582 Y75.478 E.02345
G1 X157.418 Y80.314 E.24752
G1 X157.418 Y80.961 E.02345
G1 X152.582 Y76.126 E.24752
G1 X152.582 Y76.773 E.02345
M73 P1 R117
G1 X157.418 Y81.609 E.24752
G1 X157.418 Y82.257 E.02345
G1 X152.582 Y77.421 E.24752
G1 X152.582 Y78.069 E.02345
G1 X157.419 Y82.905 E.24752
G1 X157.419 Y83.553 E.02345
G1 X152.582 Y78.717 E.24752
G1 X152.582 Y79.365 E.02345
G1 X157.419 Y84.201 E.24752
G1 X157.419 Y84.849 E.02345
G1 X152.582 Y80.013 E.24752
G1 X152.582 Y80.661 E.02345
G1 X157.419 Y85.497 E.24753
G1 X157.419 Y86.145 E.02345
G1 X152.582 Y81.309 E.24753
G1 X152.582 Y81.957 E.02345
G1 X157.419 Y86.793 E.24753
G1 X157.419 Y87.441 E.02345
G1 X152.582 Y82.605 E.24753
G1 X152.582 Y83.253 E.02345
G1 X157.419 Y88.089 E.24753
G1 X157.419 Y88.737 E.02345
