;TIME:114.81
;Filament used:0.04742m
;Layer height:0.200
; HEADER_BLOCK_START
; generated by Creality_Print V5.1.6.10470 on 2025-02-20 at 14:50:37
; total layer number: 40
; filament_density: 1.24
; filament_diameter: 1.75
; max_z_height: 8.00
; HEADER_BLOCK_END

; MINX = 107.25
; MINY = 111.25
; MINZ = -0.00
; MAXX = 112.75
; MAXY = 116.75
; MAXZ = 8.00

; external perimeters extrusion width = 0.42mm
; perimeters extrusion width = 0.45mm
; infill extrusion width = 0.45mm
; solid infill extrusion width = 0.42mm
; top infill extrusion width = 0.42mm
; first layer extrusion width = 0.50mm

; EXECUTABLE_BLOCK_START
M73 P0 R1
M201 X5000 Y5000 Z500 E5000
M203 X500 Y500 Z30 E100
M204 P5000 R2500 T5000 ; sets acceleration (P, T) and retract acceleration (R), mm/sec^2
M205 X10.00 Y10.00 Z0.40 E5.00 ; sets the jerk limits, mm/sec
;TYPE:Custom
M220 S100 ;Reset Feedrate 
M221 S100 ;Reset Flowrate 
 
M140 S50 ;Set final bed temp 
G28 ;Home 
 
G92 E0 ;Reset Extruder 
G1 Z2.0 F3000 ;Move Z Axis up 
M104 S190 ;Set final nozzle temp 
G1 X-2.1 Y20 Z0.28 F5000.0 ;Move to start position 
M190 S50 ;Wait for bed temp to stabilize 
M109 S190 ;Wait for nozzle temp to stabilize 
G1 X-2.1 Y145.0 Z0.28 F1500.0 E15 ;Draw the first line 
G1 X-2.4 Y145.0 Z0.28 F5000.0 ;Move to side a little 
M73 P4 R1
G1 X-2.4 Y20 Z0.28 F1500.0 E30 ;Draw the second line 
G92 E0  ;Reset Extruder 
G1 E-1.0000 F1800 ;Retract a bit 
M73 P9 R1
G1 Z2.0 F3000 ;Move Z Axis up 
G1 E0.0000 F1800
G90
G21
M83 ; use relative distances for extrusion
M106 S0
;LAYER_CHANGE
;Z:0.2
;HEIGHT:0.2
;BEFORE_LAYER_CHANGE
;0.2
G92 E0

G1 E-1.2 F2400
;_SET_FAN_SPEED_CHANGING_LAYER
M204 P500
M205 X10 Y10
; printing object Body1 id:0 copy 0
M204 T500
G1 X109.965 Y112.126 F9000
G1 Z.2
M73 P10 R1
G1 E1.2 F1800
;TYPE:Inner wall
;WIDTH:0.499999
G1 F1200
G1 X110.413 Y112.158 E.01621
G3 X111.848 Y113.665 I-.46 J1.875 E.07932
G1 X111.87 Y114.269 E.02183
G3 X109.853 Y112.118 I-1.865 J-.273 E.30522
G1 X109.926 Y112.123 E.00264
M73 P11 R1
G1 X109.343 Y111.745 F9000
;TYPE:Outer wall
G1 F1200
G1 X109.828 Y111.658 E.01781
G1 X110.503 Y111.706 E.02443
G1 X110.976 Y111.864 E.01798
G1 X111.407 Y112.12 E.01813
G1 X111.775 Y112.462 E.01813
G1 X112.061 Y112.874 E.01812
G1 X112.253 Y113.338 E.01813
G1 X112.343 Y113.832 E.01813
G1 X112.325 Y114.334 E.01813
G1 X112.201 Y114.821 E.01813
G1 X111.976 Y115.27 E.01813
G1 X111.661 Y115.661 E.01813
G1 X111.27 Y115.976 E.01813
G1 X110.821 Y116.2 E.01813
G1 X110.334 Y116.325 E.01813
G1 X109.832 Y116.343 E.01813
G1 X109.338 Y116.253 E.01813
G1 X108.874 Y116.061 E.01813
G1 X108.462 Y115.775 E.01813
G1 X108.12 Y115.408 E.01812
G1 X107.862 Y114.971 E.0183
G1 X107.705 Y114.499 E.01796
G1 X107.651 Y114 E.01813
G1 X107.705 Y113.501 E.01813
G1 X107.864 Y113.024 E.01813
G1 X108.12 Y112.593 E.01813
G1 X108.462 Y112.225 E.01813
G1 X108.874 Y111.939 E.01812
G1 X109.306 Y111.761 E.01685
G1 E-1.2 F2400
;WIPE_START
G1 F9000
G1 X109.828 Y111.658
G1 X110.503 Y111.706
G1 X110.976 Y111.864
G1 X111.228 Y112.013
;WIPE_END
G1 Z.4
G1 X110.47 Y112.298
G1 Z.4
G1 Z.2
G1 E1.2 F1800
;TYPE:Bottom surface
;WIDTH:0.555016
G1 F1200
G1 X111.271 Y113.098 E.04579
G3 X111.563 Y113.888 I-1.37 J.956 E.03446
M73 P12 R1
G1 X111.555 Y114.107 E.00885
G1 X109.89 Y112.442 E.09527
G1 X109.87 Y112.44 E.00081
G2 X109.32 Y112.596 I.083 J1.346 E.0233
G1 X111.403 Y114.679 E.11916
G3 X111.108 Y115.108 I-1.134 J-.462 E.02123
G1 X108.898 Y112.898 E.12646
G2 X108.593 Y113.318 I.813 J.909 E.02114
G1 X110.678 Y115.403 E.11929
G1 X110.548 Y115.468 E.00592
G1 X110.223 Y115.551 E.01355
G1 X110.107 Y115.555 E.00471
G1 X108.444 Y113.893 E.0951
G1 X108.433 Y114 E.00436
G2 X108.716 Y114.888 I1.701 J-.052 E.0382
G1 X109.536 Y115.708 E.04692
; stop printing object Body1 id:0 copy 0
;TIME_ELAPSED:14.880520

M106 S255
;LAYER_CHANGE
;Z:0.4
;HEIGHT:0.2
;BEFORE_LAYER_CHANGE
;0.4
G92 E0

G1 E-1.2 F2400
;WIPE_START
G1 F9000
G1 X108.716 Y114.888
G1 X108.573 Y114.647
M73 P13 R1
G1 X108.469 Y114.333
G1 X108.444 Y114.105
;WIPE_END
;_SET_FAN_SPEED_CHANGING_LAYER
M204 P2500
; printing object Body1 id:0 copy 0
M204 T2500
G1 X109.839 Y111.863 Z.4
G1 E1.2 F1800
M204 P2000
;TYPE:Inner wall
;WIDTH:0.449999
G1 F1200
G1 X110.466 Y111.908 E.02022
G3 X111.749 Y112.78 I-.65 J2.336 E.05079
G1 X111.969 Y113.181 E.01471
G1 X112.098 Y113.619 E.01469
G1 X112.123 Y114.305 E.02207
G1 X112.01 Y114.748 E.01471
G1 X111.797 Y115.17 E.01519
G1 X111.518 Y115.515 E.01427
G1 X111.148 Y115.811 E.01521
G1 X110.75 Y116.009 E.01431
G1 X110.305 Y116.123 E.01476
G1 X109.847 Y116.139 E.01474
G1 X109.396 Y116.058 E.01474
G1 X108.972 Y115.882 E.01474
G1 X108.596 Y115.621 E.01474
G1 X108.283 Y115.285 E.01474
G1 X108.049 Y114.891 E.01474
G1 X107.904 Y114.456 E.01474
G1 X107.855 Y114 E.01474
G1 X107.904 Y113.544 E.01474
G1 X108.049 Y113.109 E.01474
G1 X108.283 Y112.715 E.01474
G1 X108.596 Y112.379 E.01474
G1 X108.972 Y112.118 E.01474
G1 X109.396 Y111.942 E.01474
G1 X109.799 Y111.87 E.01318
G1 X109.272 Y111.569 F9000
M204 P1000
;TYPE:Outer wall
;WIDTH:0.419999
G1 F1200
G1 X109.285 Y111.564 E.0004
G1 X109.815 Y111.468 E.01606
G1 X110.543 Y111.52 E.02172
G1 X111.055 Y111.691 E.01607
G1 X111.522 Y111.968 E.01617
G1 X111.919 Y112.337 E.01617
G1 X112.228 Y112.783 E.01617
G1 X112.436 Y113.285 E.01617
G1 X112.532 Y113.819 E.01617
G1 X112.513 Y114.361 E.01617
G1 X112.379 Y114.887 E.01616
M73 P14 R1
G1 X112.128 Y115.384 E.0166
G1 X111.796 Y115.795 E.01573
G1 X111.36 Y116.143 E.0166
G1 X110.887 Y116.379 E.01574
G1 X110.361 Y116.513 E.01617
G1 X109.819 Y116.532 E.01617
G1 X109.285 Y116.436 E.01617
G1 X108.783 Y116.228 E.01617
G1 X108.337 Y115.919 E.01617
G1 X107.968 Y115.522 E.01617
G1 X107.691 Y115.055 E.01617
G1 X107.519 Y114.54 E.01617
G1 X107.461 Y114 E.01617
G1 X107.519 Y113.46 E.01617
G1 X107.691 Y112.945 E.01617
G1 X107.968 Y112.478 E.01617
G1 X108.337 Y112.081 E.01617
G1 X108.783 Y111.772 E.01617
G1 X109.235 Y111.584 E.01458
G1 E-1.2 F2400
;WIPE_START
G1 F9000
G1 X109.285 Y111.564
G1 X109.815 Y111.468
G1 X110.543 Y111.52
G1 X111.055 Y111.691
G1 X111.174 Y111.761
;WIPE_END
G1 Z.6
G1 X111.556 Y114.778
G1 Z.6
G1 Z.4
G1 E1.2 F1800
M204 P2500
;TYPE:Internal solid infill
G1 F1200
G2 X110.869 Y112.492 I-1.59 J-.768 E.07806
G1 X110.389 Y112.295 E.01544
G1 X109.858 Y112.257 E.01586
G1 X109.355 Y112.384 E.01544
G2 X111.534 Y114.811 I.644 J1.614 E.19899
G1 X110.561 Y113.764 F9000
M73 P15 R1
G1 F1200
G1 X110.409 Y113.549 E.00787
G1 X110.166 Y113.414 E.00827
G1 X109.827 Y113.412 E.01009
G1 X109.599 Y113.537 E.00776
G1 X109.443 Y113.746 E.00776
G1 X109.388 Y114 E.00776
G1 X109.443 Y114.254 E.00776
G1 X109.599 Y114.463 E.00776
G1 X109.827 Y114.588 E.00776
G1 X110.087 Y114.606 E.00776
G1 X110.323 Y114.52 E.00749
G1 X110.51 Y114.339 E.00775
G1 X110.606 Y114.087 E.00802
G1 X110.567 Y113.804 E.00852
G1 X110.014 Y113.799 F9000
;WIDTH:0.457238
G1 F1200
G1 X109.875 Y113.827 E.00466
G1 X109.79 Y113.954 E.00499
G1 X109.828 Y114.129 E.00583
G1 X109.985 Y114.214 E.00583
G1 X110.144 Y114.157 E.00554
G1 X110.213 Y114.006 E.00542
G1 X110.162 Y113.86 E.00508
G1 X110.051 Y113.814 E.00391
G1 X110.027 Y113.026 F9000
;WIDTH:0.419999
G1 F1200
G1 X109.721 Y113.048 E.00914
G1 X109.351 Y113.251 E.01256
G1 X109.098 Y113.588 E.01256
G1 X109.008 Y114 E.01256
G1 X109.098 Y114.412 E.01256
G1 X109.351 Y114.749 E.01256
G1 X109.721 Y114.952 E.01256
G1 X110.141 Y114.982 E.01256
G1 X110.528 Y114.839 E.01226
G1 X110.829 Y114.544 E.01255
G1 X110.982 Y114.141 E.01285
G1 X110.952 Y113.721 E.01256
G1 X110.749 Y113.351 E.01256
G1 X110.412 Y113.098 E.01256
G1 X110.066 Y113.033 E.01049
G1 X110.022 Y112.647 F9000
G1 F1200
G1 X109.614 Y112.685 E.01223
G1 X109.219 Y112.883 E.01316
G1 X108.902 Y113.178 E.0129
G1 X108.706 Y113.571 E.01307
G1 X108.629 Y114 E.01298
G1 X108.707 Y114.431 E.01306
G1 X108.902 Y114.822 E.013
G1 X109.223 Y115.12 E.01305
G1 X109.614 Y115.315 E.01301
G1 X110.049 Y115.362 E.01305
G1 X110.48 Y115.284 E.01304
M73 P16 R1
G1 X110.862 Y115.054 E.01328
G1 X111.147 Y114.75 E.01241
G1 X111.321 Y114.335 E.01342
G1 X111.362 Y114.047 E.00866
G1 X111.315 Y113.614 E.01298
G1 X111.117 Y113.219 E.01316
G1 X110.822 Y112.902 E.0129
G1 X110.452 Y112.714 E.01236
G1 X110.062 Y112.653 E.01175
; stop printing object Body1 id:0 copy 0
;TIME_ELAPSED:18.579973

;LAYER_CHANGE
;Z:0.6
;HEIGHT:0.2
;BEFORE_LAYER_CHANGE
;0.6
G92 E0

G1 E-1.2 F2400
;WIPE_START
G1 F9000
G1 X110.452 Y112.714
G1 X110.822 Y112.902
G1 X111.117 Y113.219
G1 X111.315 Y113.614
G1 X111.349 Y113.927
;WIPE_END
;_SET_FAN_SPEED_CHANGING_LAYER
; printing object Body1 id:0 copy 0
G1 X109.86 Y111.864 Z.6
G1 E1.2 F1800
M204 P2000
;TYPE:Inner wall
;WIDTH:0.449999
G1 F1200
G1 X110.466 Y111.908 E.01951
G3 X111.749 Y112.78 I-.65 J2.336 E.05079
G1 X111.969 Y113.181 E.01471
G1 X112.098 Y113.619 E.01469
G1 X112.123 Y114.305 E.02207
G1 X112.009 Y114.749 E.01474
G1 X111.804 Y115.159 E.01474
G1 X111.516 Y115.516 E.01475
G1 X111.159 Y115.804 E.01474
G1 X110.749 Y116.009 E.01474
G1 X110.305 Y116.123 E.01474
G1 X109.847 Y116.139 E.01474
G1 X109.396 Y116.058 E.01474
G1 X108.972 Y115.882 E.01474
G1 X108.596 Y115.621 E.01474
G1 X108.283 Y115.285 E.01474
G1 X108.049 Y114.891 E.01474
G1 X107.904 Y114.456 E.01474
G1 X107.855 Y114 E.01474
G1 X107.904 Y113.546 E.01469
G1 X108.058 Y113.091 E.01544
G1 X108.296 Y112.698 E.01476
G1 X108.595 Y112.38 E.01404
G1 X108.971 Y112.119 E.01472
G1 X109.417 Y111.937 E.01549
G1 X109.821 Y111.865 E.01318
G1 X109.274 Y111.572 F9000
M204 P1000
;TYPE:Outer wall
;WIDTH:0.419999
G1 F1200
G1 X109.308 Y111.558 E.00109
G1 X109.815 Y111.468 E.01535
G1 X110.543 Y111.52 E.02173
M73 P17 R1
G1 X111.055 Y111.691 E.01607
G1 X111.522 Y111.968 E.01617
G1 X111.919 Y112.337 E.01617
G1 X112.228 Y112.783 E.01617
G1 X112.436 Y113.285 E.01617
G1 X112.532 Y113.819 E.01617
G1 X112.513 Y114.361 E.01617
G1 X112.379 Y114.887 E.01617
G1 X112.136 Y115.373 E.01617
G1 X111.795 Y115.795 E.01617
G1 X111.373 Y116.136 E.01617
G1 X110.887 Y116.379 E.01617
G1 X110.361 Y116.513 E.01617
G1 X109.819 Y116.532 E.01617
G1 X109.285 Y116.436 E.01617
G1 X108.783 Y116.228 E.01617
G1 X108.337 Y115.919 E.01617
G1 X107.968 Y115.522 E.01617
G1 X107.691 Y115.055 E.01617
G1 X107.519 Y114.54 E.01617
G1 X107.461 Y114 E.01617
G1 X107.519 Y113.461 E.01615
G1 X107.701 Y112.925 E.01686
G1 X107.982 Y112.46 E.01617
G1 X108.337 Y112.081 E.01547
G1 X108.783 Y111.772 E.01616
G1 X109.237 Y111.587 E.01459
G1 E-1.2 F2400
;WIPE_START
G1 F9000
G1 X109.308 Y111.558
G1 X109.815 Y111.468
G1 X110.543 Y111.52
G1 X111.055 Y111.691
G1 X111.174 Y111.761
;WIPE_END
G1 Z.8
G1 X110.562 Y113.764
G1 Z.8
G1 Z.6
G1 E1.2 F1800
M204 P2500
;TYPE:Internal solid infill
G1 F1200
G1 X110.409 Y113.549 E.00787
G1 X110.166 Y113.414 E.00827
G1 X109.842 Y113.409 E.00966
G1 X109.596 Y113.539 E.00829
G1 X109.448 Y113.738 E.0074
G1 X109.388 Y114 E.00801
G1 X109.443 Y114.254 E.00776
G1 X109.599 Y114.463 E.00776
M73 P18 R1
G1 X109.827 Y114.588 E.00776
G1 X110.087 Y114.606 E.00776
G1 X110.331 Y114.515 E.00776
G1 X110.515 Y114.331 E.00776
G1 X110.606 Y114.087 E.00775
G1 X110.567 Y113.804 E.00852
G1 X110.013 Y113.799 F9000
;WIDTH:0.457226
G1 F1200
G1 X109.87 Y113.831 E.0048
G1 X109.788 Y113.981 E.00561
G1 X109.828 Y114.129 E.00501
G1 X109.985 Y114.214 E.00583
G1 X110.152 Y114.152 E.00583
G1 X110.213 Y114.006 E.00517
G1 X110.162 Y113.86 E.00508
G1 X110.05 Y113.814 E.00395
G1 X110.038 Y113.026 F9000
;WIDTH:0.419999
G1 F1200
G1 X109.737 Y113.044 E.00898
G1 X109.348 Y113.252 E.01312
G1 X109.104 Y113.578 E.01213
G1 X109.008 Y114 E.01289
G1 X109.098 Y114.412 E.01256
G1 X109.351 Y114.749 E.01256
G1 X109.721 Y114.952 E.01256
G1 X110.141 Y114.982 E.01256
G1 X110.536 Y114.834 E.01256
G1 X110.834 Y114.536 E.01256
G1 X110.982 Y114.141 E.01256
G1 X110.952 Y113.721 E.01256
G1 X110.749 Y113.351 E.01256
G1 X110.412 Y113.098 E.01256
G1 X110.077 Y113.034 E.01016
G1 X110.009 Y112.646 F9000
G1 F1200
G1 X109.632 Y112.68 E.01129
G1 X109.214 Y112.886 E.01387
G1 X108.913 Y113.166 E.01225
G1 X108.707 Y113.574 E.01361
G1 X108.629 Y114 E.01291
G1 X108.707 Y114.431 E.01306
G1 X108.902 Y114.822 E.013
G1 X109.223 Y115.12 E.01305
G1 X109.614 Y115.315 E.01301
G1 X110.049 Y115.362 E.01305
G1 X110.479 Y115.285 E.01301
G1 X110.856 Y115.061 E.01305
G1 X111.153 Y114.741 E.01301
G1 X111.321 Y114.336 E.01306
G1 X111.362 Y114.047 E.00869
G1 X111.315 Y113.614 E.01298
G1 X111.117 Y113.219 E.01316
G1 X110.822 Y112.902 E.0129
G1 X110.452 Y112.714 E.01236
G1 X110.049 Y112.652 E.01215
G1 X109.383 Y112.374 F9000
G1 F1200
G1 X108.999 Y112.576 E.01294
G1 X108.61 Y112.937 E.01578
G2 X111.732 Y114.249 I1.393 J1.056 E.1897
G1 X111.712 Y113.689 E.01669
M73 P19 R1
G2 X110.869 Y112.492 I-1.713 J.312 E.04502
G1 X110.389 Y112.295 E.01545
G1 X109.856 Y112.257 E.0159
G1 X109.422 Y112.364 E.01332
; stop printing object Body1 id:0 copy 0
;TIME_ELAPSED:22.210739

;LAYER_CHANGE
;Z:0.8
;HEIGHT:0.2
;BEFORE_LAYER_CHANGE
;0.8
G92 E0

G1 E-1.2 F2400
;WIPE_START
G1 F9000
G1 X109.856 Y112.257
G1 X110.389 Y112.295
G1 X110.869 Y112.492
G1 X111.18 Y112.721
G1 X111.255 Y112.807
;WIPE_END
;_SET_FAN_SPEED_CHANGING_LAYER
; printing object Body1 id:0 copy 0
G1 X109.839 Y111.863 Z.8
G1 E1.2 F1800
M204 P2000
;TYPE:Inner wall
;WIDTH:0.449999
G1 F1200
G1 X110.466 Y111.908 E.02022
G3 X111.749 Y112.78 I-.65 J2.336 E.05079
G1 X111.969 Y113.181 E.01471
G1 X112.098 Y113.619 E.01469
G1 X112.123 Y114.305 E.02207
G1 X112.009 Y114.749 E.01474
G1 X111.804 Y115.159 E.01474
G1 X111.516 Y115.516 E.01474
G1 X111.159 Y115.804 E.01474
G1 X110.749 Y116.009 E.01474
G1 X110.305 Y116.123 E.01474
G1 X109.847 Y116.139 E.01474
G1 X109.396 Y116.058 E.01474
G1 X108.972 Y115.882 E.01474
G1 X108.596 Y115.621 E.01474
G1 X108.285 Y115.287 E.01467
G1 X108.038 Y114.863 E.01579
G1 X107.905 Y114.457 E.01372
G1 X107.855 Y114 E.01479
G1 X107.904 Y113.544 E.01474
G1 X108.049 Y113.109 E.01474
G1 X108.283 Y112.715 E.01474
M73 P20 R1
G1 X108.596 Y112.379 E.01474
G1 X108.972 Y112.118 E.01474
G1 X109.396 Y111.942 E.01474
G1 X109.799 Y111.87 E.01318
G1 X109.272 Y111.569 F9000
M204 P1000
;TYPE:Outer wall
;WIDTH:0.419999
G1 F1200
G1 X109.285 Y111.564 E.00041
G1 X109.815 Y111.468 E.01606
G1 X110.543 Y111.52 E.02172
G1 X111.055 Y111.691 E.01607
G1 X111.522 Y111.968 E.01617
G1 X111.919 Y112.337 E.01617
G1 X112.228 Y112.783 E.01616
G1 X112.436 Y113.285 E.01617
G1 X112.532 Y113.819 E.01617
G1 X112.513 Y114.361 E.01617
G1 X112.379 Y114.887 E.01617
G1 X112.136 Y115.373 E.01617
G1 X111.795 Y115.795 E.01617
G1 X111.373 Y116.136 E.01617
G1 X110.887 Y116.379 E.01617
G1 X110.361 Y116.513 E.01617
G1 X109.819 Y116.532 E.01617
G1 X109.285 Y116.436 E.01617
G1 X108.783 Y116.228 E.01617
G1 X108.337 Y115.919 E.01617
G1 X107.968 Y115.522 E.01614
G1 X107.678 Y115.024 E.01717
G1 X107.519 Y114.54 E.01517
G1 X107.461 Y114 E.01618
G1 X107.519 Y113.46 E.01617
G1 X107.691 Y112.945 E.01617
G1 X107.968 Y112.478 E.01617
G1 X108.337 Y112.081 E.01617
G1 X108.783 Y111.772 E.01617
G1 X109.235 Y111.585 E.01456
G1 E-1.2 F2400
;WIPE_START
G1 F9000
G1 X109.285 Y111.564
G1 X109.815 Y111.468
G1 X110.543 Y111.52
G1 X111.055 Y111.691
G1 X111.173 Y111.761
;WIPE_END
G1 Z1
G1 X111.607 Y113.331
G1 Z1
G1 Z.8
G1 E1.2 F1800
M204 P2500
;TYPE:Internal solid infill
M73 P21 R1
G1 F1200
G2 X110.868 Y112.492 I-1.77 J.812 E.03377
G1 X110.389 Y112.295 E.01544
G1 X109.858 Y112.257 E.01586
G1 X109.355 Y112.384 E.01544
G2 X108.272 Y114.204 I.646 J1.617 E.06782
G1 X108.397 Y114.701 E.01528
G2 X111.732 Y114.249 I1.603 J-.701 E.13482
G1 X111.712 Y113.689 E.01669
G1 X111.618 Y113.37 E.00992
G1 X110.022 Y112.647 F9000
G1 F1200
G1 X109.614 Y112.685 E.01222
G1 X109.219 Y112.883 E.01316
G1 X108.902 Y113.178 E.0129
G1 X108.706 Y113.571 E.01307
G1 X108.629 Y114 E.01298
G1 X108.702 Y114.42 E.01269
G1 X108.906 Y114.826 E.01353
G1 X109.224 Y115.121 E.01292
G1 X109.614 Y115.315 E.01297
G1 X110.049 Y115.362 E.01305
G1 X110.479 Y115.285 E.01301
G1 X110.856 Y115.061 E.01305
G1 X111.153 Y114.741 E.01301
G1 X111.321 Y114.336 E.01306
G1 X111.362 Y114.047 E.00869
G1 X111.315 Y113.614 E.01298
G1 X111.117 Y113.219 E.01316
G1 X110.822 Y112.902 E.0129
G1 X110.452 Y112.714 E.01236
G1 X110.062 Y112.653 E.01176
G1 X110.027 Y113.026 F9000
G1 F1200
