;TIME:139.32
;Filament used:0.05644m
;Layer height:0.200
; HEADER_BLOCK_START
; generated by Creality_Print V5.1.6.10470 on 2025-02-20 at 22:33:32
; total layer number: 50
; filament_density: 1.24
; filament_diameter: 1.75
; max_z_height: 10.00
; HEADER_BLOCK_END

; MINX = 107.80
; MINY = 107.80
; MINZ = 0.00
; MAXX = 112.20
; MAXY = 112.20
; MAXZ = 10.00

; THUMBNAIL_BLOCK_START

;
; THUMBNAIL_BLOCK_END

; THUMBNAIL_BLOCK_START

;
; THUMBNAIL_BLOCK_END

; external perimeters extrusion width = 0.42mm
; perimeters extrusion width = 0.45mm
; infill extrusion width = 0.45mm
; solid infill extrusion width = 0.42mm
; top infill extrusion width = 0.42mm
; first layer extrusion width = 0.50mm

; EXECUTABLE_BLOCK_START
M73 P0 R2
M201 X5000 Y5000 Z500 E5000
M203 X500 Y500 Z30 E100
M204 P5000 R2500 T5000 ; sets acceleration (P, T) and retract acceleration (R), mm/sec^2
M205 X10.00 Y10.00 Z0.40 E5.00 ; sets the jerk limits, mm/sec
;TYPE:Custom
M220 S100 ;Reset Feedrate 
M221 S100 ;Reset Flowrate 
 
M140 S50 ;Set final bed temp 
G28 ;Home 
 
G92 E0 ;Reset Extruder 
G1 Z2.0 F3000 ;Move Z Axis up 
M104 S190 ;Set final nozzle temp 
G1 X-2.1 Y20 Z0.28 F5000.0 ;Move to start position 
M190 S50 ;Wait for bed temp to stabilize 
M109 S190 ;Wait for nozzle temp to stabilize 
G1 X-2.1 Y145.0 Z0.28 F1500.0 E15 ;Draw the first line 
G1 X-2.4 Y145.0 Z0.28 F5000.0 ;Move to side a little 
M73 P3 R2
G1 X-2.4 Y20 Z0.28 F1500.0 E30 ;Draw the second line 
G92 E0  ;Reset Extruder 
G1 E-1.0000 F1800 ;Retract a bit 
M73 P7 R2
G1 Z2.0 F3000 ;Move Z Axis up 
G1 E0.0000 F1800
G90
G21
M83 ; use relative distances for extrusion
M106 S0
;LAYER_CHANGE
;Z:0.2
;HEIGHT:0.2
;BEFORE_LAYER_CHANGE
;0.2
G92 E0

G1 E-1.2 F2400
;_SET_FAN_SPEED_CHANGING_LAYER
M204 P500
M205 X10 Y10
; printing object Body1 id:15 copy 0
M204 T500
G1 X110.32 Y108.72 F9000
G1 Z.2
M73 P8 R2
G1 E1.2 F1800
;TYPE:Inner wall
;WIDTH:0.499999
G1 F1200
G1 X110.452 Y108.748 E.00488
G3 X111.293 Y109.677 I-.45 J1.252 E.04711
G1 X111.333 Y110.164 E.01763
G3 X110.06 Y108.667 I-1.328 J-.16 E.22376
G1 X110.28 Y108.712 E.00811
G1 X109.821 Y108.212 F9000
;TYPE:Outer wall
G1 F1200
G1 X110.402 Y108.243 E.02098
G1 X110.82 Y108.395 E.01607
G1 X111.181 Y108.638 E.01571
M73 P9 R2
G1 X111.476 Y108.965 E.01589
G1 X111.683 Y109.353 E.01588
G1 X111.79 Y109.78 E.0159
G1 X111.79 Y110.22 E.01588
G1 X111.683 Y110.647 E.0159
G1 X111.476 Y111.035 E.01589
G1 X111.181 Y111.362 E.01589
G1 X110.816 Y111.607 E.01589
G1 X110.402 Y111.757 E.01589
G1 X109.964 Y111.802 E.01589
G1 X109.529 Y111.739 E.01589
G1 X109.121 Y111.573 E.01588
G1 X108.766 Y111.313 E.0159
G1 X108.485 Y110.974 E.01589
G1 X108.294 Y110.578 E.01589
G1 X108.205 Y110.147 E.01589
G1 X108.223 Y109.707 E.01589
G1 X108.347 Y109.285 E.01588
G1 X108.569 Y108.905 E.0159
G1 X108.877 Y108.591 E.01588
G1 X109.252 Y108.361 E.01589
G1 X109.783 Y108.222 E.01979
G1 E-1.2 F2400
;WIPE_START
G1 F9000
G1 X110.402 Y108.243
G1 X110.82 Y108.395
G1 X111.181 Y108.638
G1 X111.476 Y108.965
G1 X111.504 Y109.018
;WIPE_END
G1 Z.4
G1 X110.208 Y108.797
G1 Z.4
G1 Z.2
G1 E1.2 F1800
;TYPE:Bottom surface
;WIDTH:0.54197
G1 F1200
G1 X110.847 Y109.436 E.03562
G3 X110.976 Y110.271 I-.794 J.55 E.03447
G1 X109.73 Y109.025 E.06948
G2 X109.285 Y109.286 I.277 J.983 E.02055
G1 X110.716 Y110.717 E.07982
G3 X110.271 Y110.978 I-.753 J-.775 E.02053
G1 X109.025 Y109.732 E.06946
G2 X109.168 Y110.58 I.998 J.268 E.03497
G1 X109.786 Y111.199 E.03449
; stop printing object Body1 id:15 copy 0
;TIME_ELAPSED:13.995417

M106 S255
;LAYER_CHANGE
;Z:0.4
;HEIGHT:0.2
;BEFORE_LAYER_CHANGE
;0.4
G92 E0

M73 P10 R2
G1 E-1.2 F2400
;WIPE_START
G1 F9000
G1 X109.168 Y110.58
G1 X109.035 Y110.327
G1 X108.985 Y110.083
G1 X108.995 Y109.834
G1 X109.025 Y109.732
G1 X109.191 Y109.898
;WIPE_END
;_SET_FAN_SPEED_CHANGING_LAYER
M204 P2500
; printing object Body1 id:15 copy 0
M204 T2500
G1 X110.255 Y108.443 Z.4
G1 E1.2 F1800
M204 P2000
;TYPE:Inner wall
;WIDTH:0.449999
G1 F1200
G1 X110.536 Y108.507 E.00926
G1 X110.885 Y108.684 E.01258
G3 X111.539 Y109.613 I-1.048 J1.431 E.0372
G1 X111.584 Y110.209 E.01921
G1 X111.492 Y110.573 E.01207
G3 X108.409 Y110.132 I-1.489 J-.588 E.13764
G1 X108.427 Y109.727 E.01303
G1 X108.534 Y109.367 E.01207
G1 X108.731 Y109.031 E.01252
G1 X109.016 Y108.743 E.01303
G1 X109.337 Y108.547 E.01207
G1 X109.719 Y108.426 E.0129
G1 X110.165 Y108.422 E.01435
G1 X110.216 Y108.434 E.00168
G1 X109.799 Y108.026 F9000
M204 P1000
;TYPE:Outer wall
;WIDTH:0.419999
G1 F1200
G1 X109.809 Y108.024 E.0003
G1 X110.444 Y108.057 E.01893
G1 X110.902 Y108.223 E.0145
G1 X111.306 Y108.494 E.0145
G1 X111.632 Y108.855 E.01449
G1 X111.861 Y109.285 E.01449
G1 X111.978 Y109.756 E.01448
G1 X111.976 Y110.258 E.01496
G1 X111.861 Y110.715 E.01403
G1 X111.632 Y111.145 E.0145
G1 X111.306 Y111.506 E.01449
G1 X110.902 Y111.777 E.01449
G1 X110.444 Y111.943 E.0145
G1 X109.96 Y111.992 E.01449
G1 X109.479 Y111.923 E.01449
G1 X109.028 Y111.739 E.01449
G1 X108.636 Y111.451 E.01449
G1 X108.325 Y111.077 E.01449
G1 X108.114 Y110.639 E.01449
G1 X108.015 Y110.163 E.01448
G1 X108.038 Y109.661 E.01496
G1 X108.172 Y109.21 E.01403
G1 X108.418 Y108.79 E.01449
G1 X108.771 Y108.433 E.01496
G1 X109.173 Y108.188 E.01403
M73 P11 R2
G3 X109.397 Y108.117 I1.297 J3.716 E.00701
G1 X109.76 Y108.035 E.01109
G1 E-1.2 F2400
;WIPE_START
G1 F9000
G1 X109.809 Y108.024
G1 X110.444 Y108.057
G1 X110.902 Y108.223
G1 X111.306 Y108.494
G1 X111.534 Y108.747
;WIPE_END
G1 Z.6
G1 X108.926 Y110.519
G1 Z.6
G1 Z.4
G1 E1.2 F1800
M204 P2500
;TYPE:Internal solid infill
G1 F1200
G1 X109.177 Y110.876 E.01301
G1 X109.55 Y111.105 E.01304
G1 X109.976 Y111.202 E.01303
G1 X110.407 Y111.122 E.01304
G1 X110.788 Y110.909 E.01302
G1 X111.058 Y110.554 E.01327
G1 X111.192 Y110.159 E.01242
G1 X111.123 Y109.568 E.01772
G1 X110.886 Y109.2 E.01305
G1 X110.545 Y108.927 E.01302
G1 X110.124 Y108.812 E.01298
G1 X109.798 Y108.812 E.00972
G1 X109.381 Y108.979 E.01339
G1 X109.044 Y109.272 E.01327
G1 X108.857 Y109.658 E.0128
G1 X108.803 Y110.1 E.01327
G1 X108.915 Y110.48 E.0118
G1 X109.202 Y110.168 F9000
G1 F1200
G1 X109.309 Y110.445 E.00884
G1 X109.599 Y110.718 E.01188
G1 X109.984 Y110.822 E.01188
G1 X110.373 Y110.734 E.01188
G1 X110.674 Y110.473 E.01188
G1 X110.816 Y110.111 E.01155
G1 X110.769 Y109.705 E.01219
G1 X110.54 Y109.378 E.01188
G1 X110.182 Y109.197 E.01193
G1 X109.874 Y109.184 E.0092
G1 X109.497 Y109.35 E.01227
G1 X109.293 Y109.594 E.00948
G1 X109.192 Y109.855 E.00835
G1 X109.201 Y110.128 E.00812
G1 X109.564 Y109.967 F9000
G1 F1200
G1 X109.605 Y110.191 E.00681
G1 X109.741 Y110.355 E.00633
G1 X109.939 Y110.435 E.00634
G1 X110.151 Y110.413 E.00635
G1 X110.328 Y110.294 E.00636
G1 X110.439 Y110.064 E.00761
G1 X110.388 Y109.793 E.00821
G1 X110.246 Y109.635 E.00633
G1 X110.046 Y109.562 E.00634
G1 X109.815 Y109.598 E.00696
G1 X109.647 Y109.735 E.00645
G1 X109.577 Y109.929 E.00615
; stop printing object Body1 id:15 copy 0
;TIME_ELAPSED:16.494318

;LAYER_CHANGE
;Z:0.6
;HEIGHT:0.2
;BEFORE_LAYER_CHANGE
;0.6
G92 E0

G1 E-1.2 F2400
;WIPE_START
G1 F9000
G1 X109.647 Y109.735
G1 X109.815 Y109.598
G1 X110.046 Y109.562
G1 X110.246 Y109.635
G1 X110.388 Y109.793
G1 X110.439 Y110.064
G1 X110.328 Y110.294
G1 X110.151 Y110.413
G1 X109.978 Y110.431
;WIPE_END
;_SET_FAN_SPEED_CHANGING_LAYER
; printing object Body1 id:15 copy 0
G1 X110.256 Y108.442 Z.6
G1 E1.2 F1800
M204 P2000
;TYPE:Inner wall
;WIDTH:0.449999
G1 F1200
M73 P12 R2
G1 X110.533 Y108.506 E.00915
G1 X110.885 Y108.684 E.01269
G3 X111.539 Y109.616 I-1.048 J1.431 E.03727
G1 X111.586 Y110.195 E.01869
G3 X109.337 Y108.547 I-1.581 J-.202 E.21281
G1 X109.718 Y108.426 E.01285
G1 X110.167 Y108.422 E.01444
G1 X110.217 Y108.433 E.00163
G1 X109.8 Y108.027 F9000
M204 P1000
;TYPE:Outer wall
;WIDTH:0.419999
G1 F1200
G1 X109.816 Y108.023 E.0005
G1 X110.444 Y108.057 E.01872
G1 X110.902 Y108.223 E.01451
G1 X111.306 Y108.494 E.01449
G1 X111.632 Y108.855 E.01449
G1 X111.861 Y109.285 E.01449
G1 X111.979 Y109.757 E.01449
G1 X111.979 Y110.243 E.01449
G1 X111.861 Y110.715 E.01449
G1 X111.632 Y111.145 E.01449
G1 X111.306 Y111.506 E.01449
G1 X110.902 Y111.777 E.0145
G1 X110.444 Y111.943 E.01449
G1 X109.96 Y111.992 E.01449
G1 X109.479 Y111.923 E.01449
G1 X109.028 Y111.739 E.01449
G1 X108.636 Y111.451 E.01449
G1 X108.325 Y111.077 E.01449
G1 X108.114 Y110.639 E.01449
G1 X108.015 Y110.162 E.01449
G1 X108.035 Y109.676 E.01449
G1 X108.172 Y109.209 E.01449
G1 X108.418 Y108.79 E.01449
G1 X108.759 Y108.442 E.01449
G1 X109.173 Y108.188 E.01449
G3 X109.405 Y108.114 I1.242 J3.528 E.00725
G1 X109.761 Y108.036 E.01085
G1 E-1.2 F2400
;WIPE_START
G1 F9000
G1 X109.816 Y108.023
G1 X110.444 Y108.057
G1 X110.902 Y108.223
G1 X111.306 Y108.494
G1 X111.534 Y108.747
;WIPE_END
G1 Z.8
G1 X108.856 Y109.664
G1 Z.8
G1 Z.6
G1 E1.2 F1800
M204 P2500
;TYPE:Internal solid infill
M73 P13 R2
G1 F1200
G1 X108.802 Y110.098 E.01303
G1 X108.926 Y110.518 E.01303
G1 X109.177 Y110.876 E.01303
G1 X109.55 Y111.105 E.01303
G1 X109.976 Y111.202 E.01303
G1 X110.407 Y111.122 E.01303
G1 X110.788 Y110.909 E.01304
G1 X111.054 Y110.561 E.01303
G1 X111.194 Y110.147 E.01303
G1 X111.123 Y109.568 E.01736
G1 X110.887 Y109.2 E.01303
G1 X110.545 Y108.927 E.01303
G1 X110.126 Y108.812 E.01294
G1 X109.797 Y108.813 E.00981
G1 X109.376 Y108.983 E.0135
G1 X109.046 Y109.27 E.01303
G1 X108.873 Y109.628 E.01184
G1 X109.574 Y109.304 F9000
G1 F1200
G1 X109.347 Y109.5 E.00891
G1 X109.189 Y109.866 E.01188
G1 X109.222 Y110.264 E.01188
G1 X109.437 Y110.599 E.01188
G1 X109.785 Y110.794 E.01188
G1 X110.184 Y110.802 E.01188
G1 X110.54 Y110.622 E.01188
G1 X110.769 Y110.295 E.01187
G1 X110.817 Y110 E.00891
G1 X110.769 Y109.705 E.00891
G1 X110.54 Y109.378 E.01188
G1 X110.181 Y109.197 E.01196
G1 X109.872 Y109.185 E.00922
G1 X109.611 Y109.289 E.00838
G1 X110.246 Y109.635 F9000
G1 F1200
G1 X110.046 Y109.562 E.00635
G1 X109.817 Y109.597 E.00689
G1 X109.649 Y109.731 E.00639
G1 X109.564 Y109.928 E.00639
G1 X109.582 Y110.142 E.00639
G1 X109.698 Y110.322 E.00639
G1 X109.885 Y110.427 E.00639
G1 X110.099 Y110.432 E.00639
G1 X110.291 Y110.334 E.00639
G1 X110.414 Y110.159 E.00639
G1 X110.44 Y110 E.0048
G1 X110.389 Y109.793 E.00634
G1 X110.273 Y109.665 E.00515
G1 X110.032 Y109.946 F9000
;WIDTH:0.544502
G1 F1200
G2 X110.044 Y110.035 I-.03 J.049 E.01032
; stop printing object Body1 id:15 copy 0
;TIME_ELAPSED:19.025414

;LAYER_CHANGE
;Z:0.8
;HEIGHT:0.2
;BEFORE_LAYER_CHANGE
;0.8
G92 E0

G1 E-1.2 F2400
;WIPE_START
G1 F9000
G1 X110.032 Y110.054
G1 X109.97 Y110.054
G1 X109.938 Y110
G1 X109.97 Y109.946
G1 X110.032 Y109.946
;WIPE_END
;_SET_FAN_SPEED_CHANGING_LAYER
; printing object Body1 id:15 copy 0
G1 X110.254 Y108.444 Z.8
G1 E1.2 F1800
M204 P2000
;TYPE:Inner wall
;WIDTH:0.449999
G1 F1200
G1 X110.537 Y108.516 E.0094
G3 X111.539 Y109.616 I-.581 J1.535 E.04966
G1 X111.586 Y110.195 E.01869
G3 X109.337 Y108.547 I-1.581 J-.202 E.21281
G1 X109.721 Y108.426 E.01293
M73 P14 R2
G1 X110.162 Y108.423 E.0142
G1 X110.215 Y108.435 E.00173
G1 X109.805 Y108.024 F9000
M204 P1000
;TYPE:Outer wall
;WIDTH:0.419999
G1 F1200
G1 X110.444 Y108.057 E.01908
G1 X110.902 Y108.223 E.01449
G1 X111.306 Y108.494 E.01449
G1 X111.632 Y108.855 E.01449
G1 X111.861 Y109.285 E.01449
G1 X111.979 Y109.757 E.01449
M73 P14 R1
G1 X111.979 Y110.243 E.01449
G1 X111.861 Y110.715 E.01449
G1 X111.632 Y111.145 E.01449
G1 X111.306 Y111.506 E.01449
G1 X110.902 Y111.777 E.01449
G1 X110.444 Y111.943 E.01449
G1 X109.96 Y111.992 E.01449
G1 X109.479 Y111.923 E.01449
G1 X109.028 Y111.739 E.01449
G1 X108.636 Y111.451 E.01449
G1 X108.325 Y111.077 E.01449
G1 X108.114 Y110.639 E.01449
G1 X108.015 Y110.162 E.01449
G1 X108.035 Y109.676 E.01449
G1 X108.172 Y109.209 E.01449
G1 X108.418 Y108.79 E.01449
G1 X108.759 Y108.442 E.01449
G1 X109.173 Y108.188 E.01449
G1 X109.766 Y108.032 E.01825
G1 E-1.2 F2400
;WIPE_START
G1 F9000
G1 X110.444 Y108.057
G1 X110.902 Y108.223
G1 X111.306 Y108.494
G1 X111.539 Y108.752
;WIPE_END
G1 Z1
G1 X108.856 Y109.664
G1 Z1
G1 Z.8
G1 E1.2 F1800
M204 P2500
;TYPE:Internal solid infill
G1 F1200
G1 X108.802 Y110.098 E.01303
G1 X108.926 Y110.518 E.01303
G1 X109.177 Y110.876 E.01303
G1 X109.55 Y111.105 E.01303
G1 X109.976 Y111.202 E.01303
G1 X110.407 Y111.122 E.01303
G1 X110.788 Y110.909 E.01303
G1 X111.054 Y110.561 E.01303
G1 X111.194 Y110.147 E.01303
G1 X111.123 Y109.568 E.01736
G1 X110.887 Y109.2 E.01303
G1 X110.545 Y108.927 E.01303
G1 X110.122 Y108.813 E.01303
M73 P15 R1
G1 X109.801 Y108.812 E.00959
G1 X109.376 Y108.983 E.01363
G1 X109.046 Y109.27 E.01303
G1 X108.873 Y109.628 E.01184
G1 X109.839 Y109.195 F9000
G1 F1200
G1 X109.488 Y109.357 E.01153
G1 X109.246 Y109.674 E.01188
G1 X109.181 Y110.067 E.01188
G1 X109.309 Y110.445 E.01188
G1 X109.599 Y110.718 E.01188
G1 X109.984 Y110.822 E.01188
G1 X110.373 Y110.734 E.01188
G1 X110.674 Y110.473 E.01188
G1 X110.817 Y110.1 E.01188
G1 X110.769 Y109.705 E.01188
G1 X110.54 Y109.378 E.01188
G1 X110.184 Y109.198 E.01188
G1 X109.879 Y109.195 E.00907
G1 X110.046 Y109.563 F9000
G1 F1200
G1 X109.817 Y109.597 E.00689
G1 X109.649 Y109.731 E.00639
G1 X109.564 Y109.928 E.00639
G1 X109.582 Y110.142 E.00639
G1 X109.698 Y110.322 E.00639
G1 X109.885 Y110.427 E.00639
G1 X110.099 Y110.432 E.00639
G1 X110.291 Y110.335 E.00639
G1 X110.414 Y110.159 E.00639
G1 X110.44 Y110 E.0048
G1 X110.389 Y109.793 E.00634
G1 X110.246 Y109.635 E.00634
G1 X110.083 Y109.577 E.00515
G1 X110.032 Y109.946 F9000
;WIDTH:0.544508
G1 F1200
G2 X110.044 Y110.035 I-.03 J.049 E.01032
; stop printing object Body1 id:15 copy 0
;TIME_ELAPSED:21.488075

;LAYER_CHANGE
;Z:1
;HEIGHT:0.2
;BEFORE_LAYER_CHANGE
;1
G92 E0

G1 E-1.2 F2400
;WIPE_START
G1 F9000
G1 X110.032 Y110.054
G1 X109.97 Y110.054
G1 X109.938 Y110
G1 X109.97 Y109.946
G1 X110.032 Y109.946
;WIPE_END
;_SET_FAN_SPEED_CHANGING_LAYER
; printing object Body1 id:15 copy 0
G1 X110.254 Y108.444 Z1
G1 E1.2 F1800
M204 P2000
;TYPE:Inner wall
;WIDTH:0.449999
G1 F1200
G1 X110.537 Y108.516 E.00941
G3 X111.539 Y109.616 I-.581 J1.535 E.04966
G1 X111.586 Y110.195 E.01869
G3 X109.337 Y108.547 I-1.581 J-.202 E.21281
G1 X109.721 Y108.426 E.01293
G1 X110.162 Y108.423 E.0142
G1 X110.215 Y108.435 E.00173
G1 X109.804 Y108.024 F9000
M204 P1000
;TYPE:Outer wall
;WIDTH:0.419999
G1 F1200
G1 X110.444 Y108.057 E.01909
G1 X110.902 Y108.223 E.01449
G1 X111.306 Y108.494 E.01449
G1 X111.632 Y108.855 E.01449
G1 X111.861 Y109.285 E.01449
G1 X111.979 Y109.757 E.01449
M73 P16 R1
G1 X111.979 Y110.243 E.01449
G1 X111.861 Y110.715 E.01449
G1 X111.632 Y111.145 E.01449
G1 X111.306 Y111.506 E.01449
G1 X110.902 Y111.777 E.01449
G1 X110.444 Y111.943 E.01449
G1 X109.96 Y111.992 E.01449
G1 X109.479 Y111.923 E.01449
G1 X109.028 Y111.739 E.01449
G1 X108.636 Y111.451 E.01449
G1 X108.325 Y111.077 E.01449
G1 X108.114 Y110.639 E.01449
G1 X108.015 Y110.162 E.01449
G1 X108.035 Y109.676 E.01449
G1 X108.172 Y109.209 E.01449
G1 X108.418 Y108.79 E.01449
G1 X108.759 Y108.442 E.01449
G1 X109.173 Y108.188 E.01449
G1 X109.766 Y108.032 E.01824
G1 E-1.2 F2400
;WIPE_START
G1 F9000
G1 X110.444 Y108.057
G1 X110.902 Y108.223
G1 X111.306 Y108.494
G1 X111.539 Y108.752
;WIPE_END
G1 Z1.2
G1 X108.856 Y109.664
G1 Z1.2
G1 Z1
G1 E1.2 F1800
M204 P2500
;TYPE:Internal solid infill
G1 F1200
G1 X108.802 Y110.098 E.01303
G1 X108.926 Y110.518 E.01303
G1 X109.177 Y110.876 E.01303
G1 X109.55 Y111.105 E.01303
G1 X109.976 Y111.202 E.01303
G1 X110.407 Y111.122 E.01303
G1 X110.788 Y110.909 E.01303
G1 X111.054 Y110.561 E.01303
G1 X111.194 Y110.147 E.01303
G1 X111.123 Y109.568 E.01736
G1 X110.887 Y109.2 E.01303
G1 X110.545 Y108.927 E.01303
G1 X110.122 Y108.813 E.01303
G1 X109.801 Y108.812 E.00959
G1 X109.376 Y108.983 E.01363
G1 X109.046 Y109.27 E.01303
G1 X108.873 Y109.628 E.01184
G1 X109.839 Y109.195 F9000
G1 F1200
G1 X109.488 Y109.357 E.01153
G1 X109.246 Y109.674 E.01188
G1 X109.181 Y110.067 E.01188
G1 X109.309 Y110.445 E.01188
G1 X109.599 Y110.718 E.01188
G1 X109.984 Y110.822 E.01188
G1 X110.373 Y110.734 E.01188
G1 X110.674 Y110.473 E.01188
G1 X110.817 Y110.1 E.01188
G1 X110.769 Y109.705 E.01188
G1 X110.54 Y109.378 E.01188
M73 P17 R1
G1 X110.184 Y109.198 E.01188
G1 X109.879 Y109.195 E.00907
G1 X110.046 Y109.563 F9000
G1 F1200
G1 X109.817 Y109.597 E.00689
