;TIME:3556.41
;Filament used:6.28348m
;Layer height:0.200
; HEADER_BLOCK_START
; generated by Creality_Print V5.1.6.10470 on 2025-02-20 at 14:37:16
; total layer number: 75
; filament_density: 1.24
; filament_diameter: 1.75
; max_z_height: 15.00
; HEADER_BLOCK_END

; MINX = 57.50
; MINY = 57.50
; MINZ = 0.00
; MAXX = 162.50
; MAXY = 162.50
; MAXZ = 15.00

; THUMBNAIL_BLOCK_START

;
; THUMBNAIL_BLOCK_END

; THUMBNAIL_BLOCK_START

;
; THUMBNAIL_BLOCK_END

; external perimeters extrusion width = 0.42mm
; perimeters extrusion width = 0.45mm
; infill extrusion width = 0.45mm
; solid infill extrusion width = 0.42mm
; top infill extrusion width = 0.42mm
; first layer extrusion width = 0.50mm

; EXECUTABLE_BLOCK_START
M73 P0 R59
M201 X5000 Y5000 Z500 E5000
M203 X500 Y500 Z30 E100
M204 P5000 R2500 T5000 ; sets acceleration (P, T) and retract acceleration (R), mm/sec^2
M205 X10.00 Y10.00 Z0.40 E5.00 ; sets the jerk limits, mm/sec
;TYPE:Custom
M220 S100 ;Reset Feedrate 
M221 S100 ;Reset Flowrate 
 
M140 S50 ;Set final bed temp 
G28 ;Home 
 
G92 E0 ;Reset Extruder 
G1 Z2.0 F3000 ;Move Z Axis up 
M104 S190 ;Set final nozzle temp 
G1 X-2.1 Y20 Z0.28 F5000.0 ;Move to start position 
M190 S50 ;Wait for bed temp to stabilize 
M109 S190 ;Wait for nozzle temp to stabilize 
G1 X-2.1 Y145.0 Z0.28 F1500.0 E15 ;Draw the first line 
G1 X-2.4 Y145.0 Z0.28 F5000.0 ;Move to side a little 
G1 X-2.4 Y20 Z0.28 F1500.0 E30 ;Draw the second line 
G92 E0  ;Reset Extruder 
G1 E-1.0000 F1800 ;Retract a bit 
G1 Z2.0 F3000 ;Move Z Axis up 
G1 E0.0000 F1800
G90
G21
M83 ; use relative distances for extrusion
M106 S0
;LAYER_CHANGE
;Z:0.2
;HEIGHT:0.2
;BEFORE_LAYER_CHANGE
;0.2
G92 E0

G1 E-1.2 F2400
;_SET_FAN_SPEED_CHANGING_LAYER
M204 P500
M205 X10 Y10
; printing object Body1 id:140729895392640 copy 0
M204 T500
G1 X161.143 Y161.643 F9000
G1 Z.2
G1 E1.2 F1800
;TYPE:Inner wall
;WIDTH:0.499999
G1 X58.357 Y161.643 E3.71118
G1 X58.357 Y58.357 E3.72923
G1 X161.643 Y58.357 E3.72923
M73 P0 R58
G1 X161.643 Y161.643 E3.72923
G1 X161.183 Y161.643 E.01661
G1 E-1.2 F2400
;WIPE_START
G1 F9000
G1 X159.183 Y161.643
;WIPE_END
G1 X162.1 Y162.1 Z.4
G1 Z.2
G1 E1.2 F1800
;TYPE:Outer wall
G1 X57.9 Y162.1 E3.76224
G1 X57.9 Y57.9 E3.76224
G1 X162.1 Y57.9 E3.76224
G1 X162.1 Y162.06 E3.7608
M73 P1 R58
G1 E-1.2 F2400
;WIPE_START
G1 F9000
G1 X160.1 Y162.061
;WIPE_END
G1 X160.027 Y158.245 Z.4
G1 X158.189 Y61.891 Z.4
G1 Z.2
G1 E1.2 F1800
;TYPE:Inner wall
G1 X158.301 Y62.056 E.00719
G1 X158.357 Y62.329 E.01004
G1 X158.357 Y157.671 E3.44245
G1 X158.301 Y157.944 E.01004
G1 X158.156 Y158.156 E.00928
G1 X157.944 Y158.301 E.00928
G1 X157.671 Y158.357 E.01004
G1 X62.329 Y158.357 E3.44245
G1 X62.056 Y158.301 E.01004
G1 X61.844 Y158.156 E.00928
G1 X61.699 Y157.944 E.00928
G1 X61.643 Y157.671 E.01004
G1 X61.643 Y62.329 E3.44245
G1 X61.699 Y62.056 E.01004
G1 X61.844 Y61.844 E.00928
G1 X62.056 Y61.699 E.00928
G1 X62.329 Y61.643 E.01004
G1 X157.671 Y61.643 E3.44245
G1 X157.944 Y61.699 E.01004
G1 X158.156 Y61.844 E.00928
G1 X158.166 Y61.858 E.00064
G1 X157.671 Y62.1 F9000
;TYPE:Outer wall
G1 F1800
G1 X157.833 Y62.167 E.00632
G1 X157.9 Y62.329 E.00632
G1 X157.9 Y157.671 E3.44245
G1 X157.833 Y157.833 E.00632
G1 X157.671 Y157.9 E.00632
G1 X62.329 Y157.9 E3.44245
G1 X62.167 Y157.833 E.00632
G1 X62.1 Y157.671 E.00632
G1 X62.1 Y62.329 E3.44245
G1 X62.167 Y62.167 E.00632
G1 X62.329 Y62.1 E.00632
G1 X157.631 Y62.1 E3.441
G1 E-1.2 F2400
;WIPE_START
G1 F9000
G1 X157.833 Y62.167
G1 X157.9 Y62.329
G1 X157.9 Y63.941
;WIPE_END
G1 Z.4
G1 X161.529 Y59.395
G1 Z.4
G1 Z.2
G1 E1.2 F1800
;TYPE:Bottom surface
;WIDTH:0.500003
G1 F4800
G1 X160.81 Y58.677 E.03668
G1 X160.164 Y58.677 E.02334
G1 X161.323 Y59.836 E.05918
G1 X161.323 Y60.482 E.02334
G1 X159.518 Y58.677 E.09219
G1 X158.871 Y58.677 E.02334
G1 X161.323 Y61.129 E.1252
G1 X161.323 Y61.775 E.02334
G1 X158.225 Y58.677 E.1582
G1 X157.578 Y58.677 E.02334
G1 X161.323 Y62.422 E.19121
G1 X161.323 Y63.068 E.02334
G1 X156.932 Y58.677 E.22422
G1 X156.285 Y58.677 E.02334
G1 X161.323 Y63.715 E.25722
G1 X161.323 Y64.361 E.02334
G1 X155.639 Y58.677 E.29023
G1 X154.993 Y58.677 E.02334
G1 X157.639 Y61.323 E.13511
G1 X158.071 Y61.404 E.01588
G1 X158.384 Y61.616 E.01365
G1 X158.596 Y61.929 E.01365
G1 X158.677 Y62.361 E.01588
G1 X161.323 Y65.007 E.13511
G1 X161.323 Y65.654 E.02334
G1 X158.677 Y63.008 E.13511
G1 X158.677 Y63.654 E.02334
G1 X161.323 Y66.3 E.13511
G1 X161.323 Y66.947 E.02334
G1 X158.677 Y64.301 E.13511
G1 X158.677 Y64.947 E.02334
G1 X161.323 Y67.593 E.13511
G1 X161.323 Y68.239 E.02334
G1 X158.677 Y65.593 E.13511
G1 X158.677 Y66.24 E.02334
M73 P2 R58
G1 X161.323 Y68.886 E.13511
G1 X161.323 Y69.532 E.02334
G1 X158.677 Y66.886 E.13511
G1 X158.677 Y67.533 E.02334
G1 X161.323 Y70.179 E.13511
G1 X161.323 Y70.825 E.02334
G1 X158.677 Y68.179 E.13511
G1 X158.677 Y68.826 E.02334
G1 X161.323 Y71.471 E.13511
G1 X161.323 Y72.118 E.02334
G1 X158.677 Y69.472 E.13511
G1 X158.677 Y70.118 E.02334
G1 X161.323 Y72.764 E.13511
G1 X161.323 Y73.411 E.02334
G1 X158.677 Y70.765 E.13511
G1 X158.677 Y71.411 E.02334
G1 X161.323 Y74.057 E.13511
G1 X161.323 Y74.704 E.02334
G1 X158.677 Y72.058 E.13511
G1 X158.677 Y72.704 E.02334
G1 X161.323 Y75.35 E.13511
G1 X161.323 Y75.996 E.02334
G1 X158.677 Y73.35 E.13511
G1 X158.677 Y73.997 E.02334
G1 X161.323 Y76.643 E.13511
G1 X161.323 Y77.289 E.02334
G1 X158.677 Y74.643 E.13511
G1 X158.677 Y75.29 E.02334
G1 X161.323 Y77.936 E.13511
G1 X161.323 Y78.582 E.02334
G1 X158.677 Y75.936 E.13511
G1 X158.677 Y76.583 E.02334
G1 X161.323 Y79.228 E.13511
G1 X161.323 Y79.875 E.02334
G1 X158.677 Y77.229 E.13511
G1 X158.677 Y77.875 E.02334
G1 X161.323 Y80.521 E.13511
G1 X161.323 Y81.168 E.02334
G1 X158.677 Y78.522 E.13511
G1 X158.677 Y79.168 E.02334
G1 X161.323 Y81.814 E.13511
G1 X161.323 Y82.461 E.02334
G1 X158.677 Y79.815 E.13511
G1 X158.677 Y80.461 E.02334
G1 X161.323 Y83.107 E.13511
G1 X161.323 Y83.753 E.02334
G1 X158.677 Y81.107 E.13511
G1 X158.677 Y81.754 E.02334
G1 X161.323 Y84.4 E.13511
G1 X161.323 Y85.046 E.02334
G1 X158.677 Y82.4 E.13511
G1 X158.677 Y83.047 E.02334
G1 X161.323 Y85.693 E.13511
G1 X161.323 Y86.339 E.02334
G1 X158.677 Y83.693 E.13511
G1 X158.677 Y84.339 E.02334
G1 X161.323 Y86.985 E.13511
G1 X161.323 Y87.632 E.02334
G1 X158.677 Y84.986 E.13511
G1 X158.677 Y85.632 E.02334
G1 X161.323 Y88.278 E.13511
G1 X161.323 Y88.925 E.02334
G1 X158.677 Y86.279 E.13511
G1 X158.677 Y86.925 E.02334
G1 X161.323 Y89.571 E.13511
G1 X161.323 Y90.217 E.02334
G1 X158.677 Y87.572 E.13511
G1 X158.677 Y88.218 E.02334
M73 P2 R57
G1 X161.323 Y90.864 E.13511
G1 X161.323 Y91.51 E.02334
G1 X158.677 Y88.864 E.13511
G1 X158.677 Y89.511 E.02334
G1 X161.323 Y92.157 E.13511
G1 X161.323 Y92.803 E.02334
G1 X158.677 Y90.157 E.13511
G1 X158.677 Y90.804 E.02334
G1 X161.323 Y93.45 E.13511
G1 X161.323 Y94.096 E.02334
G1 X158.677 Y91.45 E.13511
G1 X158.677 Y92.096 E.02334
G1 X161.323 Y94.742 E.13511
G1 X161.323 Y95.389 E.02334
G1 X158.677 Y92.743 E.13511
G1 X158.677 Y93.389 E.02334
G1 X161.323 Y96.035 E.13511
G1 X161.323 Y96.682 E.02334
G1 X158.677 Y94.036 E.13511
G1 X158.677 Y94.682 E.02334
G1 X161.323 Y97.328 E.13511
G1 X161.323 Y97.974 E.02334
G1 X158.677 Y95.328 E.13511
G1 X158.677 Y95.975 E.02334
G1 X161.323 Y98.621 E.13511
G1 X161.323 Y99.267 E.02334
G1 X158.677 Y96.621 E.13511
G1 X158.677 Y97.268 E.02334
G1 X161.323 Y99.914 E.13511
G1 X161.323 Y100.56 E.02334
G1 X158.677 Y97.914 E.13511
G1 X158.677 Y98.561 E.02334
G1 X161.323 Y101.206 E.13511
G1 X161.323 Y101.853 E.02334
G1 X158.677 Y99.207 E.13511
G1 X158.677 Y99.853 E.02334
G1 X161.323 Y102.499 E.13511
G1 X161.323 Y103.146 E.02334
G1 X158.677 Y100.5 E.13511
G1 X158.677 Y101.146 E.02334
G1 X161.323 Y103.792 E.13511
G1 X161.323 Y104.439 E.02334
G1 X158.677 Y101.793 E.13511
G1 X158.677 Y102.439 E.02334
G1 X161.323 Y105.085 E.13511
G1 X161.323 Y105.731 E.02334
G1 X158.677 Y103.085 E.13511
G1 X158.677 Y103.732 E.02334
G1 X161.323 Y106.378 E.13511
G1 X161.323 Y107.024 E.02334
G1 X158.677 Y104.378 E.13511
G1 X158.677 Y105.025 E.02334
G1 X161.323 Y107.671 E.13511
G1 X161.323 Y108.317 E.02334
G1 X158.677 Y105.671 E.13511
G1 X158.677 Y106.318 E.02334
G1 X161.323 Y108.963 E.13511
G1 X161.323 Y109.61 E.02334
G1 X158.677 Y106.964 E.13511
G1 X158.677 Y107.61 E.02334
G1 X161.323 Y110.256 E.13511
G1 X161.323 Y110.903 E.02334
G1 X158.677 Y108.257 E.13511
G1 X158.677 Y108.903 E.02334
G1 X161.323 Y111.549 E.13511
G1 X161.323 Y112.196 E.02334
G1 X158.677 Y109.55 E.13511
G1 X158.677 Y110.196 E.02334
G1 X161.323 Y112.842 E.13511
G1 X161.323 Y113.488 E.02334
G1 X158.677 Y110.842 E.13511
G1 X158.677 Y111.489 E.02334
G1 X161.323 Y114.135 E.13511
G1 X161.323 Y114.781 E.02334
G1 X158.677 Y112.135 E.13511
G1 X158.677 Y112.782 E.02334
G1 X161.323 Y115.428 E.13511
G1 X161.323 Y116.074 E.02334
G1 X158.677 Y113.428 E.13511
G1 X158.677 Y114.074 E.02334
G1 X161.323 Y116.72 E.13511
G1 X161.323 Y117.367 E.02334
G1 X158.677 Y114.721 E.13511
G1 X158.677 Y115.367 E.02334
G1 X161.323 Y118.013 E.13511
G1 X161.323 Y118.66 E.02334
G1 X158.677 Y116.014 E.13511
G1 X158.677 Y116.66 E.02334
G1 X161.323 Y119.306 E.13511
G1 X161.323 Y119.952 E.02334
G1 X158.677 Y117.307 E.13511
G1 X158.677 Y117.953 E.02334
G1 X161.323 Y120.599 E.13511
G1 X161.323 Y121.245 E.02334
G1 X158.677 Y118.599 E.13511
G1 X158.677 Y119.246 E.02334
G1 X161.323 Y121.892 E.13511
G1 X161.323 Y122.538 E.02334
G1 X158.677 Y119.892 E.13511
G1 X158.677 Y120.539 E.02334
G1 X161.323 Y123.185 E.13511
G1 X161.323 Y123.831 E.02334
G1 X158.677 Y121.185 E.13511
G1 X158.677 Y121.831 E.02334
G1 X161.323 Y124.477 E.13511
G1 X161.323 Y125.124 E.02334
G1 X158.677 Y122.478 E.13511
G1 X158.677 Y123.124 E.02334
G1 X161.323 Y125.77 E.13511
G1 X161.323 Y126.417 E.02334
G1 X158.677 Y123.771 E.13511
G1 X158.677 Y124.417 E.02334
G1 X161.323 Y127.063 E.13511
G1 X161.323 Y127.709 E.02334
G1 X158.677 Y125.063 E.13511
G1 X158.677 Y125.71 E.02334
G1 X161.323 Y128.356 E.13511
G1 X161.323 Y129.002 E.02334
G1 X158.677 Y126.356 E.13511
G1 X158.677 Y127.003 E.02334
G1 X161.323 Y129.649 E.13511
G1 X161.323 Y130.295 E.02334
G1 X158.677 Y127.649 E.13511
G1 X158.677 Y128.296 E.02334
G1 X161.323 Y130.941 E.13511
G1 X161.323 Y131.588 E.02334
G1 X158.677 Y128.942 E.13511
G1 X158.677 Y129.588 E.02334
G1 X161.323 Y132.234 E.13511
G1 X161.323 Y132.881 E.02334
G1 X158.677 Y130.235 E.13511
G1 X158.677 Y130.881 E.02334
G1 X161.323 Y133.527 E.13511
G1 X161.323 Y134.174 E.02334
G1 X158.677 Y131.528 E.13511
G1 X158.677 Y132.174 E.02334
G1 X161.323 Y134.82 E.13511
G1 X161.323 Y135.466 E.02334
G1 X158.677 Y132.82 E.13511
G1 X158.677 Y133.467 E.02334
G1 X161.323 Y136.113 E.13511
G1 X161.323 Y136.759 E.02334
G1 X158.677 Y134.113 E.13511
G1 X158.677 Y134.76 E.02334
G1 X161.323 Y137.406 E.13511
G1 X161.323 Y138.052 E.02334
G1 X158.677 Y135.406 E.13511
G1 X158.677 Y136.053 E.02334
G1 X161.323 Y138.698 E.13511
G1 X161.323 Y139.345 E.02334
G1 X158.677 Y136.699 E.13511
G1 X158.677 Y137.345 E.02334
G1 X161.323 Y139.991 E.13511
G1 X161.323 Y140.638 E.02334
G1 X158.677 Y137.992 E.13511
G1 X158.677 Y138.638 E.02334
G1 X161.323 Y141.284 E.13511
G1 X161.323 Y141.931 E.02334
G1 X158.677 Y139.285 E.13511
G1 X158.677 Y139.931 E.02334
G1 X161.323 Y142.577 E.13511
G1 X161.323 Y143.223 E.02334
G1 X158.677 Y140.577 E.13511
G1 X158.677 Y141.224 E.02334
G1 X161.323 Y143.87 E.13511
G1 X161.323 Y144.516 E.02334
G1 X158.677 Y141.87 E.13511
G1 X158.677 Y142.517 E.02334
G1 X161.323 Y145.163 E.13511
G1 X161.323 Y145.809 E.02334
G1 X158.677 Y143.163 E.13511
G1 X158.677 Y143.809 E.02334
G1 X161.323 Y146.455 E.13511
G1 X161.323 Y147.102 E.02334
G1 X158.677 Y144.456 E.13511
G1 X158.677 Y145.102 E.02334
G1 X161.323 Y147.748 E.13511
G1 X161.323 Y148.395 E.02334
G1 X158.677 Y145.749 E.13511
G1 X158.677 Y146.395 E.02334
G1 X161.323 Y149.041 E.13511
G1 X161.323 Y149.687 E.02334
G1 X158.677 Y147.042 E.13511
G1 X158.677 Y147.688 E.02334
G1 X161.323 Y150.334 E.13511
G1 X161.323 Y150.98 E.02334
G1 X158.677 Y148.334 E.13511
G1 X158.677 Y148.981 E.02334
G1 X161.323 Y151.627 E.13511
G1 X161.323 Y152.273 E.02334
G1 X158.677 Y149.627 E.13511
G1 X158.677 Y150.274 E.02334
G1 X161.323 Y152.92 E.13511
G1 X161.323 Y153.566 E.02334
G1 X158.677 Y150.92 E.13511
G1 X158.677 Y151.566 E.02334
G1 X161.323 Y154.212 E.13511
G1 X161.323 Y154.859 E.02334
G1 X158.677 Y152.213 E.13511
G1 X158.677 Y152.859 E.02334
G1 X161.323 Y155.505 E.13511
G1 X161.323 Y156.152 E.02334
G1 X158.677 Y153.506 E.13511
G1 X158.677 Y154.152 E.02334
G1 X161.323 Y156.798 E.13511
G1 X161.323 Y157.444 E.02334
G1 X158.677 Y154.798 E.13511
G1 X158.677 Y155.445 E.02334
G1 X161.323 Y158.091 E.13511
G1 X161.323 Y158.737 E.02334
G1 X158.677 Y156.091 E.13511
G1 X158.677 Y156.738 E.02334
G1 X161.323 Y159.384 E.13511
G1 X161.323 Y160.03 E.02334
G1 X158.677 Y157.384 E.13511
G3 X158.623 Y157.977 I-1.55 J.158 E.02162
G1 X161.323 Y160.676 E.13786
G1 X161.323 Y161.323 E.02334
G1 X158.384 Y158.384 E.15008
G1 X158.074 Y158.594 E.01351
G1 X157.977 Y158.623 E.00367
G1 X160.677 Y161.323 E.13786
G1 X160.03 Y161.323 E.02334
G1 X157.384 Y158.677 E.13511
G1 X156.738 Y158.677 E.02334
G1 X159.384 Y161.323 E.13511
G1 X158.737 Y161.323 E.02334
G1 X156.091 Y158.677 E.13511
G1 X155.445 Y158.677 E.02334
G1 X158.091 Y161.323 E.13511
G1 X157.445 Y161.323 E.02334
G1 X154.799 Y158.677 E.13511
G1 X154.152 Y158.677 E.02334
G1 X156.798 Y161.323 E.13511
G1 X156.152 Y161.323 E.02334
G1 X153.506 Y158.677 E.13511
G1 X152.859 Y158.677 E.02334
G1 X155.505 Y161.323 E.13511
G1 X154.859 Y161.323 E.02334
G1 X152.213 Y158.677 E.13511
G1 X151.567 Y158.677 E.02334
G1 X154.212 Y161.323 E.13511
G1 X153.566 Y161.323 E.02334
G1 X150.92 Y158.677 E.13511
G1 X150.274 Y158.677 E.02334
G1 X152.92 Y161.323 E.13511
G1 X152.273 Y161.323 E.02334
G1 X149.627 Y158.677 E.13511
G1 X148.981 Y158.677 E.02334
G1 X151.627 Y161.323 E.13511
G1 X150.98 Y161.323 E.02334
G1 X148.335 Y158.677 E.13511
G1 X147.688 Y158.677 E.02334
G1 X150.334 Y161.323 E.13511
G1 X149.688 Y161.323 E.02334
G1 X147.042 Y158.677 E.13511
G1 X146.395 Y158.677 E.02334
G1 X149.041 Y161.323 E.13511
G1 X148.395 Y161.323 E.02334
G1 X145.749 Y158.677 E.13511
G1 X145.102 Y158.677 E.02334
G1 X147.748 Y161.323 E.13511
G1 X147.102 Y161.323 E.02334
G1 X144.456 Y158.677 E.13511
G1 X143.81 Y158.677 E.02334
G1 X146.456 Y161.323 E.13511
G1 X145.809 Y161.323 E.02334
G1 X143.163 Y158.677 E.13511
G1 X142.517 Y158.677 E.02334
G1 X145.163 Y161.323 E.13511
G1 X144.516 Y161.323 E.02334
G1 X141.87 Y158.677 E.13511
G1 X141.224 Y158.677 E.02334
G1 X143.87 Y161.323 E.13511
G1 X143.223 Y161.323 E.02334
G1 X140.578 Y158.677 E.13511
G1 X139.931 Y158.677 E.02334
G1 X142.577 Y161.323 E.13511
G1 X141.931 Y161.323 E.02334
G1 X139.285 Y158.677 E.13511
G1 X138.638 Y158.677 E.02334
G1 X141.284 Y161.323 E.13511
G1 X140.638 Y161.323 E.02334
G1 X137.992 Y158.677 E.13511
G1 X137.345 Y158.677 E.02334
G1 X139.991 Y161.323 E.13511
G1 X139.345 Y161.323 E.02334
G1 X136.699 Y158.677 E.13511
G1 X136.053 Y158.677 E.02334
G1 X138.699 Y161.323 E.13511
G1 X138.052 Y161.323 E.02334
G1 X135.406 Y158.677 E.13511
G1 X134.76 Y158.677 E.02334
G1 X137.406 Y161.323 E.13511
G1 X136.759 Y161.323 E.02334
G1 X134.113 Y158.677 E.13511
G1 X133.467 Y158.677 E.02334
G1 X136.113 Y161.323 E.13511
G1 X135.467 Y161.323 E.02334
G1 X132.821 Y158.677 E.13511
G1 X132.174 Y158.677 E.02334
G1 X134.82 Y161.323 E.13511
G1 X134.174 Y161.323 E.02334
G1 X131.528 Y158.677 E.13511
G1 X130.881 Y158.677 E.02334
G1 X133.527 Y161.323 E.13511
G1 X132.881 Y161.323 E.02334
G1 X130.235 Y158.677 E.13511
G1 X129.589 Y158.677 E.02334
G1 X132.234 Y161.323 E.13511
G1 X131.588 Y161.323 E.02334
G1 X128.942 Y158.677 E.13511
G1 X128.296 Y158.677 E.02334
G1 X130.942 Y161.323 E.13511
G1 X130.295 Y161.323 E.02334
G1 X127.649 Y158.677 E.13511
G1 X127.003 Y158.677 E.02334
G1 X129.649 Y161.323 E.13511
G1 X129.002 Y161.323 E.02334
G1 X126.356 Y158.677 E.13511
G1 X125.71 Y158.677 E.02334
G1 X128.356 Y161.323 E.13511
G1 X127.71 Y161.323 E.02334
G1 X125.064 Y158.677 E.13511
G1 X124.417 Y158.677 E.02334
G1 X127.063 Y161.323 E.13511
G1 X126.417 Y161.323 E.02334
G1 X123.771 Y158.677 E.13511
G1 X123.124 Y158.677 E.02334
