;TIME:3741.55
;Filament used:9.49019m
;Layer height:0.200
; HEADER_BLOCK_START
; generated by Creality_Print V5.1.6.10470 on 2025-02-20 at 14:32:57
; total layer number: 50
; filament_density: 1.24
; filament_diameter: 1.75
; max_z_height: 10.00
; HEADER_BLOCK_END

; MINX = 60.00
; MINY = 60.00
; MINZ = 0.00
; MAXX = 160.00
; MAXY = 160.00
; MAXZ = 10.00

; THUMBNAIL_BLOCK_START

;
; THUMBNAIL_BLOCK_END

; THUMBNAIL_BLOCK_START

;
; THUMBNAIL_BLOCK_END

; external perimeters extrusion width = 0.42mm
; perimeters extrusion width = 0.45mm
; infill extrusion width = 0.45mm
; solid infill extrusion width = 0.42mm
; top infill extrusion width = 0.42mm
; first layer extrusion width = 0.50mm

; EXECUTABLE_BLOCK_START
M73 P0 R62
M201 X5000 Y5000 Z500 E5000
M203 X500 Y500 Z30 E100
M204 P5000 R2500 T5000 ; sets acceleration (P, T) and retract acceleration (R), mm/sec^2
M205 X10.00 Y10.00 Z0.40 E5.00 ; sets the jerk limits, mm/sec
;TYPE:Custom
M220 S100 ;Reset Feedrate 
M221 S100 ;Reset Flowrate 
 
M140 S50 ;Set final bed temp 
G28 ;Home 
 
G92 E0 ;Reset Extruder 
G1 Z2.0 F3000 ;Move Z Axis up 
M104 S190 ;Set final nozzle temp 
G1 X-2.1 Y20 Z0.28 F5000.0 ;Move to start position 
M190 S50 ;Wait for bed temp to stabilize 
M109 S190 ;Wait for nozzle temp to stabilize 
G1 X-2.1 Y145.0 Z0.28 F1500.0 E15 ;Draw the first line 
G1 X-2.4 Y145.0 Z0.28 F5000.0 ;Move to side a little 
G1 X-2.4 Y20 Z0.28 F1500.0 E30 ;Draw the second line 
G92 E0  ;Reset Extruder 
G1 E-1.0000 F1800 ;Retract a bit 
G1 Z2.0 F3000 ;Move Z Axis up 
G1 E0.0000 F1800
G90
G21
M83 ; use relative distances for extrusion
M106 S0
;LAYER_CHANGE
;Z:0.2
;HEIGHT:0.2
;BEFORE_LAYER_CHANGE
;0.2
G92 E0

G1 E-1.2 F2400
;_SET_FAN_SPEED_CHANGING_LAYER
M204 P500
M205 X10 Y10
; printing object Body1 id:140729895392640 copy 0
M204 T500
G1 X158.859 Y158.729 F9000
G1 Z.2
G1 E1.2 F1800
;TYPE:Inner wall
;WIDTH:0.499999
G1 X158.796 Y158.796 E.00332
G3 X157.944 Y159.143 I-.841 J-.845 E.03411
G1 X62.14 Y159.143 E3.45908
G1 X61.706 Y159.097 E.01576
G3 X60.857 Y157.944 I.343 J-1.142 E.05546
G1 X60.857 Y62.14 E3.45908
G1 X60.903 Y61.706 E.01576
G3 X62.056 Y60.857 I1.142 J.343 E.05546
G1 X157.861 Y60.858 E3.45913
G1 X158.294 Y60.903 E.01571
M73 P0 R61
G3 X159.097 Y61.706 I-.294 J1.097 E.04293
G1 X159.143 Y62.14 E.01576
G1 X159.143 Y157.86 E3.45605
G1 X159.097 Y158.294 E.01576
G3 X158.977 Y158.564 I-1.142 J-.343 E.0107
G1 X158.883 Y158.697 E.00588
G1 X159.542 Y158.413 F9000
;TYPE:Outer wall
G1 F1800
G1 X159.383 Y158.798 E.01505
G1 X159.129 Y159.129 E.01505
G1 X158.798 Y159.383 E.01505
G1 X158.413 Y159.542 E.01505
G1 X157.974 Y159.6 E.016
G1 X62.14 Y159.6 E3.46016
G1 X61.587 Y159.542 E.02009
G1 X61.202 Y159.383 E.01505
G1 X60.871 Y159.129 E.01505
G1 X60.617 Y158.798 E.01505
G1 X60.458 Y158.413 E.01505
G1 X60.4 Y157.974 E.016
G1 X60.4 Y62.14 E3.46016
G1 X60.458 Y61.587 E.02009
G1 X60.617 Y61.202 E.01505
G1 X60.871 Y60.871 E.01505
G1 X61.202 Y60.617 E.01505
G1 X61.587 Y60.458 E.01505
G1 X62.026 Y60.4 E.016
G1 X157.871 Y60.401 E3.46056
G1 X158.413 Y60.458 E.01969
G1 X158.798 Y60.617 E.01505
G1 X159.129 Y60.871 E.01505
G1 X159.383 Y61.202 E.01505
G1 X159.542 Y61.587 E.01505
G1 X159.6 Y62.14 E.02009
G1 X159.6 Y157.86 E3.45605
G1 X159.546 Y158.373 E.01865
M73 P1 R61
G1 E-1.2 F2400
;WIPE_START
G1 F9000
G1 X159.383 Y158.798
G1 X159.129 Y159.129
G1 X158.798 Y159.383
G1 X158.413 Y159.542
G1 X158.121 Y159.581
;WIPE_END
G1 Z.4
G1 X157.477 Y60.973
G1 Z.4
G1 Z.2
G1 E1.2 F1800
;TYPE:Bottom surface
;WIDTH:0.500897
G1 F4800
G1 X158.823 Y62.319 E.06888
G1 X158.823 Y62.967 E.02343
G1 X157.035 Y61.178 E.0915
G1 X156.387 Y61.178 E.02343
G1 X158.823 Y63.614 E.12463
G1 X158.823 Y64.262 E.02343
G1 X155.739 Y61.178 E.15777
G1 X155.092 Y61.178 E.02343
G1 X158.823 Y64.91 E.19091
G1 X158.823 Y65.557 E.02343
G1 X154.444 Y61.178 E.22404
G1 X153.796 Y61.178 E.02343
G1 X158.823 Y66.205 E.25718
G1 X158.823 Y66.853 E.02343
G1 X153.148 Y61.178 E.29032
G1 X152.501 Y61.178 E.02343
G1 X158.823 Y67.5 E.32345
G1 X158.823 Y68.148 E.02343
G1 X151.853 Y61.178 E.35659
G1 X151.205 Y61.178 E.02343
G1 X158.823 Y68.796 E.38973
G1 X158.823 Y69.444 E.02343
G1 X150.558 Y61.178 E.42286
G1 X149.91 Y61.178 E.02343
G1 X158.823 Y70.091 E.456
G1 X158.823 Y70.739 E.02343
G1 X149.262 Y61.178 E.48914
G1 X148.615 Y61.178 E.02343
G1 X158.823 Y71.387 E.52228
G1 X158.823 Y72.034 E.02343
G1 X147.967 Y61.178 E.55541
G1 X147.319 Y61.178 E.02343
G1 X158.823 Y72.682 E.58855
G1 X158.823 Y73.33 E.02343
G1 X146.672 Y61.178 E.62169
G1 X146.024 Y61.178 E.02343
G1 X158.823 Y73.977 E.65482
G1 X158.823 Y74.625 E.02343
G1 X145.376 Y61.178 E.68796
G1 X144.729 Y61.178 E.02343
G1 X158.823 Y75.273 E.7211
G1 X158.823 Y75.92 E.02343
G1 X144.081 Y61.178 E.75423
G1 X143.433 Y61.178 E.02343
G1 X158.823 Y76.568 E.78737
G1 X158.823 Y77.216 E.02343
G1 X142.785 Y61.178 E.82051
G1 X142.138 Y61.178 E.02343
G1 X158.823 Y77.863 E.85364
G1 X158.823 Y78.511 E.02343
G1 X141.49 Y61.178 E.88678
G1 X140.842 Y61.178 E.02343
G1 X158.823 Y79.159 E.91992
G1 X158.823 Y79.806 E.02343
G1 X140.195 Y61.178 E.95305
G1 X139.547 Y61.178 E.02343
G1 X158.823 Y80.454 E.98619
G1 X158.823 Y81.102 E.02343
G1 X138.899 Y61.178 E1.01933
G1 X138.252 Y61.178 E.02343
G1 X158.823 Y81.749 E1.05246
G1 X158.823 Y82.397 E.02343
G1 X137.604 Y61.178 E1.0856
G1 X136.956 Y61.178 E.02343
G1 X158.823 Y83.045 E1.11874
G1 X158.823 Y83.692 E.02343
G1 X136.309 Y61.178 E1.15188
G1 X135.661 Y61.178 E.02343
G1 X158.823 Y84.34 E1.18501
G1 X158.823 Y84.988 E.02343
G1 X135.013 Y61.178 E1.21815
G1 X134.366 Y61.178 E.02343
G1 X158.823 Y85.635 E1.25129
G1 X158.823 Y86.283 E.02343
G1 X133.718 Y61.178 E1.28442
G1 X133.07 Y61.178 E.02343
G1 X158.823 Y86.931 E1.31756
G1 X158.823 Y87.578 E.02343
G1 X132.423 Y61.178 E1.3507
G1 X131.775 Y61.178 E.02343
G1 X158.823 Y88.226 E1.38383
G1 X158.823 Y88.874 E.02343
G1 X131.127 Y61.178 E1.41697
G1 X130.479 Y61.178 E.02343
G1 X158.823 Y89.522 E1.45011
G1 X158.823 Y90.169 E.02343
G1 X129.832 Y61.178 E1.48324
G1 X129.184 Y61.178 E.02343
G1 X158.823 Y90.817 E1.51638
G1 X158.823 Y91.465 E.02343
G1 X128.536 Y61.178 E1.54952
G1 X127.889 Y61.178 E.02343
G1 X158.823 Y92.112 E1.58265
G1 X158.823 Y92.76 E.02343
G1 X127.241 Y61.178 E1.61579
G1 X126.593 Y61.178 E.02343
G1 X158.823 Y93.408 E1.64893
G1 X158.823 Y94.055 E.02343
G1 X125.946 Y61.178 E1.68206
G1 X125.298 Y61.178 E.02343
G1 X158.823 Y94.703 E1.7152
G1 X158.823 Y95.351 E.02343
G1 X124.65 Y61.178 E1.74834
G1 X124.003 Y61.178 E.02343
G1 X158.823 Y95.998 E1.78148
G1 X158.823 Y96.646 E.02343
G1 X123.355 Y61.178 E1.81461
G1 X122.707 Y61.178 E.02343
G1 X158.823 Y97.294 E1.84775
G1 X158.823 Y97.941 E.02343
G1 X122.06 Y61.178 E1.88089
G1 X121.412 Y61.178 E.02343
G1 X158.823 Y98.589 E1.91402
G1 X158.823 Y99.237 E.02343
G1 X120.764 Y61.178 E1.94716
G1 X120.116 Y61.178 E.02343
G1 X158.823 Y99.884 E1.9803
G1 X158.823 Y100.532 E.02343
G1 X119.469 Y61.178 E2.01343
G1 X118.821 Y61.178 E.02343
G1 X158.823 Y101.18 E2.04657
G1 X158.823 Y101.827 E.02343
G1 X118.173 Y61.178 E2.07971
G1 X117.526 Y61.178 E.02343
G1 X158.823 Y102.475 E2.11284
G1 X158.823 Y103.123 E.02343
G1 X116.878 Y61.178 E2.14598
G1 X116.23 Y61.178 E.02343
G1 X158.823 Y103.77 E2.17912
G1 X158.823 Y104.418 E.02343
M73 P2 R61
G1 X115.583 Y61.178 E2.21225
G1 X114.935 Y61.178 E.02343
G1 X158.823 Y105.066 E2.24539
G1 X158.823 Y105.713 E.02343
G1 X114.287 Y61.178 E2.27853
G1 X113.64 Y61.178 E.02343
G1 X158.823 Y106.361 E2.31166
G1 X158.823 Y107.009 E.02343
G1 X112.992 Y61.178 E2.3448
G1 X112.344 Y61.178 E.02343
G1 X158.823 Y107.656 E2.37794
G1 X158.823 Y108.304 E.02343
G1 X111.697 Y61.178 E2.41108
G1 X111.049 Y61.178 E.02343
G1 X158.823 Y108.952 E2.44421
G1 X158.823 Y109.6 E.02343
M73 P2 R60
G1 X110.401 Y61.178 E2.47735
G1 X109.753 Y61.178 E.02343
G1 X158.823 Y110.247 E2.51049
G1 X158.823 Y110.895 E.02343
G1 X109.106 Y61.178 E2.54362
G1 X108.458 Y61.178 E.02343
G1 X158.823 Y111.543 E2.57676
G1 X158.823 Y112.19 E.02343
G1 X107.81 Y61.178 E2.6099
G1 X107.163 Y61.178 E.02343
G1 X158.823 Y112.838 E2.64303
G1 X158.823 Y113.486 E.02343
G1 X106.515 Y61.178 E2.67617
G1 X105.867 Y61.178 E.02343
G1 X158.823 Y114.133 E2.70931
G1 X158.823 Y114.781 E.02343
G1 X105.22 Y61.178 E2.74244
G1 X104.572 Y61.178 E.02343
G1 X158.823 Y115.429 E2.77558
G1 X158.823 Y116.076 E.02343
G1 X103.924 Y61.178 E2.80872
G1 X103.277 Y61.178 E.02343
G1 X158.823 Y116.724 E2.84185
G1 X158.823 Y117.372 E.02343
G1 X102.629 Y61.178 E2.87499
G1 X101.981 Y61.178 E.02343
G1 X158.823 Y118.019 E2.90813
G1 X158.823 Y118.667 E.02343
G1 X101.334 Y61.178 E2.94126
G1 X100.686 Y61.178 E.02343
G1 X158.823 Y119.315 E2.9744
G1 X158.823 Y119.962 E.02343
G1 X100.038 Y61.178 E3.00754
G1 X99.391 Y61.178 E.02343
G1 X158.823 Y120.61 E3.04068
G1 X158.823 Y121.258 E.02343
G1 X98.743 Y61.178 E3.07381
G1 X98.095 Y61.178 E.02343
G1 X158.823 Y121.905 E3.10695
G1 X158.823 Y122.553 E.02343
G1 X97.447 Y61.178 E3.14009
G1 X96.8 Y61.178 E.02343
G1 X158.823 Y123.201 E3.17322
G1 X158.823 Y123.848 E.02343
G1 X96.152 Y61.178 E3.20636
G1 X95.504 Y61.178 E.02343
G1 X158.823 Y124.496 E3.2395
G1 X158.823 Y125.144 E.02343
G1 X94.857 Y61.177 E3.27263
G1 X94.209 Y61.177 E.02343
G1 X158.823 Y125.791 E3.30577
G1 X158.823 Y126.439 E.02343
M73 P3 R60
G1 X93.561 Y61.177 E3.33891
G1 X92.914 Y61.177 E.02343
G1 X158.823 Y127.087 E3.37204
G1 X158.823 Y127.734 E.02343
G1 X92.266 Y61.177 E3.40518
G1 X91.618 Y61.177 E.02343
G1 X158.823 Y128.382 E3.43832
G1 X158.823 Y129.03 E.02343
G1 X90.971 Y61.177 E3.47145
G1 X90.323 Y61.177 E.02343
G1 X158.823 Y129.678 E3.50459
G1 X158.823 Y130.325 E.02343
G1 X89.675 Y61.177 E3.53773
G1 X89.028 Y61.177 E.02343
G1 X158.823 Y130.973 E3.57086
G1 X158.823 Y131.621 E.02343
G1 X88.38 Y61.177 E3.604
G1 X87.732 Y61.177 E.02343
G1 X158.823 Y132.268 E3.63714
G1 X158.823 Y132.916 E.02343
G1 X87.084 Y61.177 E3.67028
G1 X86.437 Y61.177 E.02343
G1 X158.823 Y133.564 E3.70341
G1 X158.823 Y134.211 E.02343
G1 X85.789 Y61.177 E3.73655
G1 X85.141 Y61.177 E.02343
G1 X158.823 Y134.859 E3.76969
G1 X158.823 Y135.507 E.02343
G1 X84.494 Y61.177 E3.80282
G1 X83.846 Y61.177 E.02343
G1 X158.823 Y136.154 E3.83596
G1 X158.823 Y136.802 E.02343
G1 X83.198 Y61.177 E3.8691
G1 X82.551 Y61.177 E.02343
G1 X158.823 Y137.45 E3.90223
G1 X158.823 Y138.097 E.02343
G1 X81.903 Y61.177 E3.93537
G1 X81.255 Y61.177 E.02343
G1 X158.823 Y138.745 E3.96851
G1 X158.823 Y139.393 E.02343
G1 X80.608 Y61.177 E4.00164
G1 X79.96 Y61.177 E.02343
M73 P3 R59
G1 X158.823 Y140.04 E4.03478
G1 X158.823 Y140.688 E.02343
G1 X79.312 Y61.177 E4.06792
G1 X78.665 Y61.177 E.02343
G1 X158.823 Y141.336 E4.10105
G1 X158.823 Y141.983 E.02343
G1 X78.017 Y61.177 E4.13419
G1 X77.369 Y61.177 E.02343
G1 X158.823 Y142.631 E4.16733
G1 X158.823 Y143.279 E.02343
M73 P4 R59
G1 X76.721 Y61.177 E4.20046
G1 X76.074 Y61.177 E.02343
G1 X158.823 Y143.926 E4.2336
G1 X158.823 Y144.574 E.02343
G1 X75.426 Y61.177 E4.26674
G1 X74.778 Y61.177 E.02343
G1 X158.823 Y145.222 E4.29988
G1 X158.823 Y145.869 E.02343
G1 X74.131 Y61.177 E4.33301
G1 X73.483 Y61.177 E.02343
G1 X158.823 Y146.517 E4.36615
G1 X158.823 Y147.165 E.02343
G1 X72.835 Y61.177 E4.39929
G1 X72.188 Y61.177 E.02343
G1 X158.823 Y147.812 E4.43242
G1 X158.823 Y148.46 E.02343
G1 X71.54 Y61.177 E4.46556
G1 X70.892 Y61.177 E.02343
G1 X158.823 Y149.108 E4.4987
G1 X158.823 Y149.756 E.02343
G1 X70.245 Y61.177 E4.53183
G1 X69.597 Y61.177 E.02343
G1 X158.823 Y150.403 E4.56497
G1 X158.823 Y151.051 E.02343
G1 X68.949 Y61.177 E4.59811
G1 X68.302 Y61.177 E.02343
G1 X158.823 Y151.699 E4.63124
G1 X158.823 Y152.346 E.02343
G1 X67.654 Y61.177 E4.66438
G1 X67.006 Y61.177 E.02343
G1 X158.823 Y152.994 E4.69752
G1 X158.823 Y153.642 E.02343
G1 X66.358 Y61.177 E4.73065
G1 X65.711 Y61.177 E.02343
G1 X158.823 Y154.289 E4.76379
G1 X158.823 Y154.937 E.02343
G1 X65.063 Y61.177 E4.79693
G1 X64.415 Y61.177 E.02343
G1 X158.823 Y155.585 E4.83006
G1 X158.823 Y156.232 E.02343
G1 X63.768 Y61.177 E4.8632
G1 X63.12 Y61.177 E.02343
G1 X158.823 Y156.88 E4.89634
G1 X158.823 Y157.528 E.02343
M73 P5 R59
G1 X62.472 Y61.177 E4.92948
G2 X61.856 Y61.208 I-.164 J2.887 E.02238
G1 X158.794 Y158.146 E4.95952
G3 X158.575 Y158.575 I-.872 J-.175 E.01764
G1 X61.425 Y61.425 E4.97035
G2 X61.206 Y61.854 I.653 J.604 E.01764
G1 X158.144 Y158.792 E4.95952
G3 X157.528 Y158.823 I-.453 J-2.857 E.02238
G1 X61.177 Y62.472 E4.92947
G1 X61.177 Y63.12 E.02343
G1 X156.88 Y158.823 E4.89634
G1 X156.232 Y158.823 E.02343
G1 X61.177 Y63.768 E4.8632
G1 X61.177 Y64.415 E.02343
G1 X155.585 Y158.823 E4.83006
G1 X154.937 Y158.823 E.02343
M73 P5 R58
G1 X61.177 Y65.063 E4.79693
G1 X61.177 Y65.711 E.02343
G1 X154.289 Y158.823 E4.76379
G1 X153.642 Y158.823 E.02343
G1 X61.177 Y66.358 E4.73065
G1 X61.177 Y67.006 E.02343
G1 X152.994 Y158.823 E4.69752
G1 X152.346 Y158.823 E.02343
G1 X61.177 Y67.654 E4.66438
G1 X61.177 Y68.302 E.02343
G1 X151.698 Y158.823 E4.63125
G1 X151.051 Y158.823 E.02343
G1 X61.177 Y68.949 E4.59811
G1 X61.177 Y69.597 E.02343
G1 X150.403 Y158.823 E4.56497
G1 X149.755 Y158.823 E.02343
G1 X61.177 Y70.245 E4.53184
G1 X61.177 Y70.892 E.02343
G1 X149.108 Y158.823 E4.4987
G1 X148.46 Y158.823 E.02343
G1 X61.177 Y71.54 E4.46556
G1 X61.177 Y72.188 E.02343
G1 X147.812 Y158.823 E4.43243
G1 X147.165 Y158.823 E.02343
G1 X61.177 Y72.835 E4.39929
G1 X61.177 Y73.483 E.02343
M73 P6 R58
G1 X146.517 Y158.823 E4.36615
G1 X145.869 Y158.823 E.02343
G1 X61.177 Y74.131 E4.33302
G1 X61.177 Y74.778 E.02343
G1 X145.222 Y158.823 E4.29988
G1 X144.574 Y158.823 E.02343
G1 X61.177 Y75.426 E4.26675
G1 X61.177 Y76.074 E.02343
G1 X143.926 Y158.823 E4.23361
G1 X143.279 Y158.823 E.02343
G1 X61.177 Y76.721 E4.20047
G1 X61.177 Y77.369 E.02343
G1 X142.631 Y158.823 E4.16734
G1 X141.983 Y158.823 E.02343
G1 X61.177 Y78.017 E4.1342
G1 X61.177 Y78.664 E.02343
G1 X141.336 Y158.823 E4.10106
G1 X140.688 Y158.823 E.02343
G1 X61.177 Y79.312 E4.06793
G1 X61.177 Y79.96 E.02343
G1 X140.04 Y158.823 E4.03479
G1 X139.393 Y158.823 E.02343
G1 X61.177 Y80.607 E4.00165
G1 X61.177 Y81.255 E.02343
G1 X138.745 Y158.823 E3.96852
G1 X138.097 Y158.823 E.02343
G1 X61.177 Y81.903 E3.93538
G1 X61.177 Y82.55 E.02343
G1 X137.45 Y158.823 E3.90225
G1 X136.802 Y158.823 E.02343
G1 X61.177 Y83.198 E3.86911
G1 X61.177 Y83.846 E.02343
G1 X136.154 Y158.823 E3.83597
G1 X135.507 Y158.823 E.02343
G1 X61.177 Y84.493 E3.80284
G1 X61.177 Y85.141 E.02343
G1 X134.859 Y158.823 E3.7697
G1 X134.211 Y158.823 E.02343
G1 X61.177 Y85.789 E3.73656
G1 X61.177 Y86.436 E.02343
G1 X133.564 Y158.823 E3.70343
G1 X132.916 Y158.823 E.02343
G1 X61.177 Y87.084 E3.67029
G1 X61.177 Y87.732 E.02343
G1 X132.268 Y158.823 E3.63715
G1 X131.62 Y158.823 E.02343
G1 X61.177 Y88.38 E3.60402
G1 X61.177 Y89.027 E.02343
M73 P7 R57
G1 X130.973 Y158.823 E3.57088
G1 X130.325 Y158.823 E.02343
G1 X61.177 Y89.675 E3.53775
G1 X61.177 Y90.323 E.02343
G1 X129.677 Y158.823 E3.50461
G1 X129.03 Y158.823 E.02343
G1 X61.177 Y90.97 E3.47147
G1 X61.177 Y91.618 E.02343
G1 X128.382 Y158.823 E3.43834
G1 X127.734 Y158.823 E.02343
G1 X61.177 Y92.266 E3.4052
G1 X61.177 Y92.913 E.02343
G1 X127.087 Y158.823 E3.37206
G1 X126.439 Y158.823 E.02343
G1 X61.177 Y93.561 E3.33893
G1 X61.177 Y94.209 E.02343
G1 X125.791 Y158.823 E3.30579
G1 X125.144 Y158.823 E.02343
G1 X61.177 Y94.856 E3.27265
G1 X61.177 Y95.504 E.02343
G1 X124.496 Y158.823 E3.23952
G1 X123.848 Y158.823 E.02343
G1 X61.177 Y96.152 E3.20638
G1 X61.177 Y96.799 E.02343
G1 X123.201 Y158.823 E3.17325
G1 X122.553 Y158.823 E.02343
G1 X61.177 Y97.447 E3.14011
G1 X61.177 Y98.095 E.02343
G1 X121.905 Y158.823 E3.10697
G1 X121.258 Y158.823 E.02343
G1 X61.177 Y98.742 E3.07384
G1 X61.177 Y99.39 E.02343
G1 X120.61 Y158.823 E3.0407
G1 X119.962 Y158.823 E.02343
G1 X61.177 Y100.038 E3.00756
G1 X61.177 Y100.685 E.02343
G1 X119.315 Y158.823 E2.97443
G1 X118.667 Y158.823 E.02343
G1 X61.177 Y101.333 E2.94129
G1 X61.177 Y101.981 E.02343
G1 X118.019 Y158.823 E2.90815
G1 X117.372 Y158.823 E.02343
G1 X61.177 Y102.628 E2.87502
G1 X61.177 Y103.276 E.02343
G1 X116.724 Y158.823 E2.84188
G1 X116.076 Y158.823 E.02343
G1 X61.177 Y103.924 E2.80875
G1 X61.177 Y104.571 E.02343
G1 X115.429 Y158.823 E2.77561
G1 X114.781 Y158.823 E.02343
G1 X61.177 Y105.219 E2.74247
