;TIME:5261.49
;Filament used:11.53579m
;Layer height:0.200
; HEADER_BLOCK_START
; generated by Creality_Print V5.1.6.10470 on 2025-02-22 at 18:21:18
; total layer number: 85
; filament_density: 1.24
; filament_diameter: 1.75
; max_z_height: 17.00
; HEADER_BLOCK_END

; MINX = 45.00
; MINY = 36.80
; MINZ = -0.00
; MAXX = 175.00
; MAXY = 183.20
; MAXZ = 17.00

; THUMBNAIL_BLOCK_START

;
; THUMBNAIL_BLOCK_END

; THUMBNAIL_BLOCK_START

;
; THUMBNAIL_BLOCK_END

; external perimeters extrusion width = 0.42mm
; perimeters extrusion width = 0.45mm
; infill extrusion width = 0.45mm
; solid infill extrusion width = 0.42mm
; top infill extrusion width = 0.42mm
; first layer extrusion width = 0.50mm

; EXECUTABLE_BLOCK_START
M73 P0 R87
M201 X5000 Y5000 Z500 E5000
M203 X500 Y500 Z30 E100
M204 P5000 R2500 T5000 ; sets acceleration (P, T) and retract acceleration (R), mm/sec^2
M205 X10.00 Y10.00 Z0.40 E5.00 ; sets the jerk limits, mm/sec
;TYPE:Custom
M220 S100 ;Reset Feedrate 
M221 S100 ;Reset Flowrate 
 
M140 S50 ;Set final bed temp 
G28 ;Home 
 
G92 E0 ;Reset Extruder 
G1 Z2.0 F3000 ;Move Z Axis up 
M104 S190 ;Set final nozzle temp 
G1 X-2.1 Y20 Z0.28 F5000.0 ;Move to start position 
M190 S50 ;Wait for bed temp to stabilize 
M109 S190 ;Wait for nozzle temp to stabilize 
G1 X-2.1 Y145.0 Z0.28 F1500.0 E15 ;Draw the first line 
G1 X-2.4 Y145.0 Z0.28 F5000.0 ;Move to side a little 
G1 X-2.4 Y20 Z0.28 F1500.0 E30 ;Draw the second line 
G92 E0  ;Reset Extruder 
G1 E-1.0000 F1800 ;Retract a bit 
G1 Z2.0 F3000 ;Move Z Axis up 
G1 E0.0000 F1800
G90
G21
M83 ; use relative distances for extrusion
M106 S0
;LAYER_CHANGE
;Z:0.2
;HEIGHT:0.2
;BEFORE_LAYER_CHANGE
;0.2
G92 E0

G1 E-1.2 F2400
;_SET_FAN_SPEED_CHANGING_LAYER
M204 P500
M205 X10 Y10
; printing object Body1 id:140714304312704 copy 0
M204 T500
G1 X132.253 Y169.04 F9000
G1 Z.2
G1 E1.2 F1800
;TYPE:Inner wall
;WIDTH:0.499999
G1 X132.329 Y169.057 E.00278
G1 X167.463 Y169.057 E1.26855
G1 X168.651 Y169.161 E.04308
G1 X169.769 Y169.46 E.04178
G1 X170.825 Y169.953 E.04207
G1 X171.767 Y170.613 E.04152
G1 X172.586 Y171.432 E.0418
G1 X173.25 Y172.379 E.04178
G1 X173.741 Y173.436 E.04208
G1 X174.039 Y174.547 E.04152
G1 X174.14 Y175.7 E.0418
G1 X174.039 Y176.853 E.04179
G1 X173.739 Y177.971 E.0418
G1 X173.253 Y179.014 E.04152
G1 X172.585 Y179.969 E.04208
G1 X171.767 Y180.787 E.04178
G1 X170.819 Y181.451 E.0418
G1 X169.776 Y181.937 E.04152
G1 X168.651 Y182.239 E.04208
G1 X167.463 Y182.343 E.04307
G1 X52.538 Y182.343 E4.14948
G1 X51.345 Y182.238 E.04322
G1 X50.227 Y181.938 E.04179
G1 X49.178 Y181.449 E.04179
G1 X48.23 Y180.785 E.04179
G1 X47.412 Y179.966 E.0418
G1 X46.752 Y179.024 E.04152
G1 X46.26 Y177.968 E.04207
G1 X45.961 Y176.849 E.04179
G1 X45.861 Y175.704 E.04153
G1 X45.961 Y174.551 E.04179
G1 X46.262 Y173.425 E.04207
G1 X46.748 Y172.383 E.04152
G1 X47.412 Y171.435 E.04179
G1 X48.236 Y170.611 E.04207
G1 X49.178 Y169.951 E.04152
G1 X50.227 Y169.462 E.0418
G1 X51.345 Y169.162 E.04179
G1 X52.538 Y169.057 E.04322
G1 X87.671 Y169.057 E1.26855
G1 X87.894 Y169.02 E.00814
G1 X88.135 Y168.877 E.01011
G1 X88.304 Y168.635 E.01066
G1 X88.357 Y168.371 E.00971
G1 X88.357 Y51.629 E4.21511
G1 X88.322 Y51.413 E.00788
G1 X88.18 Y51.169 E.01019
G1 X87.962 Y51.007 E.00981
G1 X87.671 Y50.943 E.01074
G1 X52.538 Y50.943 E1.26855
G1 X51.345 Y50.838 E.04322
G1 X50.234 Y50.541 E.04152
G1 X49.178 Y50.049 E.04207
G1 X48.23 Y49.385 E.04178
G1 X47.412 Y48.566 E.0418
G1 X46.752 Y47.624 E.04152
G1 X46.26 Y46.568 E.04207
G1 X45.961 Y45.449 E.04179
G1 X45.861 Y44.304 E.04153
G1 X45.961 Y43.151 E.04179
G1 X46.262 Y42.025 E.04207
G1 X46.748 Y40.983 E.04152
G1 X47.412 Y40.034 E.0418
G1 X48.23 Y39.216 E.04178
G1 X49.185 Y38.548 E.04207
G1 X50.227 Y38.062 E.04152
G1 X51.345 Y37.762 E.0418
G1 X52.538 Y37.657 E.04322
G1 X167.462 Y37.657 E4.14948
G1 X168.656 Y37.762 E.04325
G1 X169.776 Y38.063 E.0419
G1 X170.818 Y38.549 E.04151
G1 X171.773 Y39.218 E.04208
G1 X172.586 Y40.031 E.04152
G1 X173.25 Y40.98 E.0418
G1 X173.739 Y42.028 E.04178
G1 X174.039 Y43.154 E.04207
G1 X174.14 Y44.3 E.04153
G1 X174.039 Y45.453 E.04179
G1 X173.739 Y46.571 E.0418
G1 X173.25 Y47.62 E.04179
G1 X172.586 Y48.568 E.0418
G1 X171.767 Y49.387 E.04179
G1 X170.819 Y50.051 E.04179
G1 X169.77 Y50.54 E.04179
G1 X168.651 Y50.839 E.0418
G1 X167.463 Y50.943 E.04308
G1 X132.329 Y50.943 E1.26855
G1 X132.106 Y50.98 E.00814
G1 X131.865 Y51.123 E.01011
G1 X131.696 Y51.365 E.01066
G1 X131.643 Y51.629 E.00971
G1 X131.643 Y168.371 E4.21511
G1 X131.678 Y168.587 E.00788
G1 X131.82 Y168.831 E.01019
G1 X132.038 Y168.993 E.00981
G1 X132.214 Y169.032 E.00652
G1 X132.1 Y168.384 F9000
;TYPE:Outer wall
G1 F1800
G1 X132.174 Y168.54 E.00624
G1 X132.329 Y168.6 E.00598
G1 X167.483 Y168.6 E1.26927
G1 X168.731 Y168.709 E.04525
G1 X169.926 Y169.029 E.04468
G1 X171.055 Y169.556 E.04496
G1 X172.062 Y170.262 E.0444
G1 X172.937 Y171.137 E.04468
G1 X173.647 Y172.15 E.04468
G1 X174.172 Y173.279 E.04497
G1 X174.491 Y174.467 E.0444
G1 X174.598 Y175.7 E.04468
G1 X174.491 Y176.933 E.04468
G1 X174.17 Y178.128 E.04468
G1 X173.65 Y179.243 E.0444
G1 X172.937 Y180.264 E.04496
G1 X172.062 Y181.138 E.04468
G1 X171.048 Y181.848 E.04468
G1 X169.934 Y182.368 E.0444
G1 X168.731 Y182.691 E.04497
G1 X167.483 Y182.8 E.04524
G1 X52.518 Y182.8 E4.15092
G1 X51.265 Y182.69 E.04539
G1 X50.07 Y182.37 E.04468
G1 X48.949 Y181.846 E.04468
G1 X47.935 Y181.136 E.04468
G1 X47.06 Y180.26 E.04469
G1 X46.355 Y179.253 E.0444
G1 X45.829 Y178.125 E.04496
G1 X45.509 Y176.929 E.04468
G1 X45.402 Y175.704 E.04441
G1 X45.509 Y174.471 E.04468
G1 X45.831 Y173.268 E.04496
G1 X46.351 Y172.154 E.0444
G1 X47.06 Y171.14 E.04468
G1 X47.941 Y170.259 E.04496
G1 X48.949 Y169.554 E.0444
G1 X50.07 Y169.03 E.04469
M73 P0 R86
G1 X51.265 Y168.71 E.04468
G3 X52.828 Y168.6 I2.036 J17.803 E.05659
G1 X87.694 Y168.6 E1.25886
G1 X87.841 Y168.525 E.00597
G1 X87.9 Y168.371 E.00592
G1 X87.9 Y51.616 E4.21556
G1 X87.826 Y51.46 E.00624
G1 X87.671 Y51.4 E.00598
G1 X52.518 Y51.4 E1.26927
G1 X51.265 Y51.29 E.04539
G1 X50.077 Y50.972 E.0444
G1 X48.949 Y50.446 E.04496
G1 X47.935 Y49.736 E.04468
G1 X47.06 Y48.86 E.04469
G1 X46.355 Y47.853 E.0444
G1 X45.829 Y46.725 E.04496
G1 X45.509 Y45.529 E.04468
G1 X45.402 Y44.304 E.04441
G1 X45.509 Y43.071 E.04468
G1 X45.831 Y41.868 E.04496
G1 X46.351 Y40.754 E.0444
G1 X47.06 Y39.739 E.04469
G1 X47.935 Y38.864 E.04468
G1 X48.955 Y38.15 E.04496
G1 X50.07 Y37.63 E.0444
G1 X51.265 Y37.31 E.04468
G1 X52.518 Y37.2 E.04539
G1 X167.482 Y37.2 E4.15092
G1 X168.736 Y37.31 E.04542
M73 P1 R86
G1 X169.933 Y37.632 E.04479
G1 X171.048 Y38.152 E.0444
G1 X172.068 Y38.867 E.04497
G1 X172.937 Y39.737 E.0444
G1 X173.647 Y40.75 E.04468
G1 X174.17 Y41.872 E.04468
G1 X174.491 Y43.075 E.04496
G1 X174.598 Y44.3 E.04441
G1 X174.491 Y45.533 E.04468
G1 X174.17 Y46.728 E.04468
G1 X173.647 Y47.85 E.04468
G1 X172.937 Y48.863 E.04468
G1 X172.062 Y49.738 E.04468
G1 X171.048 Y50.448 E.04468
G1 X169.926 Y50.971 E.04468
G1 X168.731 Y51.291 E.04468
G3 X167.171 Y51.4 I-2.027 J-17.779 E.05647
G1 X132.306 Y51.4 E1.25885
G1 X132.159 Y51.475 E.00597
G1 X132.1 Y51.629 E.00592
G1 X132.1 Y168.344 E4.21411
G1 E-1.2 F2400
;WIPE_START
G1 F9000
G1 X132.174 Y168.54
G1 X132.329 Y168.6
G1 X133.953 Y168.6
;WIPE_END
G1 Z.4
G1 X170.74 Y38.638
G1 Z.4
G1 Z.2
G1 E1.2 F1800
;TYPE:Bottom surface
;WIDTH:0.50081
G1 F4800
G1 X172.341 Y40.24 E.08193
G1 X172.972 Y41.14 E.03975
G1 X173.302 Y41.848 E.02826
G1 X169.951 Y38.498 E.17138
G1 X169.666 Y38.365 E.01138
G1 X168.989 Y38.183 E.02538
G1 X173.617 Y42.811 E.23672
G3 X173.757 Y43.599 I-2.177 J.795 E.0291
G1 X168.202 Y38.043 E.28417
G1 X167.492 Y37.981 E.02578
G1 X173.818 Y44.307 E.32359
G1 X173.766 Y44.902 E.02162
G1 X166.84 Y37.977 E.35425
G1 X166.193 Y37.977 E.02342
G1 X173.699 Y45.484 E.38398
G1 X173.562 Y45.994 E.01912
G1 X165.545 Y37.977 E.4101
G1 X164.898 Y37.977 E.02342
G1 X173.42 Y46.499 E.43592
G1 X173.214 Y46.941 E.01762
G1 X164.25 Y37.977 E.45851
G1 X163.603 Y37.977 E.02342
G1 X173.008 Y47.382 E.4811
G1 X172.972 Y47.46 E.00309
G1 X172.752 Y47.774 E.01387
G1 X162.955 Y37.977 E.50112
G1 X162.307 Y37.977 E.02342
G1 X172.485 Y48.155 E.5206
G3 X172.192 Y48.509 I-1.152 J-.653 E.01672
G1 X161.66 Y37.977 E.53875
G1 X161.012 Y37.977 E.02342
G1 X171.868 Y48.833 E.55531
G1 X171.561 Y49.141 E.01574
G1 X171.542 Y49.154 E.00083
G1 X160.365 Y37.977 E.57173
G1 X159.717 Y37.977 E.02342
G1 X171.161 Y49.421 E.58537
G1 X170.78 Y49.687 E.01682
G1 X159.07 Y37.977 E.59901
G1 X158.422 Y37.977 E.02342
G1 X170.358 Y49.913 E.61053
G1 X169.916 Y50.118 E.01763
G1 X157.775 Y37.977 E.62106
G1 X157.127 Y37.977 E.02342
G1 X169.445 Y50.295 E.6301
G1 X168.934 Y50.432 E.01913
G1 X156.48 Y37.977 E.6371
G1 X155.832 Y37.977 E.02342
G1 X168.395 Y50.54 E.64264
G1 X167.8 Y50.592 E.02162
G1 X155.184 Y37.977 E.6453
G1 X154.537 Y37.977 E.02342
G1 X167.183 Y50.623 E.64687
G1 X166.535 Y50.623 E.02342
G1 X153.889 Y37.977 E.64687
G1 X153.242 Y37.977 E.02342
G1 X165.888 Y50.623 E.64687
G1 X165.24 Y50.623 E.02342
G1 X152.594 Y37.977 E.64687
G1 X151.947 Y37.977 E.02342
G1 X164.593 Y50.623 E.64687
G1 X163.945 Y50.623 E.02342
G1 X151.299 Y37.977 E.64687
G1 X150.652 Y37.977 E.02342
G1 X163.297 Y50.623 E.64687
G1 X162.65 Y50.623 E.02342
G1 X150.004 Y37.977 E.64687
G1 X149.356 Y37.977 E.02342
G1 X162.002 Y50.623 E.64687
G1 X161.355 Y50.623 E.02342
G1 X148.709 Y37.977 E.64687
G1 X148.061 Y37.977 E.02342
G1 X160.707 Y50.623 E.64687
G1 X160.06 Y50.623 E.02342
G1 X147.414 Y37.977 E.64687
G1 X146.766 Y37.977 E.02342
G1 X159.412 Y50.623 E.64687
G1 X158.765 Y50.623 E.02342
G1 X146.119 Y37.977 E.64687
G1 X145.471 Y37.977 E.02342
G1 X158.117 Y50.623 E.64687
G1 X157.469 Y50.623 E.02342
G1 X144.824 Y37.977 E.64687
G1 X144.176 Y37.977 E.02342
G1 X156.822 Y50.623 E.64687
G1 X156.174 Y50.623 E.02342
G1 X143.528 Y37.977 E.64687
G1 X142.881 Y37.977 E.02342
G1 X155.527 Y50.623 E.64687
G1 X154.879 Y50.623 E.02342
G1 X142.233 Y37.977 E.64687
G1 X141.586 Y37.977 E.02342
G1 X154.232 Y50.623 E.64687
G1 X153.584 Y50.623 E.02342
G1 X140.938 Y37.977 E.64687
G1 X140.291 Y37.977 E.02342
G1 X152.937 Y50.623 E.64687
G1 X152.289 Y50.623 E.02342
G1 X139.643 Y37.977 E.64687
G1 X138.996 Y37.977 E.02342
G1 X151.641 Y50.623 E.64687
G1 X150.994 Y50.623 E.02342
G1 X138.348 Y37.977 E.64687
G1 X137.7 Y37.977 E.02342
G1 X150.346 Y50.623 E.64687
G1 X149.699 Y50.623 E.02342
G1 X137.053 Y37.977 E.64687
G1 X136.405 Y37.977 E.02342
G1 X149.051 Y50.623 E.64687
G1 X148.404 Y50.623 E.02342
G1 X135.758 Y37.977 E.64687
G1 X135.11 Y37.977 E.02342
G1 X147.756 Y50.623 E.64687
G1 X147.109 Y50.623 E.02342
G1 X134.463 Y37.977 E.64687
G1 X133.815 Y37.977 E.02342
G1 X146.461 Y50.623 E.64687
G1 X145.813 Y50.623 E.02342
G1 X133.168 Y37.977 E.64687
G1 X132.52 Y37.977 E.02342
G1 X145.166 Y50.623 E.64687
G1 X144.518 Y50.623 E.02342
G1 X131.872 Y37.977 E.64687
G1 X131.225 Y37.977 E.02342
G1 X143.871 Y50.623 E.64687
G1 X143.223 Y50.623 E.02342
G1 X130.577 Y37.977 E.64687
G1 X129.93 Y37.977 E.02342
G1 X142.576 Y50.623 E.64687
G1 X141.928 Y50.623 E.02342
G1 X129.282 Y37.977 E.64687
G1 X128.635 Y37.977 E.02342
G1 X141.281 Y50.623 E.64687
G1 X140.633 Y50.623 E.02342
G1 X127.987 Y37.977 E.64687
G1 X127.34 Y37.977 E.02342
G1 X139.985 Y50.623 E.64687
G1 X139.338 Y50.623 E.02342
G1 X126.692 Y37.977 E.64687
G1 X126.044 Y37.977 E.02342
G1 X138.69 Y50.623 E.64687
G1 X138.043 Y50.623 E.02342
G1 X125.397 Y37.977 E.64687
G1 X124.749 Y37.977 E.02342
G1 X137.395 Y50.623 E.64687
G1 X136.748 Y50.623 E.02342
G1 X124.102 Y37.977 E.64687
G1 X123.454 Y37.977 E.02342
G1 X136.1 Y50.623 E.64687
G1 X135.453 Y50.623 E.02342
G1 X122.807 Y37.977 E.64687
G1 X122.159 Y37.977 E.02342
G1 X134.805 Y50.623 E.64687
G1 X134.158 Y50.623 E.02342
G1 X121.512 Y37.977 E.64687
G1 X120.864 Y37.977 E.02342
G1 X133.51 Y50.623 E.64687
G1 X132.862 Y50.623 E.02342
G1 X120.216 Y37.977 E.64687
G1 X119.569 Y37.977 E.02342
G1 X132.224 Y50.632 E.64732
G2 X131.753 Y50.808 I.099 J.98 E.0184
G1 X118.921 Y37.977 E.65635
G1 X118.274 Y37.977 E.02342
G1 X131.45 Y51.153 E.67398
G2 X131.323 Y51.674 I1.088 J.541 E.01955
G1 X117.626 Y37.977 E.70062
G1 X116.979 Y37.977 E.02342
G1 X131.323 Y52.321 E.73374
G1 X131.323 Y52.969 E.02342
G1 X116.331 Y37.977 E.76686
G1 X115.684 Y37.977 E.02342
G1 X131.323 Y53.616 E.79999
G1 X131.323 Y54.264 E.02342
G1 X115.036 Y37.977 E.83311
G1 X114.388 Y37.977 E.02342
G1 X131.323 Y54.912 E.86624
G1 X131.323 Y55.559 E.02342
G1 X113.741 Y37.977 E.89936
G1 X113.093 Y37.977 E.02342
G1 X131.323 Y56.207 E.93249
G1 X131.323 Y56.854 E.02342
G1 X112.446 Y37.977 E.96561
G1 X111.798 Y37.977 E.02342
G1 X131.323 Y57.502 E.99873
G1 X131.323 Y58.149 E.02342
G1 X111.151 Y37.977 E1.03186
G1 X110.503 Y37.977 E.02342
G1 X131.323 Y58.797 E1.06498
G1 X131.323 Y59.445 E.02342
G1 X109.856 Y37.977 E1.09811
G1 X109.208 Y37.977 E.02342
G1 X131.323 Y60.092 E1.13123
G1 X131.323 Y60.74 E.02342
G1 X108.56 Y37.977 E1.16436
G1 X107.913 Y37.977 E.02342
G1 X131.323 Y61.387 E1.19748
G1 X131.323 Y62.035 E.02342
G1 X107.265 Y37.977 E1.2306
G1 X106.618 Y37.977 E.02342
G1 X131.323 Y62.682 E1.26373
G1 X131.323 Y63.33 E.02342
G1 X105.97 Y37.977 E1.29685
G1 X105.323 Y37.977 E.02342
G1 X131.323 Y63.977 E1.32998
G1 X131.323 Y64.625 E.02342
G1 X104.675 Y37.977 E1.3631
G1 X104.028 Y37.977 E.02342
G1 X131.323 Y65.273 E1.39622
G1 X131.323 Y65.92 E.02342
G1 X103.38 Y37.977 E1.42935
G1 X102.733 Y37.977 E.02342
G1 X131.323 Y66.568 E1.46247
G1 X131.323 Y67.215 E.02342
M73 P1 R85
G1 X102.085 Y37.977 E1.4956
G1 X101.437 Y37.977 E.02342
G1 X131.323 Y67.863 E1.52872
G1 X131.323 Y68.51 E.02342
G1 X100.79 Y37.977 E1.56185
G1 X100.142 Y37.977 E.02342
G1 X131.323 Y69.158 E1.59497
G1 X131.323 Y69.806 E.02342
G1 X99.495 Y37.977 E1.62809
G1 X98.847 Y37.977 E.02342
M73 P2 R85
G1 X131.323 Y70.453 E1.66122
G1 X131.323 Y71.101 E.02342
G1 X98.2 Y37.977 E1.69434
G1 X97.552 Y37.977 E.02342
G1 X131.323 Y71.748 E1.72747
G1 X131.323 Y72.396 E.02342
G1 X96.905 Y37.977 E1.76059
G1 X96.257 Y37.977 E.02342
G1 X131.323 Y73.043 E1.79372
G1 X131.323 Y73.691 E.02342
G1 X95.609 Y37.977 E1.82684
G1 X94.962 Y37.977 E.02342
G1 X131.323 Y74.338 E1.85996
G1 X131.323 Y74.986 E.02342
G1 X94.314 Y37.977 E1.89309
G1 X93.667 Y37.977 E.02342
G1 X131.323 Y75.634 E1.92621
G1 X131.323 Y76.281 E.02342
G1 X93.019 Y37.977 E1.95934
G1 X92.372 Y37.977 E.02342
G1 X131.323 Y76.929 E1.99246
G1 X131.323 Y77.576 E.02342
G1 X91.724 Y37.977 E2.02558
G1 X91.077 Y37.977 E.02342
G1 X131.323 Y78.224 E2.05871
G1 X131.323 Y78.871 E.02342
G1 X90.429 Y37.977 E2.09183
G1 X89.781 Y37.977 E.02342
G1 X131.323 Y79.519 E2.12496
G1 X131.323 Y80.167 E.02342
G1 X89.134 Y37.977 E2.15808
G1 X88.486 Y37.977 E.02342
G1 X131.323 Y80.814 E2.19121
G1 X131.323 Y81.462 E.02342
G1 X87.839 Y37.977 E2.22433
G1 X87.191 Y37.977 E.02342
G1 X131.323 Y82.109 E2.25745
G1 X131.323 Y82.757 E.02342
G1 X86.544 Y37.977 E2.29058
G1 X85.896 Y37.977 E.02342
G1 X131.323 Y83.404 E2.3237
G1 X131.323 Y84.052 E.02342
G1 X85.249 Y37.977 E2.35683
G1 X84.601 Y37.977 E.02342
G1 X131.323 Y84.699 E2.38995
G1 X131.323 Y85.347 E.02342
G1 X83.953 Y37.977 E2.42308
G1 X83.306 Y37.977 E.02342
G1 X131.323 Y85.995 E2.4562
G1 X131.323 Y86.642 E.02342
G1 X82.658 Y37.977 E2.48932
G1 X82.011 Y37.977 E.02342
G1 X131.323 Y87.29 E2.52245
G1 X131.323 Y87.937 E.02342
G1 X81.363 Y37.977 E2.55557
G1 X80.716 Y37.977 E.02342
G1 X131.323 Y88.585 E2.5887
G1 X131.323 Y89.232 E.02342
G1 X80.068 Y37.977 E2.62182
G1 X79.421 Y37.977 E.02342
G1 X131.323 Y89.88 E2.65494
G1 X131.323 Y90.528 E.02342
G1 X78.773 Y37.977 E2.68807
G1 X78.125 Y37.977 E.02342
G1 X131.323 Y91.175 E2.72119
G1 X131.323 Y91.823 E.02342
G1 X77.478 Y37.977 E2.75432
G1 X76.83 Y37.977 E.02342
G1 X131.323 Y92.47 E2.78744
G1 X131.323 Y93.118 E.02342
G1 X76.183 Y37.977 E2.82057
G1 X75.535 Y37.977 E.02342
G1 X131.324 Y93.765 E2.85369
G1 X131.324 Y94.413 E.02342
G1 X88.677 Y51.766 E2.18146
G2 X87.534 Y50.623 I-1.035 J-.108 E.06698
G1 X74.888 Y37.977 E.64687
G1 X74.24 Y37.977 E.02342
G1 X86.886 Y50.623 E.64687
G1 X86.238 Y50.623 E.02342
G1 X73.593 Y37.977 E.64687
G1 X72.945 Y37.977 E.02342
G1 X85.591 Y50.623 E.64687
G1 X84.943 Y50.623 E.02342
G1 X72.297 Y37.977 E.64687
G1 X71.65 Y37.977 E.02342
