;TIME:1152.18
;Filament used:1.35094m
;Layer height:0.200
; HEADER_BLOCK_START
; generated by Creality_Print V5.1.6.10470 on 2025-02-22 at 18:18:05
; total layer number: 111
; filament_density: 1.24
; filament_diameter: 1.75
; max_z_height: 19.00
; HEADER_BLOCK_END

; MINX = 100.70
; MINY = 92.50
; MINZ = 0.00
; MAXX = 119.30
; MAXY = 127.50
; MAXZ = 19.00

; THUMBNAIL_BLOCK_START

;
; THUMBNAIL_BLOCK_END

; THUMBNAIL_BLOCK_START

;
; THUMBNAIL_BLOCK_END

; external perimeters extrusion width = 0.42mm
; perimeters extrusion width = 0.45mm
; infill extrusion width = 0.45mm
; solid infill extrusion width = 0.42mm
; top infill extrusion width = 0.42mm
; support material extrusion width = 0.40mm
; first layer extrusion width = 0.50mm

; EXECUTABLE_BLOCK_START
M73 P0 R19
M201 X5000 Y5000 Z500 E5000
M203 X500 Y500 Z30 E100
M204 P5000 R2500 T5000 ; sets acceleration (P, T) and retract acceleration (R), mm/sec^2
M205 X10.00 Y10.00 Z0.40 E5.00 ; sets the jerk limits, mm/sec
;TYPE:Custom
M220 S100 ;Reset Feedrate 
M221 S100 ;Reset Flowrate 
 
M140 S50 ;Set final bed temp 
G28 ;Home 
 
G92 E0 ;Reset Extruder 
G1 Z2.0 F3000 ;Move Z Axis up 
M104 S190 ;Set final nozzle temp 
G1 X-2.1 Y20 Z0.28 F5000.0 ;Move to start position 
M190 S50 ;Wait for bed temp to stabilize 
M109 S190 ;Wait for nozzle temp to stabilize 
G1 X-2.1 Y145.0 Z0.28 F1500.0 E15 ;Draw the first line 
G1 X-2.4 Y145.0 Z0.28 F5000.0 ;Move to side a little 
G1 X-2.4 Y20 Z0.28 F1500.0 E30 ;Draw the second line 
G92 E0  ;Reset Extruder 
G1 E-1.0000 F1800 ;Retract a bit 
G1 Z2.0 F3000 ;Move Z Axis up 
G1 E0.0000 F1800
G90
G21
M83 ; use relative distances for extrusion
M106 S0
;LAYER_CHANGE
;Z:0.2
;HEIGHT:0.2
;BEFORE_LAYER_CHANGE
;0.2
G92 E0

G1 E-1.2 F2400
;_SET_FAN_SPEED_CHANGING_LAYER
M204 P500
M205 X10 Y10
; printing object Body1 id:0 copy 0
M204 T500
G1 X100.1 Y102.552 F9000
G1 Z.2
M73 P1 R19
G1 E1.2 F1800
;TYPE:Support
;WIDTH:0.5
G1 X100.451 Y102.904 E.01795
G1 X119.549 Y102.904 E.68952
G2 X119.9 Y102.357 I-.098 J-.449 E.02606
G1 X123.357 Y102.357 E.12481
M73 P1 R18
G1 X123.357 Y117.643 E.55189
G1 X119.9 Y117.643 E.12481
G2 X119.549 Y117.096 I-.449 J-.098 E.02606
G1 X100.451 Y117.096 E.68952
G2 X100.1 Y117.643 I.098 J.449 E.02606
G1 X96.643 Y117.643 E.12481
G1 X96.643 Y102.357 E.55189
G1 X100.1 Y102.357 E.12481
G1 X100.1 Y102.484 E.00457
G1 X100.281 Y116.685 F9000
G1 F1800
G1 X99.735 Y117.231 E.02791
G1 X97.055 Y117.231 E.09676
G1 X97.055 Y102.769 E.52218
G1 X99.735 Y102.769 E.09676
G1 X100.281 Y103.315 E.02791
G1 X119.719 Y103.315 E.70182
G1 X120.265 Y102.769 E.02791
G1 X122.945 Y102.769 E.09676
G1 X122.945 Y117.231 E.52218
G1 X120.266 Y117.231 E.09676
G1 X119.719 Y116.685 E.02791
G1 X100.281 Y116.685 E.70182
G1 X100.071 Y116.177 F9000
G1 F1800
G1 X99.524 Y116.723 E.02791
G1 X97.562 Y116.723 E.07083
G1 X97.562 Y103.277 E.48551
G1 X99.524 Y103.277 E.07083
G1 X100.071 Y103.823 E.02791
G1 X119.929 Y103.823 E.71701
G1 X120.476 Y103.277 E.02791
G1 X122.438 Y103.277 E.07083
G1 X122.438 Y116.723 E.48551
G1 X120.476 Y116.723 E.07083
G1 X119.929 Y116.177 E.02791
G1 X100.071 Y116.177 E.71701
G1 X99.86 Y115.669 F9000
G1 F1800
G1 X99.314 Y116.216 E.02791
G1 X98.07 Y116.216 E.0449
G1 X98.07 Y103.785 E.44883
G1 X99.314 Y103.785 E.0449
G1 X99.86 Y104.331 E.02791
G1 X120.14 Y104.331 E.7322
G1 X120.686 Y103.785 E.02791
G1 X121.93 Y103.785 E.0449
G1 X121.93 Y116.216 E.44883
G1 X120.686 Y116.216 E.0449
M73 P2 R18
G1 X120.14 Y115.669 E.02791
G1 X99.86 Y115.669 E.7322
G1 X99.65 Y115.161 F9000
G1 F1800
G3 X98.578 Y115.708 I-.809 J-.263 E.04825
G1 X98.578 Y104.292 E.41216
G3 X99.65 Y104.839 I.263 J.809 E.04825
G1 X120.35 Y104.839 E.7474
G3 X121.422 Y104.292 I.809 J.263 E.04825
G1 X121.422 Y115.708 E.41216
G3 X120.35 Y115.161 I-.263 J-.809 E.04825
G1 X99.65 Y115.161 E.7474
G1 X99.44 Y114.653 F9000
G1 F1800
G1 X99.086 Y115.007 E.01805
G1 X99.086 Y104.993 E.36155
G1 X99.44 Y105.347 E.01805
G1 X120.56 Y105.347 E.76259
G1 X120.914 Y104.993 E.01805
G1 X120.914 Y115.007 E.36155
G1 X120.56 Y114.653 E.01805
G1 X99.44 Y114.653 E.76259
G1 X99.594 Y114.145 F9000
G1 F1800
G1 X99.594 Y105.855 E.29934
G1 X120.406 Y105.855 E.75144
G1 X120.406 Y114.145 E.29934
G1 X99.594 Y114.145 E.75144
G1 X100.102 Y113.637 F9000
G1 F1800
G1 X100.102 Y106.363 E.26267
G1 X119.898 Y106.363 E.71477
G1 X119.898 Y113.637 E.26267
G1 X100.102 Y113.637 E.71477
G1 X100.61 Y113.13 F9000
G1 F1800
G1 X100.61 Y106.87 E.22599
G1 X119.39 Y106.87 E.6781
G1 X119.39 Y113.13 E.22599
G1 X100.61 Y113.13 E.6781
G1 X101.118 Y112.622 F9000
M73 P3 R18
G1 F1800
G1 X101.118 Y107.378 E.18932
G1 X118.882 Y107.378 E.64142
G1 X118.882 Y112.622 E.18932
G1 X101.118 Y112.622 E.64142
G1 X101.625 Y112.114 F9000
G1 F1800
G1 X101.625 Y107.886 E.15265
G1 X118.375 Y107.886 E.60475
G1 X118.375 Y112.114 E.15265
G1 X101.625 Y112.114 E.60475
G1 X102.133 Y111.606 F9000
G1 F1800
G1 X102.133 Y108.394 E.11597
G1 X117.867 Y108.394 E.56807
G1 X117.867 Y111.606 E.11597
G1 X102.133 Y111.606 E.56807
G1 X102.641 Y111.098 F9000
G1 F1800
G1 X102.641 Y108.902 E.0793
G1 X117.359 Y108.902 E.5314
G1 X117.359 Y111.098 E.0793
G1 X102.641 Y111.098 E.5314
G1 X103.149 Y110.59 F9000
G1 F1800
G1 X103.149 Y109.41 E.04263
G1 X116.851 Y109.41 E.49473
G1 X116.851 Y110.59 E.04263
G1 X103.149 Y110.59 E.49473
G1 E-1.2 F2400
;WIPE_START
G1 F9000
G1 X105.149 Y110.59
;WIPE_END
G1 X107.707 Y113.422 Z.4
G1 X118.443 Y125.311 Z.4
G1 Z.2
G1 E1.2 F1800
;TYPE:Inner wall
;WIDTH:0.499999
G1 X118.443 Y126.643 E.0481
G1 X101.557 Y126.643 E.60968
G1 X101.557 Y123.589 E.11027
;WIDTH:0.545192
G1 X101.58 Y123.454 E.00544
;WIDTH:0.590384
G1 X101.602 Y123.318 E.00593
;WIDTH:0.635576
G1 X101.625 Y123.183 E.00642
;WIDTH:0.680768
G1 X101.647 Y123.048 E.00691
G1 X101.64 Y122.511 E.02707
;WIDTH:0.695883
G1 X101.655 Y121.97 E.02791
G1 X101.631 Y121.835 E.00706
;WIDTH:0.646912
G1 X101.606 Y121.701 E.00653
;WIDTH:0.597941
G1 X101.582 Y121.566 E.006
;WIDTH:0.54897
G1 X101.557 Y121.431 E.00547
;WIDTH:0.499999
G1 X101.557 Y118.553 E.10392
G1 X118.443 Y118.553 E.60968
G1 X118.443 Y121.418 E.10344
;WIDTH:0.54897
G1 X118.418 Y121.556 E.0056
;WIDTH:0.597941
G1 X118.394 Y121.694 E.00615
;WIDTH:0.646912
G1 X118.369 Y121.832 E.00669
;WIDTH:0.695883
G1 X118.345 Y121.97 E.00723
G1 X118.36 Y122.511 E.02791
;WIDTH:0.680769
G1 X118.353 Y123.048 E.02707
G1 X118.375 Y123.181 E.0068
;WIDTH:0.635577
G1 X118.398 Y123.314 E.00632
;WIDTH:0.590384
G1 X118.42 Y123.447 E.00584
;WIDTH:0.545192
G1 X118.443 Y123.58 E.00535
;WIDTH:0.499999
G1 X118.443 Y125.271 E.06104
G1 E-1.2 F2400
;WIPE_START
G1 F9000
G1 X118.443 Y126.643
G1 X117.815 Y126.643
;WIPE_END
G1 X114.417 Y124.906 Z.4
G1 X101.1 Y118.096 Z.4
G1 Z.2
G1 E1.2 F1800
;TYPE:Outer wall
G1 X118.9 Y118.096 E.64269
G1 X118.9 Y127.1 E.3251
G1 X101.1 Y127.1 E.64269
G1 X101.1 Y118.136 E.32365
M73 P4 R18
G1 E-1.2 F2400
;WIPE_START
G1 F9000
G1 X103.1 Y118.132
;WIPE_END
G1 X106.537 Y119.79 Z.4
G1 X116.723 Y124.707 Z.4
G1 Z.2
G1 E1.2 F1800
;TYPE:Inner wall
G1 X116.692 Y124.739 E.00161
G3 X111.995 Y123.132 I-1.892 J-2.139 E.21728
G1 X111.942 Y122.6 E.01929
G1 X111.993 Y122.074 E.01908
G3 X117.338 Y121.291 I2.809 J.54 E.25518
;WIDTH:0.54897
G1 X117.429 Y121.481 E.00841
;WIDTH:0.597941
G1 X117.52 Y121.67 E.00923
;WIDTH:0.646912
G1 X117.611 Y121.86 E.01004
;WIDTH:0.695883
G1 X117.702 Y122.05 E.01086
G1 X117.74 Y122.6 E.02843
;WIDTH:0.687181
G1 X117.71 Y123.092 E.02509
G1 X117.654 Y123.212 E.00671
;WIDTH:0.640386
G1 X117.598 Y123.331 E.00623
;WIDTH:0.59359
G1 X117.542 Y123.45 E.00574
;WIDTH:0.546795
G1 X117.485 Y123.57 E.00525
;WIDTH:0.499999
G3 X117.018 Y124.398 I-2.686 J-.97 E.0345
G1 X116.751 Y124.678 E.01397
G1 X116.669 Y124.103 F9000
;TYPE:Outer wall
G1 F1800
G1 X116.41 Y124.376 E.01362
G3 X112.524 Y123.361 I-1.613 J-1.772 E.17195
G1 X112.438 Y123.021 E.01267
G3 X116.692 Y124.07 I2.359 J-.416 E.34378
G1 E-1.2 F2400
;WIPE_START
G1 F9000
G1 X116.41 Y124.376
G1 X116.097 Y124.619
G1 X115.755 Y124.801
G1 X115.371 Y124.931
G1 X114.981 Y124.993
;WIPE_END
G1 X111.546 Y123.331 Z.4
G1 X107.842 Y121.54 Z.4
G1 Z.2
G1 E1.2 F1800
;TYPE:Inner wall
G1 X107.91 Y121.729 E.00727
G3 X102.662 Y123.909 I-2.715 J.87 E.3062
;WIDTH:0.549498
G1 X102.548 Y123.654 E.01117
;WIDTH:0.598996
G1 X102.435 Y123.399 E.01227
;WIDTH:0.648494
G1 X102.321 Y123.144 E.01336
;WIDTH:0.680768
G1 X102.284 Y123.022 E.00644
G1 X102.262 Y122.663 E.01808
;WIDTH:0.695883
G1 X102.298 Y122.05 E.03169
G1 X102.389 Y121.861 E.01082
;WIDTH:0.646912
G1 X102.479 Y121.672 E.01001
;WIDTH:0.597941
G1 X102.57 Y121.483 E.0092
;WIDTH:0.54897
G1 X102.661 Y121.294 E.00838
;WIDTH:0.499999
G1 X102.982 Y120.802 E.02121
G3 X107.73 Y121.295 I2.213 J1.798 E.20426
G1 X107.825 Y121.503 E.00827
G1 X107.23 Y121.335 F9000
;TYPE:Outer wall
G1 F1800
G1 X107.312 Y121.478 E.00598
G3 X102.83 Y122.976 I-2.116 J1.122 E.30023
G1 X102.8 Y122.619 E.01295
G3 X107.099 Y121.146 I2.395 J-.019 E.21594
G1 X107.207 Y121.302 E.00685
G1 E-1.2 F2400
;WIPE_START
G1 F9000
G1 X107.312 Y121.478
G1 X107.476 Y121.839
G1 X107.57 Y122.224
G1 X107.599 Y122.63
G1 X107.562 Y123.022
G1 X107.511 Y123.217
;WIPE_END
G1 Z.4
G1 X117.403 Y118.667
G1 Z.4
G1 Z.2
G1 E1.2 F1800
;TYPE:Bottom surface
;WIDTH:0.500865
G1 F4800
G1 X118.123 Y119.387 E.03684
G1 X118.123 Y120.035 E.02343
G1 X116.961 Y118.873 E.05945
G1 X116.313 Y118.873 E.02343
G1 X118.123 Y120.683 E.09258
G1 X118.123 Y121.33 E.02343
G1 X115.666 Y118.873 E.12571
G1 X115.018 Y118.873 E.02343
G1 X115.705 Y119.56 E.03515
G1 X115.655 Y119.541 E.00194
G2 X114.982 Y119.43 I-.856 J3.071 E.02471
G1 X114.928 Y119.431 E.00194
G1 X114.37 Y118.873 E.02855
G1 X113.723 Y118.873 E.02343
G1 X114.319 Y119.47 E.03052
G2 X113.796 Y119.594 I.166 J1.87 E.01954
G1 X113.075 Y118.873 E.03686
G1 X112.427 Y118.873 E.02343
G1 X113.344 Y119.79 E.04689
G2 X112.943 Y120.037 I.543 J1.328 E.0171
G1 X111.78 Y118.873 E.05953
G1 X111.132 Y118.873 E.02343
G1 X112.591 Y120.332 E.07462
G2 X112.284 Y120.673 I.869 J1.089 E.01667
G1 X110.485 Y118.873 E.09208
G1 X109.837 Y118.873 E.02343
G1 X112.026 Y121.062 E.11197
G1 X111.82 Y121.504 E.01764
G1 X109.189 Y118.873 E.13459
G1 X108.542 Y118.873 E.02343
G1 X111.682 Y122.013 E.16065
G1 X111.622 Y122.601 E.02137
G1 X107.894 Y118.873 E.19072
G1 X107.246 Y118.873 E.02343
G1 X112.028 Y123.654 E.24461
G1 E-1.2 F2400
;WIPE_START
G1 F9000
G1 X110.614 Y122.24
;WIPE_END
G1 X114.375 Y122.887 Z.4
G1 X117.653 Y123.451 Z.4
G1 Z.2
G1 E1.2 F1800
G1 F4800
G1 X118.123 Y123.921 E.02405
G1 X118.123 Y124.569 E.02343
G1 X117.617 Y124.062 E.02591
G1 X117.369 Y124.462 E.01702
G1 X118.123 Y125.216 E.03856
G1 X118.123 Y125.864 E.02343
G1 X117.07 Y124.811 E.05385
G3 X116.725 Y125.114 I-1.079 J-.882 E.01668
G1 X117.935 Y126.323 E.06185
G1 X117.287 Y126.323 E.02343
G1 X116.334 Y125.37 E.04873
G3 X115.89 Y125.574 I-.85 J-1.271 E.01775
G1 X116.639 Y126.323 E.03834
G1 X115.992 Y126.323 E.02343
G1 X115.382 Y125.714 E.03117
G3 X114.787 Y125.765 I-.453 J-1.755 E.02174
G1 X115.344 Y126.323 E.02852
G1 X114.696 Y126.323 E.02343
G1 X113.746 Y125.372 E.04863
G1 E-1.2 F2400
;WIPE_START
G1 F9000
G1 X114.696 Y126.323
G1 X115.344 Y126.323
G1 X115.338 Y126.317
;WIPE_END
G1 X114.254 Y126.529 Z.4
G1 Z.2
G1 E1.2 F1800
G1 F4800
G1 X106.599 Y118.873 E.39165
G1 X105.951 Y118.873 E.02343
G1 X113.401 Y126.323 E.38113
G1 X112.753 Y126.323 E.02343
G1 X108.277 Y121.847 E.22901
G1 X108.319 Y122.002 E.00581
G1 X108.378 Y122.595 E.02156
G1 X112.106 Y126.323 E.19073
G1 X111.458 Y126.323 E.02343
G1 X108.313 Y123.178 E.1609
G1 X108.181 Y123.693 E.01925
G1 X110.811 Y126.323 E.13453
G1 X110.163 Y126.323 E.02343
G1 X107.976 Y124.136 E.1119
G1 X107.717 Y124.525 E.0169
G1 X109.515 Y126.323 E.09199
G1 X108.868 Y126.323 E.02343
G1 X107.411 Y124.866 E.07452
G3 X107.059 Y125.162 I-1.061 J-.908 E.01671
G1 X108.22 Y126.323 E.05941
G1 X107.572 Y126.323 E.02343
G1 X106.658 Y125.409 E.04675
G3 X106.203 Y125.602 I-.822 J-1.31 E.01795
G1 X106.925 Y126.323 E.03691
G1 X106.277 Y126.323 E.02343
G1 X105.682 Y125.728 E.03044
G3 X105.069 Y125.763 I-.41 J-1.815 E.02231
G1 X105.63 Y126.323 E.02867
G1 X104.982 Y126.323 E.02343
G1 X104.301 Y125.642 E.03483
G3 X102.179 Y123.575 I.882 J-3.028 E.11154
G2 X101.993 Y123.334 I-.939 J.533 E.01106
G1 X101.877 Y123.607 E.01074
G1 X101.877 Y123.866 E.00935
G1 X104.334 Y126.323 E.12571
G1 X103.687 Y126.323 E.02343
M73 P5 R18
G1 X101.877 Y124.513 E.09257
G1 X101.877 Y125.161 E.02343
G1 X103.039 Y126.323 E.05944
G1 X102.391 Y126.323 E.02343
G1 X101.671 Y125.603 E.03683
G1 E-1.2 F2400
;WIPE_START
G1 F9000
G1 X102.391 Y126.323
G1 X103.039 Y126.323
G1 X102.803 Y126.087
;WIPE_END
G1 X104.65 Y122.747 Z.4
G1 X106.263 Y119.833 Z.4
G1 Z.2
G1 E1.2 F1800
G1 F4800
G1 X105.304 Y118.873 E.04908
G1 X104.656 Y118.873 E.02343
G1 X105.217 Y119.434 E.02868
G2 X104.623 Y119.488 I-.134 J1.805 E.02165
G1 X104.008 Y118.873 E.03146
G1 X103.361 Y118.873 E.02343
G1 X104.115 Y119.627 E.03857
G2 X103.666 Y119.826 I.476 J1.683 E.01782
G1 X102.713 Y118.873 E.04874
G1 X102.065 Y118.873 E.02343
G1 X103.278 Y120.085 E.06203
G2 X102.934 Y120.389 I.725 J1.167 E.01668
G1 X101.877 Y119.332 E.05407
G1 X101.877 Y119.98 E.02343
G1 X102.638 Y120.741 E.03892
G2 X102.388 Y121.139 I1.125 J.981 E.01707
G1 X101.877 Y120.628 E.02616
G1 X101.877 Y121.275 E.02343
G1 X102.334 Y121.732 E.02335
G1 E-1.2 F2400
;WIPE_START
G1 F9000
G1 X101.877 Y121.275
G1 X101.877 Y120.628
G1 X102.377 Y121.127
;WIPE_END
G1 X106.146 Y121.728 Z.4
G1 X118.214 Y123.65 Z.4
G1 Z.2
G1 E1.2 F1800
;TYPE:Gap infill
;WIDTH:0.144388
G1 X118.125 Y123.518 E.00128
;WIDTH:0.181973
G1 X118.035 Y123.386 E.00175
;WIDTH:0.200766
G1 X117.946 Y123.255 E.00198
G1 E-1.2 F2400
;WIPE_START
G1 F9000
G1 X118.035 Y123.386
;WIPE_END
G1 X118.194 Y121.615 Z.4
G1 Z.2
G1 E1.2 F1800
;WIDTH:0.202269
G1 X118.125 Y121.648 E.00096
;WIDTH:0.251542
G1 X118.056 Y121.682 E.00126
;WIDTH:0.31201
G1 X117.987 Y121.715 E.00163
G3 X117.873 Y121.593 I1.445 J-1.464 E.00355
;WIDTH:0.287996
G1 X117.802 Y121.49 E.00243
;WIDTH:0.243093
G1 X117.73 Y121.387 E.00198
;WIDTH:0.19819
G1 X117.659 Y121.284 E.00154
;WIDTH:0.15228
G1 X117.584 Y121.176 E.00113
;WIDTH:0.129165
G1 X117.483 Y121.048 E.00111
G1 E-1.2 F2400
;WIPE_START
G1 F9000
G1 X117.584 Y121.176
;WIPE_END
G1 X116.358 Y119.923 Z.4
G1 Z.2
G1 E1.2 F1800
;WIDTH:0.114299
G1 X116.248 Y119.839 E.00078
;WIDTH:0.151775
G2 X115.941 Y119.617 I-2.829 J3.584 E.00326
G1 E-1.2 F2400
;WIPE_START
G1 F9000
G1 X116.248 Y119.839
;WIPE_END
G1 X112.471 Y120.386 Z.4
G1 X102.045 Y121.895 Z.4
G1 Z.2
G1 E1.2 F1800
;WIDTH:0.175646
G1 X101.943 Y121.753 E.00184
;WIDTH:0.131555
G1 X101.841 Y121.61 E.00123
;WIDTH:0.109509
G1 X101.821 Y121.569 E.00024
G1 E-1.2 F2400
;WIPE_START
G1 F9000
G1 X101.841 Y121.61
;WIPE_END
G1 X105.657 Y121.612 Z.4
G1 X108.224 Y121.613 Z.4
G1 Z.2
G1 E1.2 F1800
;WIDTH:0.202263
G1 X108.176 Y121.53 E.00121
;WIDTH:0.171822
G1 X108.093 Y121.409 E.00149
;WIDTH:0.147138
G1 X108.011 Y121.288 E.00121
G1 E-1.2 F2400
;WIPE_START
G1 F9000
G1 X108.093 Y121.409
;WIPE_END
G1 X108.561 Y117.621 Z.4
G1 X110.558 Y101.447 Z.4
G1 Z.2
G1 E1.2 F1800
;TYPE:Inner wall
;WIDTH:0.499999
G1 X101.557 Y101.447 E.32499
G1 X101.557 Y98.389 E.11042
;WIDTH:0.545192
G1 X101.58 Y98.254 E.00544
;WIDTH:0.590384
G1 X101.602 Y98.118 E.00593
;WIDTH:0.635576
G1 X101.625 Y97.983 E.00642
;WIDTH:0.680768
G1 X101.647 Y97.848 E.00691
G1 X101.64 Y97.311 E.02707
;WIDTH:0.695883
G1 X101.655 Y96.77 E.02791
G1 X101.631 Y96.635 E.00706
;WIDTH:0.646912
G1 X101.606 Y96.501 E.00653
;WIDTH:0.597941
G1 X101.582 Y96.366 E.006
;WIDTH:0.54897
G1 X101.557 Y96.231 E.00547
;WIDTH:0.499999
G1 X101.557 Y93.357 E.10378
G1 X118.443 Y93.357 E.60968
G1 X118.443 Y96.218 E.10329
;WIDTH:0.54897
G1 X118.418 Y96.356 E.0056
;WIDTH:0.597941
G1 X118.394 Y96.494 E.00615
;WIDTH:0.646912
G1 X118.369 Y96.632 E.00669
;WIDTH:0.695883
G1 X118.345 Y96.77 E.00723
G1 X118.36 Y97.311 E.02791
;WIDTH:0.680769
G1 X118.353 Y97.848 E.02707
G1 X118.375 Y97.981 E.0068
;WIDTH:0.635577
G1 X118.398 Y98.114 E.00632
;WIDTH:0.590384
G1 X118.42 Y98.247 E.00584
;WIDTH:0.545192
G1 X118.443 Y98.38 E.00535
;WIDTH:0.499999
G1 X118.443 Y101.447 E.11073
G1 X110.598 Y101.447 E.28324
G1 E-1.2 F2400
;WIPE_START
G1 F9000
G1 X108.598 Y101.447
;WIPE_END
