;TIME:4748.80
;Filament used:8.41525m
;Layer height:0.200
; HEADER_BLOCK_START
; generated by Creality_Print V5.1.6.10470 on 2025-02-22 at 18:22:05
; total layer number: 65
; filament_density: 1.24
; filament_diameter: 1.75
; max_z_height: 13.00
; HEADER_BLOCK_END

; MINX = 32.50
; MINY = 32.50
; MINZ = 0.00
; MAXX = 187.50
; MAXY = 187.50
; MAXZ = 13.00

; THUMBNAIL_BLOCK_START

;
; THUMBNAIL_BLOCK_END

; THUMBNAIL_BLOCK_START

;
; THUMBNAIL_BLOCK_END

; external perimeters extrusion width = 0.42mm
; perimeters extrusion width = 0.45mm
; infill extrusion width = 0.45mm
; solid infill extrusion width = 0.42mm
; top infill extrusion width = 0.42mm
; first layer extrusion width = 0.50mm

; EXECUTABLE_BLOCK_START
M73 P0 R79
M201 X5000 Y5000 Z500 E5000
M203 X500 Y500 Z30 E100
M204 P5000 R2500 T5000 ; sets acceleration (P, T) and retract acceleration (R), mm/sec^2
M205 X10.00 Y10.00 Z0.40 E5.00 ; sets the jerk limits, mm/sec
;TYPE:Custom
M220 S100 ;Reset Feedrate 
M221 S100 ;Reset Flowrate 
 
M140 S50 ;Set final bed temp 
G28 ;Home 
 
G92 E0 ;Reset Extruder 
G1 Z2.0 F3000 ;Move Z Axis up 
M104 S190 ;Set final nozzle temp 
G1 X-2.1 Y20 Z0.28 F5000.0 ;Move to start position 
M190 S50 ;Wait for bed temp to stabilize 
M109 S190 ;Wait for nozzle temp to stabilize 
G1 X-2.1 Y145.0 Z0.28 F1500.0 E15 ;Draw the first line 
G1 X-2.4 Y145.0 Z0.28 F5000.0 ;Move to side a little 
G1 X-2.4 Y20 Z0.28 F1500.0 E30 ;Draw the second line 
G92 E0  ;Reset Extruder 
G1 E-1.0000 F1800 ;Retract a bit 
M73 P0 R78
G1 Z2.0 F3000 ;Move Z Axis up 
G1 E0.0000 F1800
G90
G21
M83 ; use relative distances for extrusion
M106 S0
;LAYER_CHANGE
;Z:0.2
;HEIGHT:0.2
;BEFORE_LAYER_CHANGE
;0.2
G92 E0

G1 E-1.2 F2400
;_SET_FAN_SPEED_CHANGING_LAYER
M204 P500
M205 X10 Y10
; printing object Body1 id:4621463896168362672 copy 0
M204 T500
G1 X186.143 Y186.643 F9000
G1 Z.2
G1 E1.2 F1800
;TYPE:Inner wall
;WIDTH:0.499999
G1 X33.357 Y186.643 E5.51648
G1 X33.357 Y33.357 E5.53453
G1 X186.643 Y33.357 E5.53453
G1 X186.643 Y186.643 E5.53453
G1 X186.183 Y186.643 E.01661
G1 E-1.2 F2400
;WIPE_START
G1 F9000
G1 X184.183 Y186.643
;WIPE_END
G1 X187.1 Y187.1 Z.4
G1 Z.2
G1 E1.2 F1800
;TYPE:Outer wall
G1 X32.9 Y187.1 E5.56754
G1 X32.9 Y32.9 E5.56754
G1 X187.1 Y32.9 E5.56754
G1 X187.1 Y187.06 E5.56609
M73 P1 R78
G1 E-1.2 F2400
;WIPE_START
G1 F9000
G1 X185.1 Y187.061
;WIPE_END
G1 X182.424 Y184.339 Z.4
G1 X37.21 Y36.667 Z.4
G1 Z.2
G1 E1.2 F1800
;TYPE:Inner wall
G1 X37.329 Y36.643 E.00436
G1 X182.671 Y36.643 E5.24775
G1 X182.944 Y36.699 E.01004
G1 X183.156 Y36.844 E.00928
G1 X183.301 Y37.056 E.00928
G1 X183.357 Y37.329 E.01004
G1 X183.357 Y182.671 E5.24775
G1 X183.301 Y182.944 E.01004
G1 X183.156 Y183.156 E.00928
G1 X182.944 Y183.301 E.00928
G1 X182.671 Y183.357 E.01004
G1 X37.329 Y183.357 E5.24775
G1 X37.056 Y183.301 E.01004
M73 P1 R77
G1 X36.844 Y183.156 E.00928
G1 X36.699 Y182.944 E.00928
G1 X36.643 Y182.671 E.01004
G1 X36.643 Y37.329 E5.24775
G1 X36.699 Y37.056 E.01004
G1 X36.844 Y36.844 E.00928
G1 X37.056 Y36.699 E.00928
G1 X37.171 Y36.676 E.00424
G1 X37.167 Y37.167 F9000
;TYPE:Outer wall
G1 F1800
G1 X37.329 Y37.1 E.00632
G1 X182.671 Y37.1 E5.24775
G1 X182.833 Y37.167 E.00632
G1 X182.9 Y37.329 E.00632
G1 X182.9 Y182.671 E5.24775
G1 X182.833 Y182.833 E.00632
G1 X182.671 Y182.9 E.00632
G1 X37.329 Y182.9 E5.24775
G1 X37.167 Y182.833 E.00632
G1 X37.1 Y182.671 E.00632
G1 X37.1 Y37.329 E5.24775
G1 X37.152 Y37.204 E.00487
M73 P2 R77
G1 E-1.2 F2400
;WIPE_START
G1 F9000
G1 X37.329 Y37.1
G1 X39.123 Y37.1
;WIPE_END
G1 Z.4
G1 X185.603 Y33.471
G1 Z.4
G1 Z.2
G1 E1.2 F1800
;TYPE:Bottom surface
;WIDTH:0.500679
G1 F4800
G1 X186.323 Y34.191 E.03681
G1 X186.323 Y34.838 E.02341
G1 X185.162 Y33.677 E.05939
G1 X184.514 Y33.677 E.02341
G1 X186.323 Y35.486 E.0925
G1 X186.323 Y36.133 E.02341
G1 X183.867 Y33.677 E.1256
G1 X183.219 Y33.677 E.02341
G1 X186.323 Y36.781 E.15871
G1 X186.323 Y37.428 E.02341
G1 X182.572 Y33.677 E.19181
G1 X181.925 Y33.677 E.02341
G1 X186.323 Y38.075 E.22492
G1 X186.323 Y38.723 E.02341
G1 X181.277 Y33.677 E.25802
G1 X180.63 Y33.677 E.02341
G1 X186.323 Y39.37 E.29113
G1 X186.323 Y40.017 E.02341
G1 X183.677 Y37.371 E.13531
G1 X183.596 Y36.929 E.01626
G1 X183.384 Y36.616 E.01367
G1 X183.071 Y36.404 E.01367
G1 X182.629 Y36.323 E.01626
G1 X179.983 Y33.677 E.13531
G1 X179.335 Y33.677 E.02341
G1 X181.981 Y36.323 E.13531
G1 X181.334 Y36.323 E.02341
G1 X178.688 Y33.677 E.13531
G1 X178.04 Y33.677 E.02341
G1 X180.686 Y36.323 E.13531
G1 X180.039 Y36.323 E.02341
G1 X177.393 Y33.677 E.13531
G1 X176.746 Y33.677 E.02341
G1 X179.392 Y36.323 E.13531
G1 X178.744 Y36.323 E.02341
G1 X176.098 Y33.677 E.13531
G1 X175.451 Y33.677 E.02341
G1 X178.097 Y36.323 E.13531
G1 X177.45 Y36.323 E.02341
G1 X174.804 Y33.677 E.13531
G1 X174.156 Y33.677 E.02341
G1 X176.802 Y36.323 E.13531
G1 X176.155 Y36.323 E.02341
G1 X173.509 Y33.677 E.13531
G1 X172.862 Y33.677 E.02341
G1 X175.507 Y36.323 E.13531
G1 X174.86 Y36.323 E.02341
G1 X172.214 Y33.677 E.13531
G1 X171.567 Y33.677 E.02341
G1 X174.213 Y36.323 E.13531
G1 X173.565 Y36.323 E.02341
G1 X170.919 Y33.677 E.13531
G1 X170.272 Y33.677 E.02341
G1 X172.918 Y36.323 E.13531
G1 X172.271 Y36.323 E.02341
G1 X169.625 Y33.677 E.13531
G1 X168.977 Y33.677 E.02341
G1 X171.623 Y36.323 E.13531
G1 X170.976 Y36.323 E.02341
G1 X168.33 Y33.677 E.13531
G1 X167.683 Y33.677 E.02341
G1 X170.329 Y36.323 E.13531
G1 X169.681 Y36.323 E.02341
G1 X167.035 Y33.677 E.13531
G1 X166.388 Y33.677 E.02341
G1 X169.034 Y36.323 E.13531
G1 X168.386 Y36.323 E.02341
G1 X165.74 Y33.677 E.13531
G1 X165.093 Y33.677 E.02341
G1 X167.739 Y36.323 E.13531
G1 X167.092 Y36.323 E.02341
G1 X164.446 Y33.677 E.13531
G1 X163.798 Y33.677 E.02341
G1 X166.444 Y36.323 E.13531
G1 X165.797 Y36.323 E.02341
G1 X163.151 Y33.677 E.13531
G1 X162.504 Y33.677 E.02341
G1 X165.15 Y36.323 E.13531
G1 X164.502 Y36.323 E.02341
G1 X161.856 Y33.677 E.13531
G1 X161.209 Y33.677 E.02341
G1 X163.855 Y36.323 E.13531
G1 X163.207 Y36.323 E.02341
G1 X160.562 Y33.677 E.13531
G1 X159.914 Y33.677 E.02341
G1 X162.56 Y36.323 E.13531
G1 X161.913 Y36.323 E.02341
G1 X159.267 Y33.677 E.13531
G1 X158.619 Y33.677 E.02341
G1 X161.265 Y36.323 E.13531
G1 X160.618 Y36.323 E.02341
G1 X157.972 Y33.677 E.13531
G1 X157.325 Y33.677 E.02341
G1 X159.971 Y36.323 E.13531
G1 X159.323 Y36.323 E.02341
G1 X156.677 Y33.677 E.13531
G1 X156.03 Y33.677 E.02341
G1 X158.676 Y36.323 E.13531
G1 X158.029 Y36.323 E.02341
G1 X155.383 Y33.677 E.13531
G1 X154.735 Y33.677 E.02341
G1 X157.381 Y36.323 E.13531
G1 X156.734 Y36.323 E.02341
G1 X154.088 Y33.677 E.13531
G1 X153.44 Y33.677 E.02341
G1 X156.086 Y36.323 E.13531
G1 X155.439 Y36.323 E.02341
G1 X152.793 Y33.677 E.13531
G1 X152.146 Y33.677 E.02341
G1 X154.792 Y36.323 E.13531
G1 X154.144 Y36.323 E.02341
G1 X151.498 Y33.677 E.13531
G1 X150.851 Y33.677 E.02341
G1 X153.497 Y36.323 E.13531
G1 X152.85 Y36.323 E.02341
G1 X150.204 Y33.677 E.13531
G1 X149.556 Y33.677 E.02341
G1 X152.202 Y36.323 E.13531
G1 X151.555 Y36.323 E.02341
G1 X148.909 Y33.677 E.13531
G1 X148.262 Y33.677 E.02341
G1 X150.907 Y36.323 E.13531
G1 X150.26 Y36.323 E.02341
G1 X147.614 Y33.677 E.13531
G1 X146.967 Y33.677 E.02341
G1 X149.613 Y36.323 E.13531
G1 X148.965 Y36.323 E.02341
G1 X146.319 Y33.677 E.13531
G1 X145.672 Y33.677 E.02341
G1 X148.318 Y36.323 E.13531
G1 X147.671 Y36.323 E.02341
G1 X145.025 Y33.677 E.13531
G1 X144.377 Y33.677 E.02341
G1 X147.023 Y36.323 E.13531
G1 X146.376 Y36.323 E.02341
G1 X143.73 Y33.677 E.13531
G1 X143.083 Y33.677 E.02341
G1 X145.729 Y36.323 E.13531
G1 X145.081 Y36.323 E.02341
G1 X142.435 Y33.677 E.13531
G1 X141.788 Y33.677 E.02341
G1 X144.434 Y36.323 E.13531
G1 X143.786 Y36.323 E.02341
G1 X141.14 Y33.677 E.13531
G1 X140.493 Y33.677 E.02341
G1 X143.139 Y36.323 E.13531
G1 X142.492 Y36.323 E.02341
G1 X139.846 Y33.677 E.13531
G1 X139.198 Y33.677 E.02341
G1 X141.844 Y36.323 E.13531
G1 X141.197 Y36.323 E.02341
G1 X138.551 Y33.677 E.13531
G1 X137.904 Y33.677 E.02341
G1 X140.55 Y36.323 E.13531
G1 X139.902 Y36.323 E.02341
G1 X137.256 Y33.677 E.13531
G1 X136.609 Y33.677 E.02341
G1 X139.255 Y36.323 E.13531
G1 X138.607 Y36.323 E.02341
G1 X135.962 Y33.677 E.13531
G1 X135.314 Y33.677 E.02341
G1 X137.96 Y36.323 E.13531
G1 X137.313 Y36.323 E.02341
G1 X134.667 Y33.677 E.13531
G1 X134.019 Y33.677 E.02341
G1 X136.665 Y36.323 E.13531
G1 X136.018 Y36.323 E.02341
G1 X133.372 Y33.677 E.13531
G1 X132.725 Y33.677 E.02341
G1 X135.371 Y36.323 E.13531
G1 X134.723 Y36.323 E.02341
G1 X132.077 Y33.677 E.13531
G1 X131.43 Y33.677 E.02341
G1 X134.076 Y36.323 E.13531
G1 X133.428 Y36.323 E.02341
G1 X130.783 Y33.677 E.13531
G1 X130.135 Y33.677 E.02341
G1 X132.781 Y36.323 E.13531
G1 X132.134 Y36.323 E.02341
G1 X129.488 Y33.677 E.13531
G1 X128.84 Y33.677 E.02341
G1 X131.486 Y36.323 E.13531
G1 X130.839 Y36.323 E.02341
G1 X128.193 Y33.677 E.13531
G1 X127.546 Y33.677 E.02341
G1 X130.192 Y36.323 E.13531
G1 X129.544 Y36.323 E.02341
G1 X126.898 Y33.677 E.13531
G1 X126.251 Y33.677 E.02341
G1 X128.897 Y36.323 E.13531
G1 X128.25 Y36.323 E.02341
G1 X125.604 Y33.677 E.13531
G1 X124.956 Y33.677 E.02341
G1 X127.602 Y36.323 E.13531
G1 X126.955 Y36.323 E.02341
G1 X124.309 Y33.677 E.13531
G1 X123.662 Y33.677 E.02341
G1 X126.307 Y36.323 E.13531
G1 X125.66 Y36.323 E.02341
G1 X123.014 Y33.677 E.13531
G1 X122.367 Y33.677 E.02341
G1 X125.013 Y36.323 E.13531
G1 X124.365 Y36.323 E.02341
G1 X121.719 Y33.677 E.13531
G1 X121.072 Y33.677 E.02341
G1 X123.718 Y36.323 E.13531
G1 X123.071 Y36.323 E.02341
G1 X120.425 Y33.677 E.13531
G1 X119.777 Y33.677 E.02341
G1 X122.423 Y36.323 E.13531
G1 X121.776 Y36.323 E.02341
G1 X119.13 Y33.677 E.13531
G1 X118.483 Y33.677 E.02341
G1 X121.128 Y36.323 E.13531
G1 X120.481 Y36.323 E.02341
G1 X117.835 Y33.677 E.13531
G1 X117.188 Y33.677 E.02341
G1 X119.834 Y36.323 E.13531
G1 X119.186 Y36.323 E.02341
G1 X116.54 Y33.677 E.13531
G1 X115.893 Y33.677 E.02341
G1 X118.539 Y36.323 E.13531
G1 X117.892 Y36.323 E.02341
G1 X115.246 Y33.677 E.13531
G1 X114.598 Y33.677 E.02341
G1 X117.244 Y36.323 E.13531
G1 X116.597 Y36.323 E.02341
G1 X113.951 Y33.677 E.13531
G1 X113.304 Y33.677 E.02341
G1 X115.95 Y36.323 E.13531
G1 X115.302 Y36.323 E.02341
G1 X112.656 Y33.677 E.13531
G1 X112.009 Y33.677 E.02341
G1 X114.655 Y36.323 E.13531
G1 X114.007 Y36.323 E.02341
G1 X111.361 Y33.677 E.13531
G1 X110.714 Y33.677 E.02341
G1 X113.36 Y36.323 E.13531
G1 X112.713 Y36.323 E.02341
G1 X110.067 Y33.677 E.13531
G1 X109.419 Y33.677 E.02341
G1 X112.065 Y36.323 E.13531
G1 X111.418 Y36.323 E.02341
G1 X108.772 Y33.677 E.13531
G1 X108.125 Y33.677 E.02341
G1 X110.771 Y36.323 E.13531
G1 X110.123 Y36.323 E.02341
G1 X107.477 Y33.677 E.13531
G1 X106.83 Y33.677 E.02341
G1 X109.476 Y36.323 E.13531
G1 X108.828 Y36.323 E.02341
G1 X106.183 Y33.677 E.13531
G1 X105.535 Y33.677 E.02341
G1 X108.181 Y36.323 E.13531
G1 X107.534 Y36.323 E.02341
G1 X104.888 Y33.677 E.13531
G1 X104.24 Y33.677 E.02341
G1 X106.886 Y36.323 E.13531
G1 X106.239 Y36.323 E.02341
G1 X103.593 Y33.677 E.13531
G1 X102.946 Y33.677 E.02341
G1 X105.592 Y36.323 E.13531
G1 X104.944 Y36.323 E.02341
G1 X102.298 Y33.677 E.13531
G1 X101.651 Y33.677 E.02341
G1 X104.297 Y36.323 E.13531
G1 X103.65 Y36.323 E.02341
G1 X101.004 Y33.677 E.13531
G1 X100.356 Y33.677 E.02341
G1 X103.002 Y36.323 E.13531
G1 X102.355 Y36.323 E.02341
G1 X99.709 Y33.677 E.13531
G1 X99.061 Y33.677 E.02341
G1 X101.707 Y36.323 E.13531
G1 X101.06 Y36.323 E.02341
G1 X98.414 Y33.677 E.13531
G1 X97.767 Y33.677 E.02341
G1 X100.413 Y36.323 E.13531
G1 X99.765 Y36.323 E.02341
G1 X97.119 Y33.677 E.13531
G1 X96.472 Y33.677 E.02341
G1 X99.118 Y36.323 E.13531
G1 X98.471 Y36.323 E.02341
G1 X95.825 Y33.677 E.13531
G1 X95.177 Y33.677 E.02341
G1 X97.823 Y36.323 E.13531
G1 X97.176 Y36.323 E.02341
G1 X94.53 Y33.677 E.13531
G1 X93.883 Y33.677 E.02341
G1 X96.528 Y36.323 E.13531
G1 X95.881 Y36.323 E.02341
G1 X93.235 Y33.677 E.13531
G1 X92.588 Y33.677 E.02341
G1 X95.234 Y36.323 E.13531
G1 X94.586 Y36.323 E.02341
G1 X91.94 Y33.677 E.13531
G1 X91.293 Y33.677 E.02341
G1 X93.939 Y36.323 E.13531
G1 X93.292 Y36.323 E.02341
G1 X90.646 Y33.677 E.13531
G1 X89.998 Y33.677 E.02341
G1 X92.644 Y36.323 E.13531
G1 X91.997 Y36.323 E.02341
G1 X89.351 Y33.677 E.13531
G1 X88.704 Y33.677 E.02341
G1 X91.35 Y36.323 E.13531
G1 X90.702 Y36.323 E.02341
G1 X88.056 Y33.677 E.13531
G1 X87.409 Y33.677 E.02341
G1 X90.055 Y36.323 E.13531
G1 X89.407 Y36.323 E.02341
G1 X86.761 Y33.677 E.13531
G1 X86.114 Y33.677 E.02341
G1 X88.76 Y36.323 E.13531
G1 X88.113 Y36.323 E.02341
G1 X85.467 Y33.677 E.13531
G1 X84.819 Y33.677 E.02341
G1 X87.465 Y36.323 E.13531
G1 X86.818 Y36.323 E.02341
G1 X84.172 Y33.677 E.13531
G1 X83.525 Y33.677 E.02341
G1 X86.171 Y36.323 E.13531
G1 X85.523 Y36.323 E.02341
G1 X82.877 Y33.677 E.13531
G1 X82.23 Y33.677 E.02341
G1 X84.876 Y36.323 E.13531
G1 X84.228 Y36.323 E.02341
G1 X81.583 Y33.677 E.13531
G1 X80.935 Y33.677 E.02341
G1 X83.581 Y36.323 E.13531
G1 X82.934 Y36.323 E.02341
G1 X80.288 Y33.677 E.13531
G1 X79.64 Y33.677 E.02341
G1 X82.286 Y36.323 E.13531
G1 X81.639 Y36.323 E.02341
G1 X78.993 Y33.677 E.13531
G1 X78.346 Y33.677 E.02341
G1 X80.992 Y36.323 E.13531
G1 X80.344 Y36.323 E.02341
G1 X77.698 Y33.677 E.13531
G1 X77.051 Y33.677 E.02341
G1 X79.697 Y36.323 E.13531
G1 X79.049 Y36.323 E.02341
G1 X76.404 Y33.677 E.13531
G1 X75.756 Y33.677 E.02341
G1 X78.402 Y36.323 E.13531
G1 X77.755 Y36.323 E.02341
G1 X75.109 Y33.677 E.13531
G1 X74.461 Y33.677 E.02341
G1 X77.107 Y36.323 E.13531
G1 X76.46 Y36.323 E.02341
G1 X73.814 Y33.677 E.13531
G1 X73.167 Y33.677 E.02341
G1 X75.813 Y36.323 E.13531
G1 X75.165 Y36.323 E.02341
G1 X72.519 Y33.677 E.13531
G1 X71.872 Y33.677 E.02341
G1 X74.518 Y36.323 E.13531
G1 X73.871 Y36.323 E.02341
G1 X71.225 Y33.677 E.13531
G1 X70.577 Y33.677 E.02341
G1 X73.223 Y36.323 E.13531
G1 X72.576 Y36.323 E.02341
G1 X69.93 Y33.677 E.13531
G1 X69.283 Y33.677 E.02341
G1 X71.928 Y36.323 E.13531
G1 X71.281 Y36.323 E.02341
G1 X68.635 Y33.677 E.13531
G1 X67.988 Y33.677 E.02341
G1 X70.634 Y36.323 E.13531
G1 X69.986 Y36.323 E.02341
G1 X67.34 Y33.677 E.13531
G1 X66.693 Y33.677 E.02341
G1 X69.339 Y36.323 E.13531
G1 X68.692 Y36.323 E.02341
G1 X66.046 Y33.677 E.13531
G1 X65.398 Y33.677 E.02341
G1 X68.044 Y36.323 E.13531
G1 X67.397 Y36.323 E.02341
G1 X64.751 Y33.677 E.13531
G1 X64.104 Y33.677 E.02341
M73 P2 R76
G1 X66.749 Y36.323 E.13531
G1 X66.102 Y36.323 E.02341
G1 X63.456 Y33.677 E.13531
G1 X62.809 Y33.677 E.02341
G1 X65.455 Y36.323 E.13531
G1 X64.807 Y36.323 E.02341
G1 X62.161 Y33.677 E.13531
G1 X61.514 Y33.677 E.02341
G1 X64.16 Y36.323 E.13531
G1 X63.513 Y36.323 E.02341
G1 X60.867 Y33.677 E.13531
G1 X60.219 Y33.677 E.02341
G1 X62.865 Y36.323 E.13531
G1 X62.218 Y36.323 E.02341
G1 X59.572 Y33.677 E.13531
G1 X58.925 Y33.677 E.02341
G1 X61.571 Y36.323 E.13531
G1 X60.923 Y36.323 E.02341
G1 X58.277 Y33.677 E.13531
G1 X57.63 Y33.677 E.02341
G1 X60.276 Y36.323 E.13531
G1 X59.628 Y36.323 E.02341
G1 X56.982 Y33.677 E.13531
G1 X56.335 Y33.677 E.02341
G1 X58.981 Y36.323 E.13531
G1 X58.334 Y36.323 E.02341
G1 X55.688 Y33.677 E.13531
G1 X55.04 Y33.677 E.02341
G1 X57.686 Y36.323 E.13531
G1 X57.039 Y36.323 E.02341
G1 X54.393 Y33.677 E.13531
G1 X53.746 Y33.677 E.02341
G1 X56.392 Y36.323 E.13531
G1 X55.744 Y36.323 E.02341
G1 X53.098 Y33.677 E.13531
G1 X52.451 Y33.677 E.02341
G1 X55.097 Y36.323 E.13531
G1 X54.449 Y36.323 E.02341
G1 X51.804 Y33.677 E.13531
G1 X51.156 Y33.677 E.02341
G1 X53.802 Y36.323 E.13531
G1 X53.155 Y36.323 E.02341
G1 X50.509 Y33.677 E.13531
G1 X49.861 Y33.677 E.02341
G1 X52.507 Y36.323 E.13531
G1 X51.86 Y36.323 E.02341
G1 X49.214 Y33.677 E.13531
G1 X48.567 Y33.677 E.02341
G1 X51.213 Y36.323 E.13531
G1 X50.565 Y36.323 E.02341
G1 X47.919 Y33.677 E.13531
G1 X47.272 Y33.677 E.02341
G1 X49.918 Y36.323 E.13531
G1 X49.271 Y36.323 E.02341
G1 X46.625 Y33.677 E.13531
G1 X45.977 Y33.677 E.02341
G1 X48.623 Y36.323 E.13531
G1 X47.976 Y36.323 E.02341
G1 X45.33 Y33.677 E.13531
G1 X44.682 Y33.677 E.02341
G1 X47.328 Y36.323 E.13531
G1 X46.681 Y36.323 E.02341
G1 X44.035 Y33.677 E.13531
G1 X43.388 Y33.677 E.02341
G1 X46.034 Y36.323 E.13531
G1 X45.386 Y36.323 E.02341
G1 X42.74 Y33.677 E.13531
G1 X42.093 Y33.677 E.02341
G1 X44.739 Y36.323 E.13531
